; generated by Slic3r 1.1.7 on 2014-08-21 at 17:14:33

; perimeters extrusion width = 0.35mm
; infill extrusion width = 0.39mm
; solid infill extrusion width = 0.39mm
; top infill extrusion width = 0.39mm

G21 ; set units to millimeters
M107
M104 S220 ; set temperature
G28 ; home all axes
G1 Z5 F5000 ; lift nozzle

M109 S220 ; wait for temperature to be reached
G90 ; use absolute coordinates
G92 E0
M82 ; use absolute distances for extrusion
G1 F1800.000 E-1.00000
G92 E0
G1 Z0.350 F7800.000
G1 X54.536 Y137.237 F7800.000
G1 E1.00000 F1800.000
G1 X56.958 Y136.291 E1.23641 F1080.000
G1 X60.027 Y136.176 E1.51566
G1 X61.291 Y136.365 E1.63187
G1 X69.729 Y137.913 E2.41201 F1080.000
G1 X72.177 Y138.790 E2.64842
G1 X74.245 Y140.366 E2.88483
G1 X75.546 Y142.124 E3.08379
G1 X76.929 Y144.808 E3.35827
G1 X80.605 Y154.884 E4.33357
G1 X81.201 Y157.931 E4.61585
G1 X81.339 Y161.049 E4.89965
G1 X81.014 Y164.140 E5.18226
G1 X80.227 Y167.168 E5.46673
G1 X78.998 Y170.034 E5.75029
G1 X78.082 Y171.613 E5.91630
G1 X77.335 Y172.699 E6.03614
G1 X76.195 Y174.106 E6.20082
G1 X75.245 Y175.103 E6.32601
G1 X73.279 Y176.807 E6.56262
G1 X68.131 Y180.603 E7.14425
G1 X67.007 Y181.304 E7.26464
G1 X64.296 Y182.682 E7.54118
G1 X63.014 Y183.131 E7.66466
G1 X62.552 Y183.247 E7.70803
G1 X60.955 Y183.587 E7.85644
G1 X58.397 Y183.885 E8.09064
G1 X56.054 Y183.834 E8.30379
G1 X53.513 Y183.481 E8.53702
G1 X52.078 Y183.132 E8.67135
G1 X50.728 Y182.681 E8.80076
G1 X50.581 Y182.617 E8.81528
G1 X49.978 Y182.337 E8.87578
G1 X48.501 Y181.569 E9.02711
G1 X46.986 Y180.656 E9.18799
G1 X45.471 Y179.615 E9.35514
G1 X44.089 Y178.493 E9.51702
G1 X42.668 Y177.105 E9.69762
G1 X41.313 Y175.514 E9.88762
G1 X41.207 Y175.367 E9.90410
G1 X40.527 Y174.401 E10.01156
G1 X39.716 Y172.975 E10.16073
G1 X38.943 Y171.170 E10.33921
G1 X38.250 Y169.182 E10.53071
G1 X37.651 Y166.840 E10.75051
G1 X37.382 Y165.686 E10.85823
G1 X37.133 Y164.433 E10.97439
G1 X36.924 Y162.438 E11.15681
G1 X36.948 Y160.381 E11.34389
G1 X37.084 Y158.452 E11.51972
G1 X37.305 Y156.697 E11.68054
G1 X37.618 Y154.915 E11.84501
G1 X37.951 Y153.454 E11.98128
G1 X38.264 Y152.265 E12.09314
G1 X38.357 Y151.961 E12.12202
G1 X38.711 Y151.006 E12.21465
G1 X39.063 Y150.204 E12.29429
G1 X39.431 Y149.429 E12.37228
G1 X40.210 Y148.016 E12.51897
G1 X40.577 Y147.434 E12.58152
G1 X41.062 Y146.713 E12.66056
G1 X41.440 Y146.204 E12.71819
G1 X41.983 Y145.518 E12.79776
G1 X42.373 Y145.074 E12.85150
G1 X43.047 Y144.363 E12.94056
G1 X43.554 Y143.886 E13.00388
G1 X44.720 Y142.969 E13.13875
G1 X45.308 Y142.598 E13.20203
G1 X54.491 Y137.264 E14.16764
G1 X54.850 Y137.778 F7800.000
G1 X57.186 Y136.881 E14.39514 F1080.000
G1 X59.937 Y136.794 E14.64542
G1 X61.178 Y136.980 E14.75954
G1 X69.611 Y138.526 E15.53913 F1080.000
G1 X71.961 Y139.384 E15.76663
G1 X73.924 Y140.936 E15.99413
G1 X75.000 Y142.428 E16.16145
G1 X76.344 Y145.026 E16.42736
G1 X79.996 Y155.023 E17.39509
G1 X80.577 Y157.978 E17.66896
G1 X80.716 Y161.002 E17.94426
G1 X80.404 Y164.002 E18.21847
G1 X79.646 Y166.939 E18.49436
G1 X78.457 Y169.720 E18.76935
G1 X76.849 Y172.305 E19.04619
G1 X75.710 Y173.713 E19.21088
G1 X74.829 Y174.636 E19.32686
G1 X72.908 Y176.304 E19.55821
G1 X66.719 Y180.749 E20.25110
G1 X64.043 Y182.110 E20.52407
G1 X62.856 Y182.526 E20.63847
G1 X62.414 Y182.637 E20.67984
G1 X60.859 Y182.969 E20.82446
G1 X58.396 Y183.260 E21.04996
G1 X56.123 Y183.213 E21.25669
G1 X53.661 Y182.873 E21.48272
G1 X52.225 Y182.524 E21.61706
G1 X50.835 Y182.046 E21.75077
G1 X50.260 Y181.780 E21.80839
G1 X48.820 Y181.032 E21.95591
G1 X47.332 Y180.136 E22.11383
G1 X45.857 Y179.124 E22.27645
G1 X44.513 Y178.034 E22.43384
G1 X43.135 Y176.689 E22.60890
G1 X41.819 Y175.149 E22.79313
G1 X41.038 Y174.041 E22.91639
G1 X40.287 Y172.720 E23.05459
G1 X39.530 Y170.955 E23.22916
G1 X38.853 Y169.019 E23.41568
G1 X38.259 Y166.696 E23.63368
G1 X37.994 Y165.559 E23.73990
G1 X37.751 Y164.338 E23.85307
G1 X37.549 Y162.437 E24.02691
G1 X37.572 Y160.420 E24.21030
G1 X37.705 Y158.527 E24.38291
G1 X37.922 Y156.800 E24.54118
G1 X38.228 Y155.053 E24.70243
G1 X38.556 Y153.609 E24.83708
G1 X38.862 Y152.447 E24.94632
G1 X38.954 Y152.148 E24.97474
G1 X39.283 Y151.257 E25.06116
G1 X39.982 Y149.723 E25.21443
G1 X40.739 Y148.350 E25.35700
G1 X41.105 Y147.769 E25.41948
G1 X41.563 Y147.085 E25.49427
G1 X41.940 Y146.578 E25.55175
G1 X42.454 Y145.930 E25.62694
G1 X42.841 Y145.487 E25.68043
G1 X43.476 Y144.818 E25.76428
G1 X43.982 Y144.341 E25.82748
G1 X45.062 Y143.492 E25.95244
G1 X45.622 Y143.138 E26.01271
G1 X54.805 Y137.804 E26.97832
G1 X55.164 Y138.318 F7800.000
G1 X57.410 Y137.473 E27.19655 F1080.000
G1 X59.847 Y137.412 E27.41819
G1 X61.066 Y137.594 E27.53023
G1 X69.493 Y139.140 E28.30928 F1080.000
G1 X71.741 Y139.978 E28.52750
G1 X73.593 Y141.505 E28.74573
G1 X74.454 Y142.732 E28.88208
G1 X75.758 Y145.244 E29.13942
G1 X79.386 Y155.161 E30.09959
G1 X79.954 Y158.024 E30.36504
G1 X80.093 Y160.955 E30.63185
G1 X79.795 Y163.863 E30.89765
G1 X79.064 Y166.711 E31.16497
G1 X77.917 Y169.407 E31.43139
G1 X76.363 Y171.912 E31.69943
G1 X74.413 Y174.170 E31.97068
G1 X72.537 Y175.801 E32.19678
G1 X66.431 Y180.195 E32.88083
G1 X63.957 Y181.465 E33.13365
G1 X62.697 Y181.922 E33.25555
G1 X60.763 Y182.352 E33.43572
G1 X58.395 Y182.635 E33.65251
G1 X56.193 Y182.592 E33.85283
G1 X53.808 Y182.266 E34.07167
G1 X52.373 Y181.917 E34.20600
G1 X51.088 Y181.475 E34.32955
G1 X50.542 Y181.222 E34.38429
G1 X49.139 Y180.494 E34.52799
G1 X47.678 Y179.616 E34.68296
G1 X46.244 Y178.633 E34.84104
G1 X44.937 Y177.575 E34.99395
G1 X43.602 Y176.274 E35.16347
G1 X42.326 Y174.783 E35.34192
G1 X41.549 Y173.681 E35.46452
G1 X40.857 Y172.465 E35.59175
G1 X40.117 Y170.740 E35.76240
G1 X39.457 Y168.856 E35.94394
G1 X38.867 Y166.553 E36.16015
G1 X38.605 Y165.431 E36.26486
G1 X38.368 Y164.243 E36.37505
G1 X38.174 Y162.436 E36.54030
G1 X38.195 Y160.460 E36.72000
G1 X38.325 Y158.602 E36.88938
G1 X38.538 Y156.902 E37.04512
G1 X38.837 Y155.190 E37.20314
G1 X39.162 Y153.764 E37.33617
G1 X39.460 Y152.630 E37.44278
G1 X39.550 Y152.336 E37.47075
G1 X39.855 Y151.508 E37.55096
G1 X40.533 Y150.017 E37.69989
G1 X41.267 Y148.683 E37.83833
G1 X41.633 Y148.103 E37.90075
G1 X42.065 Y147.458 E37.97129
G1 X42.441 Y146.952 E38.02861
G1 X42.924 Y146.341 E38.09943
G1 X43.310 Y145.901 E38.15266
G1 X43.904 Y145.273 E38.23130
G1 X44.409 Y144.797 E38.29439
G1 X45.404 Y144.015 E38.40943
G1 X45.936 Y143.679 E38.46669
G1 X55.119 Y138.345 E39.43230
G1 X55.478 Y138.858 F7800.000
G1 X57.631 Y138.067 E39.64085 F1080.000
G1 X59.757 Y138.031 E39.83426
G1 X60.953 Y138.209 E39.94420
G1 X69.374 Y139.753 E40.72270 F1080.000
G1 X71.517 Y140.571 E40.93125
G1 X73.253 Y142.070 E41.13979
G1 X73.908 Y143.036 E41.24595
G1 X75.173 Y145.463 E41.49473
G1 X78.777 Y155.299 E42.44732
G1 X79.331 Y158.071 E42.70436
G1 X79.470 Y160.909 E42.96268
G1 X79.186 Y163.725 E43.22007
G1 X78.483 Y166.482 E43.47882
G1 X77.376 Y169.093 E43.73668
G1 X75.878 Y171.519 E43.99592
G1 X73.998 Y173.703 E44.25798
G1 X72.166 Y175.298 E44.47882
G1 X66.142 Y179.640 E45.15404
G1 X63.704 Y180.894 E45.40330
G1 X62.538 Y181.317 E45.51611
G1 X60.666 Y181.734 E45.69049
G1 X58.394 Y182.010 E45.89859
G1 X56.262 Y181.971 E46.09248
G1 X53.956 Y181.659 E46.30412
G1 X51.468 Y180.959 E46.53912
G1 X50.824 Y180.665 E46.60354
G1 X49.458 Y179.957 E46.74343
G1 X48.025 Y179.096 E46.89544
G1 X46.631 Y178.143 E47.04899
G1 X45.362 Y177.116 E47.19741
G1 X44.136 Y175.934 E47.35225
G1 X42.833 Y174.417 E47.53409
G1 X42.060 Y173.322 E47.65602
G1 X41.428 Y172.210 E47.77228
G1 X40.703 Y170.526 E47.93902
G1 X40.060 Y168.694 E48.11558
G1 X39.476 Y166.409 E48.32998
G1 X39.217 Y165.304 E48.43320
G1 X38.986 Y164.148 E48.54040
G1 X38.799 Y162.435 E48.69706
G1 X38.819 Y160.500 E48.87307
G1 X38.946 Y158.677 E49.03923
G1 X39.154 Y157.005 E49.19242
G1 X39.447 Y155.328 E49.34723
G1 X39.767 Y153.919 E49.47863
G1 X40.057 Y152.812 E49.58262
G1 X40.427 Y151.759 E49.68410
G1 X41.085 Y150.311 E49.82870
G1 X41.796 Y149.017 E49.96301
G1 X42.161 Y148.437 E50.02536
G1 X42.567 Y147.831 E50.09166
G1 X42.942 Y147.326 E50.14882
G1 X43.394 Y146.753 E50.21526
G1 X43.778 Y146.314 E50.26823
G1 X44.333 Y145.727 E50.34167
G1 X44.837 Y145.252 E50.40465
G1 X45.746 Y144.538 E50.50977
G1 X46.250 Y144.219 E50.56402
G1 X55.433 Y138.885 E51.52963
G1 F1800.000 E50.52963
G92 E0
G1 X55.996 Y171.114 F7800.000
G1 E1.00000 F1800.000
G1 X55.272 Y169.740 E1.14121 F540.000
G1 X54.852 Y169.317 E1.19543
G1 X54.757 Y169.176 E1.21082
G1 X53.908 Y168.450 E1.31244
G1 X53.858 Y168.323 E1.32479
G1 X53.884 Y167.482 E1.40129
G1 X53.511 Y167.021 E1.45529
G1 X52.992 Y165.929 E1.56526
G1 X52.736 Y165.488 E1.61160
G1 X52.251 Y164.403 E1.71960
G1 X52.066 Y163.931 E1.76570
G1 X51.615 Y162.114 E1.93596
G1 X51.488 Y160.413 E2.09106
G1 X51.615 Y158.712 E2.24616
G1 X52.048 Y156.878 E2.41756
G1 X52.224 Y156.430 E2.46124
G1 X52.642 Y155.235 E2.57641
G1 X53.518 Y153.861 E2.72456
G1 X53.717 Y153.616 E2.75333
G1 X55.252 Y152.194 E2.94355
G1 X55.833 Y151.476 E3.02756
G1 X56.129 Y151.285 E3.05955
G1 X56.733 Y150.553 E3.14591
G1 X57.326 Y150.043 E3.21697
G1 X57.353 Y149.991 E3.22230
G1 X58.552 Y149.215 E3.35219
G1 X58.787 Y147.884 E3.47512
G1 X58.693 Y146.275 E3.62160
G1 X59.266 Y145.641 E3.69935
G1 X59.485 Y145.671 E3.71939
G1 X60.201 Y145.987 E3.79061
G1 X60.721 Y146.440 E3.85333
G1 X61.343 Y146.772 E3.91737
G1 X61.754 Y147.164 E3.96909
G1 X63.403 Y148.018 E4.13791
G1 X65.163 Y147.729 E4.30008
G1 X65.586 Y147.486 E4.34445
G1 X66.171 Y147.386 E4.39845
G1 X66.646 Y147.144 E4.44689
G1 X67.223 Y147.094 E4.49954
G1 X67.464 Y147.130 E4.52171
G1 X68.032 Y148.114 E4.62505
G1 X67.835 Y149.679 E4.76847
G1 X67.861 Y150.885 E4.87807
G1 X68.805 Y152.006 E5.01135
G1 X68.837 Y152.096 E5.02002
G1 X69.425 Y152.996 E5.11783
G1 X69.798 Y153.730 E5.19265
G1 X69.938 Y153.904 E5.21297
G1 X70.613 Y155.220 E5.34751
G1 X70.764 Y155.481 E5.37487
G1 X71.382 Y157.054 E5.52854
G1 X71.758 Y158.712 E5.68316
G1 X71.886 Y160.413 E5.83827
G1 X71.758 Y162.114 E5.99338
G1 X71.382 Y163.772 E6.14800
G1 X70.764 Y165.346 E6.30169
G1 X69.923 Y166.796 E6.45409
G1 X68.884 Y168.079 E6.60424
G1 X67.643 Y169.186 E6.75548
G1 X66.479 Y169.926 E6.88090
G1 X66.013 Y170.185 E6.92938
G1 X65.157 Y170.464 E7.01124
G1 X64.135 Y171.068 E7.11921
G1 X64.032 Y171.225 E7.13627
G1 X63.982 Y171.263 E7.14198
G1 X63.571 Y171.997 E7.21845
G1 X63.404 Y172.246 E7.24574
G1 X62.580 Y172.923 E7.34273
G1 X61.476 Y173.444 E7.45373
G1 X60.532 Y173.987 E7.55276
G1 X59.479 Y174.227 E7.65098
G1 X58.325 Y174.408 E7.75719
G1 X57.071 Y174.412 E7.87120
G1 X55.700 Y174.260 E7.99659
G1 X54.395 Y173.944 E8.11869
G1 X53.305 Y173.402 E8.22940
G1 X52.215 Y172.756 E8.34464
G1 X51.303 Y172.148 E8.44426
G1 X50.493 Y171.510 E8.53803
G1 X49.771 Y170.834 E8.62799
G1 X48.966 Y169.929 E8.73810
G1 X48.328 Y169.024 E8.83875
G1 X47.829 Y167.883 E8.95202
G1 X47.386 Y166.674 E9.06915
G1 X46.655 Y163.742 E9.34393
G1 X46.493 Y162.966 E9.41595
G1 X46.398 Y162.350 E9.47263
G1 X46.405 Y160.959 E9.59917
G1 X46.494 Y159.561 E9.72650
G1 X46.654 Y158.240 E9.84748
G1 X46.865 Y156.979 E9.96374
G1 X47.135 Y155.784 E10.07512
G1 X47.407 Y154.767 E10.17088
G1 X47.807 Y153.857 E10.26122
G1 X48.242 Y153.042 E10.34527
G1 X48.689 Y152.333 E10.42151
G1 X49.140 Y151.728 E10.49008
G1 X49.579 Y151.226 E10.55073
G1 X49.977 Y150.851 E10.60046
G1 X50.076 Y150.786 E10.61118
G1 X50.370 Y150.629 E10.64155
G1 X50.908 Y150.392 E10.69500
G1 X51.377 Y150.215 E10.74058
G1 X51.884 Y150.070 E10.78855
G1 X52.072 Y150.427 E10.82523
G1 X51.861 Y150.603 E10.85024
G1 X51.296 Y151.256 E10.92878
G1 X51.080 Y151.583 E10.96435
G1 X51.020 Y151.708 E10.97698
G1 X50.362 Y152.542 E11.07357
G1 X49.995 Y153.050 E11.13058
G1 X49.480 Y153.855 E11.21744
G1 X49.127 Y154.498 E11.28421
G1 X48.794 Y155.211 E11.35578
G1 X48.519 Y155.966 E11.42883
G1 X48.300 Y156.774 E11.50496
G1 X48.119 Y157.606 E11.58233
G1 X47.974 Y158.481 E11.66300
G1 X47.870 Y159.397 E11.74681
G1 X47.813 Y160.346 E11.83326
G1 X47.804 Y161.313 E11.92118
G1 X47.839 Y162.464 E12.02590
G1 X47.813 Y163.232 E12.09577
G1 X47.823 Y163.569 E12.12647
G1 X47.904 Y164.389 E12.20133
G1 X48.121 Y165.483 E12.30277
G1 X48.426 Y166.506 E12.39983
G1 X48.826 Y167.479 E12.49551
G1 X49.311 Y168.311 E12.58303
G1 X49.827 Y169.087 E12.66781
G1 X50.447 Y169.814 E12.75468
G1 X51.220 Y170.383 E12.84195
G1 X51.839 Y170.631 E12.90258
G1 X52.601 Y171.031 E12.98091
G1 X53.464 Y171.345 E13.06437
G1 X54.074 Y171.416 E13.12017
G1 X54.543 Y171.399 E13.16292
G1 X55.944 Y171.124 E13.29270
G1 X55.051 Y170.662 F7800.000
G1 X54.759 Y170.107 E13.34972 F378.000
G1 X54.376 Y169.730 E13.39862
G1 X54.286 Y169.596 E13.41326
G1 X53.384 Y168.823 E13.52130
G1 X53.230 Y168.433 E13.55948
G1 X53.253 Y167.695 E13.62659
G1 X52.978 Y167.356 E13.66623
G1 X52.438 Y166.220 E13.78064
G1 X52.179 Y165.773 E13.82765
G1 X51.675 Y164.645 E13.93994
G1 X51.470 Y164.123 E13.99098
G1 X50.996 Y162.207 E14.17042
G1 X50.861 Y160.413 E14.33401
G1 X50.996 Y158.619 E14.49760
G1 X51.450 Y156.690 E14.67780
G1 X51.638 Y156.213 E14.72443
G1 X52.072 Y154.969 E14.84423
G1 X53.010 Y153.495 E15.00308
G1 X53.258 Y153.189 E15.03889
G1 X54.797 Y151.763 E15.22969
G1 X55.410 Y151.005 E15.31833
G1 X55.709 Y150.813 E15.35060
G1 X56.286 Y150.114 E15.43302
G1 X56.827 Y149.648 E15.49797
G1 X56.875 Y149.556 E15.50735
G1 X57.984 Y148.838 E15.62751
G1 X58.159 Y147.847 E15.71905
G1 X58.058 Y146.121 E15.87628
G1 X58.105 Y145.995 E15.88851
G1 X58.741 Y145.290 E15.97481
G1 X58.968 Y144.965 E16.01086
G1 X59.662 Y145.065 E16.07458
G1 X60.534 Y145.449 E16.16124
G1 X61.078 Y145.923 E16.22683
G1 X61.712 Y146.261 E16.29216
G1 X62.121 Y146.650 E16.34353
G1 X63.506 Y147.368 E16.48539
G1 X64.950 Y147.131 E16.61838
G1 X65.371 Y146.888 E16.66260
G1 X65.972 Y146.786 E16.71807
G1 X66.481 Y146.527 E16.76994
G1 X67.237 Y146.464 E16.83898
G1 X67.883 Y146.569 E16.89849
G1 X68.097 Y147.000 E16.94224
G1 X68.630 Y147.899 E17.03726
G1 X68.668 Y148.062 E17.05248
G1 X68.461 Y149.712 E17.20367
G1 X68.481 Y150.651 E17.28908
G1 X69.356 Y151.690 E17.41257
G1 X69.401 Y151.816 E17.42475
G1 X69.967 Y152.683 E17.51892
G1 X70.325 Y153.388 E17.59081
G1 X70.465 Y153.561 E17.61102
G1 X71.162 Y154.921 E17.74999
G1 X71.328 Y155.208 E17.78018
G1 X71.981 Y156.869 E17.94246
G1 X72.378 Y158.619 E18.10561
G1 X72.512 Y160.413 E18.26920
G1 X72.378 Y162.207 E18.43279
G1 X71.981 Y163.957 E18.59594
G1 X71.328 Y165.618 E18.75823
G1 X70.440 Y167.151 E18.91935
G1 X69.336 Y168.514 E19.07882
G1 X68.022 Y169.686 E19.23894
G1 X66.807 Y170.457 E19.36977
G1 X66.503 Y170.640 E19.40203
G1 X66.250 Y170.766 E19.42775
G1 X65.418 Y171.036 E19.50722
G1 X64.583 Y171.524 E19.59523
G1 X64.463 Y171.682 E19.61325
G1 X64.158 Y172.245 E19.67146
G1 X63.874 Y172.667 E19.71776
G1 X62.904 Y173.461 E19.83170
G1 X61.767 Y173.998 E19.94604
G1 X60.863 Y174.524 E20.04114
G1 X60.739 Y174.578 E20.05346
G1 X59.585 Y174.843 E20.16111
G1 X58.363 Y175.034 E20.27356
G1 X57.026 Y175.037 E20.39518
G1 X55.585 Y174.876 E20.52698
G1 X54.196 Y174.539 E20.65697
G1 X53.006 Y173.951 E20.77768
G1 X51.883 Y173.285 E20.89641
G1 X50.936 Y172.655 E20.99979
G1 X50.087 Y171.986 E21.09813
G1 X49.324 Y171.271 E21.19321
G1 X48.478 Y170.321 E21.30889
G1 X47.783 Y169.334 E21.41863
G1 X47.249 Y168.116 E21.53956
G1 X46.790 Y166.863 E21.66094
G1 X46.045 Y163.877 E21.94075
G1 X45.878 Y163.077 E22.01502
G1 X45.773 Y162.398 E22.07750
G1 X45.780 Y160.934 E22.21066
G1 X45.871 Y159.504 E22.34097
G1 X46.036 Y158.146 E22.46532
G1 X46.253 Y156.855 E22.58440
G1 X46.526 Y155.640 E22.69760
G1 X46.821 Y154.547 E22.80056
G1 X47.244 Y153.584 E22.89621
G1 X47.701 Y152.728 E22.98446
G1 X48.174 Y151.979 E23.06496
G1 X48.653 Y151.335 E23.13800
G1 X49.130 Y150.791 E23.20370
G1 X49.589 Y150.358 E23.26115
G1 X50.096 Y150.067 E23.31425
G1 X50.654 Y149.820 E23.36971
G1 X51.175 Y149.623 E23.42038
G1 X51.637 Y149.490 E23.46409
G1 X51.994 Y149.445 E23.49683
G1 X52.449 Y149.474 E23.53831
G1 X52.806 Y149.555 E23.57161
G1 X53.182 Y149.691 E23.60795
G1 X53.202 Y150.007 E23.63673
G1 X53.078 Y150.121 E23.65210
G1 X53.027 Y150.224 E23.66256
G1 X52.816 Y150.477 E23.69246
G1 X52.777 Y150.566 E23.70132
G1 X52.667 Y150.700 E23.71707
