; generated by Slic3r 1.0.0RC2 on 2014-01-28 at 15:39:19

; layer_height = 0.25
; perimeters = 1
; top_solid_layers = 1
; bottom_solid_layers = 1
; fill_density = 0.12
; perimeter_speed = 30
; infill_speed = 60
; travel_speed = 130
; nozzle_diameter = 0.35
; filament_diameter = 1.75
; extrusion_multiplier = 1
; perimeters extrusion width = 0.35mm
; infill extrusion width = 0.39mm
; solid infill extrusion width = 0.39mm
; top infill extrusion width = 0.39mm
; first layer extrusion width = 0.70mm

G21 ; set units to millimeters
M107
M104 S220 ; set temperature
G28 ; home all axes
G1 Z5 F5000 ; lift nozzle

M109 S220 ; wait for temperature to be reached
G90 ; use absolute coordinates
G92 E0
M82 ; use absolute distances for extrusion
G1 F1800.000 E-1.00000
G92 E0
G1 Z0.350 F7800.000
G1 X84.430 Y84.430 F7800.000
G1 E1.00000 F1800.000
G1 X85.630 Y83.450 E1.14088 F540.000
G1 X86.990 Y82.720 E1.28123
G1 X88.460 Y82.280 E1.42076
G1 X90.000 Y82.130 E1.56145
G1 X110.000 Y82.130 E3.38004
G1 X111.540 Y82.280 E3.52074
G1 X113.010 Y82.720 E3.66026
G1 X114.370 Y83.450 E3.80062
G1 X115.570 Y84.430 E3.94150
G1 X116.550 Y85.630 E4.08238
G1 X117.280 Y86.990 E4.22273
G1 X117.720 Y88.460 E4.36225
G1 X117.870 Y90.000 E4.50295
G1 X117.870 Y110.000 E6.32154
G1 X117.720 Y111.540 E6.46223
G1 X117.280 Y113.010 E6.60176
G1 X116.550 Y114.370 E6.74211
G1 X115.570 Y115.570 E6.88299
G1 X114.370 Y116.550 E7.02387
G1 X113.010 Y117.280 E7.16422
G1 X111.540 Y117.720 E7.30375
G1 X110.000 Y117.870 E7.44444
G1 X90.000 Y117.870 E9.26304
G1 X88.460 Y117.720 E9.40373
G1 X86.990 Y117.280 E9.54326
G1 X85.630 Y116.550 E9.68361
G1 X84.430 Y115.570 E9.82449
G1 X83.450 Y114.370 E9.96537
G1 X82.720 Y113.010 E10.10572
G1 X82.280 Y111.540 E10.24525
G1 X82.130 Y110.000 E10.38594
G1 X82.130 Y90.000 E12.20453
G1 X82.280 Y88.460 E12.34523
G1 X82.720 Y86.990 E12.48475
G1 X83.450 Y85.630 E12.62511
G1 X84.371 Y84.503 E12.75746
G1 X84.870 Y84.870 F7800.000
G1 X85.970 Y83.970 E12.88670 F540.000
G1 X87.230 Y83.300 E13.01646
G1 X88.590 Y82.890 E13.14562
G1 X90.000 Y82.750 E13.27446
G1 X110.000 Y82.750 E15.09305
G1 X111.410 Y82.890 E15.22189
G1 X112.770 Y83.300 E15.35106
G1 X114.030 Y83.970 E15.48082
G1 X115.130 Y84.870 E15.61005
G1 X116.030 Y85.970 E15.73929
G1 X116.700 Y87.230 E15.86905
G1 X117.110 Y88.590 E15.99821
G1 X117.250 Y90.000 E16.12705
G1 X117.250 Y110.000 E17.94564
G1 X117.110 Y111.410 E18.07449
G1 X116.700 Y112.770 E18.20365
G1 X116.030 Y114.030 E18.33341
G1 X115.130 Y115.130 E18.46264
G1 X114.030 Y116.030 E18.59188
G1 X112.770 Y116.700 E18.72164
G1 X111.410 Y117.110 E18.85080
G1 X110.000 Y117.250 E18.97964
G1 X90.000 Y117.250 E20.79824
G1 X88.590 Y117.110 E20.92708
G1 X87.230 Y116.700 E21.05624
G1 X85.970 Y116.030 E21.18600
G1 X84.870 Y115.130 E21.31524
G1 X83.970 Y114.030 E21.44447
G1 X83.300 Y112.770 E21.57423
G1 X82.890 Y111.410 E21.70340
G1 X82.750 Y110.000 E21.83224
G1 X82.750 Y90.000 E23.65083
G1 X82.890 Y88.590 E23.77967
G1 X83.300 Y87.230 E23.90883
G1 X83.970 Y85.970 E24.03859
G1 X84.811 Y84.943 E24.15930
G1 X85.320 Y85.320 F7800.000
G1 X86.320 Y84.490 E24.27747 F540.000
G1 X87.460 Y83.880 E24.39504
G1 X88.710 Y83.500 E24.51384
G1 X90.000 Y83.380 E24.63164
G1 X110.000 Y83.380 E26.45024
G1 X111.290 Y83.500 E26.56804
G1 X112.540 Y83.880 E26.68684
G1 X113.680 Y84.490 E26.80441
G1 X114.680 Y85.320 E26.92258
G1 X115.510 Y86.320 E27.04075
G1 X116.120 Y87.460 E27.15831
G1 X116.500 Y88.710 E27.27711
G1 X116.620 Y90.000 E27.39492
G1 X116.620 Y110.000 E29.21351
G1 X116.500 Y111.290 E29.33131
G1 X116.120 Y112.540 E29.45011
G1 X115.510 Y113.680 E29.56768
G1 X114.680 Y114.680 E29.68585
G1 X113.680 Y115.510 E29.80402
G1 X112.540 Y116.120 E29.92159
G1 X111.290 Y116.500 E30.04038
G1 X110.000 Y116.620 E30.15819
G1 X90.000 Y116.620 E31.97678
G1 X88.710 Y116.500 E32.09459
G1 X87.460 Y116.120 E32.21338
G1 X86.320 Y115.510 E32.33095
G1 X85.320 Y114.680 E32.44912
G1 X84.490 Y113.680 E32.56729
G1 X83.880 Y112.540 E32.68486
G1 X83.500 Y111.290 E32.80366
G1 X83.380 Y110.000 E32.92146
G1 X83.380 Y90.000 E34.74005
G1 X83.500 Y88.710 E34.85786
G1 X83.880 Y87.460 E34.97666
G1 X84.490 Y86.320 E35.09422
G1 X85.260 Y85.392 E35.20387
G1 F1800.000 E34.20387
G92 E0
G1 X90.350 Y90.350 F7800.000
G1 E1.00000 F1800.000
G1 X109.650 Y90.350 E2.75494 F378.000
G1 X109.650 Y109.650 E4.50988
G1 X90.350 Y109.650 E6.26482
G1 X90.350 Y90.444 E8.01124
G1 F1800.000 E7.01124
G92 E0
G1 X90.835 Y109.229 F7800.000
G1 E1.00000 F1800.000
G1 X90.771 Y109.165 E1.00828 F1080.000
G1 X90.771 Y108.268 E1.09112
G1 X91.732 Y109.229 E1.21656
G1 X92.629 Y109.229 E1.29939
G1 X90.771 Y107.371 E1.54198
G1 X90.771 Y106.473 E1.62482
G1 X93.527 Y109.229 E1.98455
G1 X94.424 Y109.229 E2.06739
G1 X90.771 Y105.576 E2.54428
G1 X90.771 Y104.679 E2.62712
G1 X95.321 Y109.229 E3.22115
G1 X96.218 Y109.229 E3.30399
G1 X90.771 Y103.782 E4.01518
G1 X90.771 Y102.884 E4.09802
G1 X97.116 Y109.229 E4.92636
G1 X98.013 Y109.229 E5.00919
G1 X90.771 Y101.987 E5.95468
G1 X90.771 Y101.090 E6.03752
G1 X98.910 Y109.229 E7.10016
G1 X99.807 Y109.229 E7.18300
G1 X90.771 Y100.193 E8.36279
G1 X90.771 Y99.295 E8.44563
G1 X100.705 Y109.229 E9.74257
G1 X101.602 Y109.229 E9.82541
G1 X90.771 Y98.398 E11.23950
G1 X90.771 Y97.501 E11.32234
G1 X102.499 Y109.229 E12.85358
G1 X103.396 Y109.229 E12.93642
G1 X90.771 Y96.604 E14.58481
G1 X90.771 Y95.706 E14.66765
G1 X104.294 Y109.229 E16.43320
G1 X105.191 Y109.229 E16.51603
G1 X90.771 Y94.809 E18.39873
G1 X90.771 Y93.912 E18.48157
G1 X106.088 Y109.229 E20.48141
G1 X106.986 Y109.229 E20.56425
G1 X90.771 Y93.014 E22.68125
G1 X90.771 Y92.117 E22.76408
G1 X107.883 Y109.229 E24.99823
G1 X108.780 Y109.229 E25.08107
G1 X90.771 Y91.220 E27.43237
G1 X91.220 Y90.771 E27.49094
G1 X109.229 Y108.780 E29.84224
G1 X109.229 Y107.883 E29.92507
G1 X92.117 Y90.771 E32.15922
G1 X93.014 Y90.771 E32.24206
G1 X109.229 Y106.986 E34.35905
G1 X109.229 Y106.088 E34.44189
G1 X93.912 Y90.771 E36.44173
G1 X94.809 Y90.771 E36.52457
G1 X109.229 Y105.191 E38.40726
G1 X109.229 Y104.294 E38.49010
G1 X95.706 Y90.771 E40.25564
G1 X96.604 Y90.771 E40.33848
G1 X109.229 Y103.396 E41.98687
G1 X109.229 Y102.499 E42.06971
G1 X97.501 Y90.771 E43.60095
G1 X98.398 Y90.771 E43.68379
G1 X109.229 Y101.602 E45.09788
G1 X109.229 Y100.705 E45.18071
G1 X99.295 Y90.771 E46.47765
G1 X100.193 Y90.771 E46.56049
G1 X109.229 Y99.807 E47.74028
G1 X109.229 Y98.910 E47.82312
G1 X101.090 Y90.771 E48.88575
G1 X101.987 Y90.771 E48.96859
G1 X109.229 Y98.013 E49.91408
G1 X109.229 Y97.116 E49.99692
G1 X102.884 Y90.771 E50.82525
G1 X103.782 Y90.771 E50.90809
G1 X109.229 Y96.218 E51.61928
G1 X109.229 Y95.321 E51.70211
G1 X104.679 Y90.771 E52.29615
G1 X105.576 Y90.771 E52.37899
G1 X109.229 Y94.424 E52.85587
G1 X109.229 Y93.527 E52.93871
G1 X106.473 Y90.771 E53.29844
G1 X107.371 Y90.771 E53.38128
G1 X109.229 Y92.629 E53.62386
G1 X109.229 Y91.732 E53.70670
G1 X108.268 Y90.771 E53.83213
G1 X109.165 Y90.771 E53.91497
G1 X109.229 Y90.835 E53.92325
M106 S255
M104 S220 ; set temperature
G1 F1800.000 E52.92325
G92 E0
G1 Z0.600 F7800.000
G1 X90.088 Y90.025 F7800.000
G1 E1.00000 F1800.000
G1 X90.134 Y90.149 E1.00480 F600.000
G1 X109.975 Y90.088 E1.72659
G1 X109.851 Y90.134 F7800.000
G1 X109.912 Y109.975 E2.44838 F600.000
G1 X109.866 Y109.851 F7800.000
G1 X90.149 Y109.866 E3.16567 F600.000
G1 X90.025 Y109.912 F7800.000
G1 X90.149 Y109.866 E3.17047 F600.000
G1 X90.134 Y90.149 E3.88776
G1 F1800.000 E2.88776
G92 E0
G1 Z0.850 F7800.000
G1 X90.088 Y90.025 F7800.000
G1 E1.00000 F1800.000
G1 X90.134 Y90.149 E1.00480 F600.000
G1 X109.975 Y90.088 E1.72659
G1 X109.851 Y90.134 F7800.000
G1 X109.912 Y109.975 E2.44838 F600.000
G1 X109.866 Y109.851 F7800.000
G1 X90.149 Y109.866 E3.16567 F600.000
G1 X90.025 Y109.912 F7800.000
G1 X90.149 Y109.866 E3.17047 F600.000
G1 X90.134 Y90.149 E3.88776
G1 F1800.000 E2.88776
G92 E0
G1 Z1.100 F7800.000
G1 X90.088 Y90.025 F7800.000
G1 E1.00000 F1800.000
G1 X90.134 Y90.149 E1.00480 F600.000
G1 X109.975 Y90.088 E1.72659
G1 X109.851 Y90.134 F7800.000
G1 X109.912 Y109.975 E2.44838 F600.000
G1 X109.866 Y109.851 F7800.000
G1 X90.149 Y109.866 E3.16567 F600.000
G1 X90.025 Y109.912 F7800.000
G1 X90.149 Y109.866 E3.17047 F600.000
G1 X90.134 Y90.149 E3.88776
G1 F1800.000 E2.88776
G92 E0
G1 Z1.350 F7800.000
G1 X90.088 Y90.025 F7800.000
G1 E1.00000 F1800.000
G1 X90.134 Y90.149 E1.00480 F600.000
G1 X109.975 Y90.088 E1.72659
G1 X109.851 Y90.134 F7800.000
G1 X109.912 Y109.975 E2.44838 F600.000
G1 X109.866 Y109.851 F7800.000
G1 X90.149 Y109.866 E3.16567 F600.000
G1 X90.025 Y109.912 F7800.000
G1 X90.149 Y109.866 E3.17047 F600.000
G1 X90.134 Y90.149 E3.88776
G1 F1800.000 E2.88776
G92 E0
G1 Z1.600 F7800.000
G1 X90.088 Y90.025 F7800.000
G1 E1.00000 F1800.000
G1 X90.134 Y90.149 E1.00480 F600.000
G1 X109.975 Y90.088 E1.72659
G1 X109.851 Y90.134 F7800.000
G1 X109.912 Y109.975 E2.44838 F600.000
G1 X109.866 Y109.851 F7800.000
G1 X90.149 Y109.866 E3.16567 F600.000
G1 X90.025 Y109.912 F7800.000
G1 X90.149 Y109.866 E3.17047 F600.000
G1 X90.134 Y90.149 E3.88776
G1 F1800.000 E2.88776
G92 E0
G1 Z1.850 F7800.000
G1 X90.088 Y90.025 F7800.000
G1 E1.00000 F1800.000
G1 X90.134 Y90.149 E1.00480 F600.000
G1 X109.975 Y90.088 E1.72659
G1 X109.851 Y90.134 F7800.000
G1 X109.912 Y109.975 E2.44838 F600.000
G1 X109.866 Y109.851 F7800.000
G1 X90.149 Y109.866 E3.16567 F600.000
G1 X90.025 Y109.912 F7800.000
G1 X90.149 Y109.866 E3.17047 F600.000
G1 X90.134 Y90.149 E3.88776
G1 F1800.000 E2.88776
G92 E0
G1 Z2.100 F7800.000
G1 X90.088 Y90.025 F7800.000
G1 E1.00000 F1800.000
G1 X90.134 Y90.149 E1.00480 F600.000
G1 X109.975 Y90.088 E1.72659
G1 X109.851 Y90.134 F7800.000
G1 X109.912 Y109.975 E2.44838 F600.000
G1 X109.866 Y109.851 F7800.000
G1 X90.149 Y109.866 E3.16567 F600.000
G1 X90.025 Y109.912 F7800.000
G1 X90.149 Y109.866 E3.17047 F600.000
G1 X90.134 Y90.149 E3.88776
G1 F1800.000 E2.88776
G92 E0
G1 Z2.350 F7800.000
G1 X90.088 Y90.025 F7800.000
G1 E1.00000 F1800.000
G1 X90.134 Y90.149 E1.00480 F600.000
G1 X109.975 Y90.088 E1.72659
G1 X109.851 Y90.134 F7800.000
G1 X109.912 Y109.975 E2.44838 F600.000
G1 X109.866 Y109.851 F7800.000
G1 X90.149 Y109.866 E3.16567 F600.000
G1 X90.025 Y109.912 F7800.000
G1 X90.149 Y109.866 E3.17047 F600.000
G1 X90.134 Y90.149 E3.88776
G1 F1800.000 E2.88776
G92 E0
G1 Z2.600 F7800.000
G1 X90.088 Y90.025 F7800.000
G1 E1.00000 F1800.000
G1 X90.134 Y90.149 E1.00480 F600.000
G1 X109.975 Y90.088 E1.72659
G1 X109.851 Y90.134 F7800.000
G1 X109.912 Y109.975 E2.44838 F600.000
G1 X109.866 Y109.851 F7800.000
G1 X90.149 Y109.866 E3.16567 F600.000
G1 X90.025 Y109.912 F7800.000
G1 X90.149 Y109.866 E3.17047 F600.000
G1 X90.134 Y90.149 E3.88776
G1 F1800.000 E2.88776
G92 E0
G1 Z2.850 F7800.000
G1 X90.088 Y90.025 F7800.000
G1 E1.00000 F1800.000
G1 X90.134 Y90.149 E1.00480 F600.000
G1 X109.975 Y90.088 E1.72659
G1 X109.851 Y90.134 F7800.000
G1 X109.912 Y109.975 E2.44838 F600.000
G1 X109.866 Y109.851 F7800.000
G1 X90.149 Y109.866 E3.16567 F600.000
G1 X90.025 Y109.912 F7800.000
G1 X90.149 Y109.866 E3.17047 F600.000
G1 X90.134 Y90.149 E3.88776
G1 F1800.000 E2.88776
G92 E0
G1 Z3.100 F7800.000
G1 X90.088 Y90.025 F7800.000
G1 E1.00000 F1800.000
G1 X90.134 Y90.149 E1.00480 F600.000
G1 X109.975 Y90.088 E1.72659
G1 X109.851 Y90.134 F7800.000
G1 X109.912 Y109.975 E2.44838 F600.000
G1 X109.866 Y109.851 F7800.000
G1 X90.149 Y109.866 E3.16567 F600.000
G1 X90.025 Y109.912 F7800.000
G1 X90.149 Y109.866 E3.17047 F600.000
G1 X90.134 Y90.149 E3.88776
G1 F1800.000 E2.88776
G92 E0
G1 Z3.350 F7800.000
G1 X90.088 Y90.025 F7800.000
G1 E1.00000 F1800.000
G1 X90.134 Y90.149 E1.00480 F600.000
G1 X109.975 Y90.088 E1.72659
G1 X109.851 Y90.134 F7800.000
G1 X109.912 Y109.975 E2.44838 F600.000
G1 X109.866 Y109.851 F7800.000
G1 X90.149 Y109.866 E3.16567 F600.000
G1 X90.025 Y109.912 F7800.000
G1 X90.149 Y109.866 E3.17047 F600.000
G1 X90.134 Y90.149 E3.88776
G1 F1800.000 E2.88776
G92 E0
G1 Z3.600 F7800.000
G1 X90.088 Y90.025 F7800.000
G1 E1.00000 F1800.000
G1 X90.134 Y90.149 E1.00480 F600.000
G1 X109.975 Y90.088 E1.72659
G1 X109.851 Y90.134 F7800.000
G1 X109.912 Y109.975 E2.44838 F600.000
G1 X109.866 Y109.851 F7800.000
G1 X90.149 Y109.866 E3.16567 F600.000
G1 X90.025 Y109.912 F7800.000
G1 X90.149 Y109.866 E3.17047 F600.000
G1 X90.134 Y90.149 E3.88776
G1 F1800.000 E2.88776
G92 E0
G1 Z3.850 F7800.000
G1 X90.088 Y90.025 F7800.000
G1 E1.00000 F1800.000
G1 X90.134 Y90.149 E1.00480 F600.000
G1 X109.975 Y90.088 E1.72659
G1 X109.851 Y90.134 F7800.000
G1 X109.912 Y109.975 E2.44838 F600.000
G1 X109.866 Y109.851 F7800.000
G1 X90.149 Y109.866 E3.16567 F600.000
G1 X90.025 Y109.912 F7800.000
G1 X90.149 Y109.866 E3.17047 F600.000
G1 X90.134 Y90.149 E3.88776
G1 F1800.000 E2.88776
G92 E0
G1 Z4.100 F7800.000
G1 X90.088 Y90.025 F7800.000
G1 E1.00000 F1800.000
G1 X90.134 Y90.149 E1.00480 F600.000
G1 X109.975 Y90.088 E1.72659
G1 X109.851 Y90.134 F7800.000
G1 X109.912 Y109.975 E2.44838 F600.000
G1 X109.866 Y109.851 F7800.000
G1 X90.149 Y109.866 E3.16567 F600.000
G1 X90.025 Y109.912 F7800.000
G1 X90.149 Y109.866 E3.17047 F600.000
G1 X90.134 Y90.149 E3.88776
G1 F1800.000 E2.88776
G92 E0
G1 Z4.350 F7800.000
G1 X90.088 Y90.025 F7800.000
G1 E1.00000 F1800.000
G1 X90.134 Y90.149 E1.00480 F600.000
G1 X109.975 Y90.088 E1.72659
G1 X109.851 Y90.134 F7800.000
G1 X109.912 Y109.975 E2.44838 F600.000
G1 X109.866 Y109.851 F7800.000
G1 X90.149 Y109.866 E3.16567 F600.000
G1 X90.025 Y109.912 F7800.000
G1 X90.149 Y109.866 E3.17047 F600.000
G1 X90.134 Y90.149 E3.88776
G1 F1800.000 E2.88776
G92 E0
G1 Z4.600 F7800.000
G1 X90.088 Y90.025 F7800.000
G1 E1.00000 F1800.000
G1 X90.134 Y90.149 E1.00480 F600.000
G1 X109.975 Y90.088 E1.72659
G1 X109.851 Y90.134 F7800.000
G1 X109.912 Y109.975 E2.44838 F600.000
G1 X109.866 Y109.851 F7800.000
G1 X90.149 Y109.866 E3.16567 F600.000
G1 X90.025 Y109.912 F7800.000
G1 X90.149 Y109.866 E3.17047 F600.000
G1 X90.134 Y90.149 E3.88776
G1 F1800.000 E2.88776
G92 E0
G1 Z4.850 F7800.000
G1 X90.088 Y90.025 F7800.000
G1 E1.00000 F1800.000
G1 X90.134 Y90.149 E1.00480 F600.000
G1 X109.975 Y90.088 E1.72659
G1 X109.851 Y90.134 F7800.000
G1 X109.912 Y109.975 E2.44838 F600.000
G1 X109.866 Y109.851 F7800.000
G1 X90.149 Y109.866 E3.16567 F600.000
G1 X90.025 Y109.912 F7800.000
G1 X90.149 Y109.866 E3.17047 F600.000
G1 X90.134 Y90.149 E3.88776
G1 F1800.000 E2.88776
G92 E0
G1 Z5.100 F7800.000
G1 X90.088 Y90.025 F7800.000
G1 E1.00000 F1800.000
G1 X90.134 Y90.149 E1.00480 F600.000
G1 X109.975 Y90.088 E1.72659
G1 X109.851 Y90.134 F7800.000
G1 X109.912 Y109.975 E2.44838 F600.000
G1 X109.866 Y109.851 F7800.000
G1 X90.149 Y109.866 E3.16567 F600.000
G1 X90.025 Y109.912 F7800.000
G1 X90.149 Y109.866 E3.17047 F600.000
G1 X90.134 Y90.149 E3.88776
G1 F1800.000 E2.88776
G92 E0
G1 Z5.350 F7800.000
G1 X90.088 Y90.025 F7800.000
G1 E1.00000 F1800.000
G1 X90.134 Y90.149 E1.00480 F600.000
G1 X109.975 Y90.088 E1.72659
G1 X109.851 Y90.134 F7800.000
G1 X109.912 Y109.975 E2.44838 F600.000
G1 X109.866 Y109.851 F7800.000
G1 X90.149 Y109.866 E3.16567 F600.000
G1 X90.025 Y109.912 F7800.000
G1 X90.149 Y109.866 E3.17047 F600.000
G1 X90.134 Y90.149 E3.88776
G1 F1800.000 E2.88776
G92 E0
G1 Z5.600 F7800.000
G1 X90.088 Y90.025 F7800.000
G1 E1.00000 F1800.000
G1 X90.134 Y90.149 E1.00480 F600.000
G1 X109.975 Y90.088 E1.72659
G1 X109.851 Y90.134 F7800.000
G1 X109.912 Y109.975 E2.44838 F600.000
G1 X109.866 Y109.851 F7800.000
G1 X90.149 Y109.866 E3.16567 F600.000
G1 X90.025 Y109.912 F7800.000
G1 X90.149 Y109.866 E3.17047 F600.000
G1 X90.134 Y90.149 E3.88776
G1 F1800.000 E2.88776
G92 E0
G1 Z5.850 F7800.000
G1 X90.088 Y90.025 F7800.000
G1 E1.00000 F1800.000
G1 X90.134 Y90.149 E1.00480 F600.000
G1 X109.975 Y90.088 E1.72659
G1 X109.851 Y90.134 F7800.000
G1 X109.912 Y109.975 E2.44838 F600.000
G1 X109.866 Y109.851 F7800.000
G1 X90.149 Y109.866 E3.16567 F600.000
G1 X90.025 Y109.912 F7800.000
G1 X90.149 Y109.866 E3.17047 F600.000
G1 X90.134 Y90.149 E3.88776
G1 F1800.000 E2.88776
G92 E0
G1 Z6.100 F7800.000
G1 X90.088 Y90.025 F7800.000
G1 E1.00000 F1800.000
G1 X90.134 Y90.149 E1.00480 F600.000
G1 X109.975 Y90.088 E1.72659
G1 X109.851 Y90.134 F7800.000
G1 X109.912 Y109.975 E2.44838 F600.000
