; generated by Slic3r 1.1.1 on 2014-05-20 at 16:59:18

; perimeters extrusion width = 0.35mm
; infill extrusion width = 0.39mm
; solid infill extrusion width = 0.39mm
; top infill extrusion width = 0.39mm

G21 ; set units to millimeters
M107
M104 S220 ; set temperature
G28 ; home all axes
G1 Z5 F5000 ; lift nozzle

M109 S220 ; wait for temperature to be reached
G90 ; use absolute coordinates
G92 E0
M82 ; use absolute distances for extrusion
G1 F1800.000 E-1.00000
G92 E0
G1 Z0.350 F7800.000
G1 X135.012 Y56.033 F7800.000
G1 E1.00000 F1800.000
G1 X135.598 Y54.900 E1.11597 F540.000
G1 X136.276 Y53.819 E1.23195
G1 X137.041 Y52.798 E1.34800
G1 X137.887 Y51.844 E1.46393
G1 X138.809 Y50.963 E1.57984
G1 X139.801 Y50.161 E1.69592
G1 X140.856 Y49.443 E1.81190
G1 X141.965 Y48.816 E1.92780
G1 X143.123 Y48.282 E2.04375
G1 X144.323 Y47.845 E2.15987
G1 X145.552 Y47.509 E2.27572
G1 X146.807 Y47.276 E2.39179
G1 X148.076 Y47.147 E2.50770
G1 X149.000 Y47.116 E2.59181
G1 X191.351 Y47.123 E6.44281
G1 X192.623 Y47.205 E6.55869
G1 X193.886 Y47.392 E6.67479
G1 X194.174 Y47.452 E6.70156
G1 X195.127 Y47.682 E6.79066
G1 X196.342 Y48.074 E6.90674
G1 X197.519 Y48.564 E7.02268
G1 X197.784 Y48.693 E7.04951
G1 X198.652 Y49.150 E7.13865
G1 X199.732 Y49.828 E7.25462
G1 X200.754 Y50.593 E7.37068
G1 X201.708 Y51.439 E7.48662
G1 X202.588 Y52.360 E7.60254
G1 X203.391 Y53.353 E7.71860
G1 X204.108 Y54.408 E7.83459
G1 X204.736 Y55.517 E7.95048
G1 X205.270 Y56.675 E8.06642
G1 X205.707 Y57.875 E8.18255
G1 X206.042 Y59.104 E8.29841
G1 X206.276 Y60.359 E8.41446
G1 X206.405 Y61.627 E8.53039
G1 X206.436 Y62.552 E8.61449
G1 X206.428 Y157.203 E17.22109
G1 X206.347 Y158.475 E17.33700
G1 X206.160 Y159.738 E17.45308
G1 X206.100 Y160.026 E17.47985
G1 X205.870 Y160.979 E17.56897
G1 X205.478 Y162.194 E17.68505
G1 X204.988 Y163.371 E17.80096
G1 X204.402 Y164.503 E17.91694
G1 X203.724 Y165.584 E18.03291
G1 X202.959 Y166.606 E18.14898
G1 X202.113 Y167.559 E18.26490
G1 X201.191 Y168.440 E18.38082
G1 X200.199 Y169.243 E18.49689
G1 X199.144 Y169.960 E18.61287
G1 X198.035 Y170.587 E18.72877
G1 X196.877 Y171.121 E18.84472
G1 X195.677 Y171.558 E18.96084
G1 X194.448 Y171.894 E19.07669
G1 X193.193 Y172.127 E19.19276
G1 X191.925 Y172.256 E19.30866
G1 X191.000 Y172.287 E19.39278
G1 X148.649 Y172.280 E23.24377
G1 X147.377 Y172.198 E23.35967
G1 X146.114 Y172.012 E23.47575
G1 X145.825 Y171.951 E23.50254
G1 X144.873 Y171.722 E23.59164
G1 X143.658 Y171.330 E23.70771
G1 X142.481 Y170.839 E23.82365
G1 X142.216 Y170.710 E23.85049
G1 X141.348 Y170.253 E23.93962
G1 X140.268 Y169.576 E24.05561
G1 X139.246 Y168.811 E24.17165
G1 X138.292 Y167.965 E24.28759
G1 X137.412 Y167.043 E24.40352
G1 X136.609 Y166.050 E24.51958
G1 X135.892 Y164.996 E24.63554
G1 X135.264 Y163.886 E24.75146
G1 X134.730 Y162.728 E24.86740
G1 X134.293 Y161.528 E24.98352
G1 X133.958 Y160.299 E25.09938
G1 X133.724 Y159.044 E25.21543
G1 X133.595 Y157.776 E25.33136
G1 X133.564 Y156.852 E25.41546
G1 X133.572 Y62.200 E34.02208
G1 X133.653 Y60.928 E34.13797
G1 X133.840 Y59.666 E34.25404
G1 X133.900 Y59.377 E34.28084
G1 X134.130 Y58.424 E34.36994
G1 X134.522 Y57.210 E34.48601
G1 X134.992 Y56.081 E34.59717
G1 X135.574 Y56.307 F7800.000
G1 X136.135 Y55.220 E34.70845 F540.000
G1 X136.784 Y54.183 E34.81973
G1 X137.518 Y53.202 E34.93108
G1 X138.329 Y52.286 E35.04232
G1 X139.212 Y51.440 E35.15354
G1 X140.164 Y50.669 E35.26492
G1 X141.176 Y49.980 E35.37620
G1 X142.240 Y49.377 E35.48741
G1 X143.351 Y48.864 E35.59867
G1 X144.502 Y48.444 E35.71008
G1 X145.681 Y48.121 E35.82124
G1 X146.885 Y47.896 E35.93262
G1 X148.101 Y47.771 E36.04384
G1 X149.000 Y47.741 E36.12559
G1 X191.326 Y47.748 E39.97424
G1 X192.546 Y47.825 E40.08544
G1 X193.758 Y48.003 E40.19683
G1 X194.046 Y48.064 E40.22359
G1 X194.949 Y48.280 E40.30802
G1 X196.115 Y48.656 E40.41940
G1 X197.245 Y49.125 E40.53064
G1 X197.510 Y49.255 E40.55746
G1 X198.332 Y49.687 E40.64192
G1 X199.369 Y50.336 E40.75319
G1 X200.350 Y51.069 E40.86455
G1 X201.266 Y51.881 E40.97580
G1 X202.112 Y52.764 E41.08703
G1 X202.882 Y53.716 E41.19838
G1 X203.572 Y54.727 E41.30967
G1 X204.174 Y55.792 E41.42088
G1 X204.687 Y56.902 E41.53212
G1 X205.108 Y58.053 E41.64355
G1 X205.431 Y59.232 E41.75472
G1 X205.656 Y60.436 E41.86607
G1 X205.780 Y61.653 E41.97731
G1 X205.811 Y62.552 E42.05906
G1 X205.804 Y157.177 E50.66331
G1 X205.727 Y158.398 E50.77453
G1 X205.548 Y159.610 E50.88590
G1 X205.488 Y159.898 E50.91267
G1 X205.271 Y160.801 E50.99711
G1 X204.896 Y161.967 E51.10848
G1 X204.426 Y163.096 E51.21971
G1 X203.865 Y164.184 E51.33099
G1 X203.216 Y165.221 E51.44227
G1 X202.482 Y166.202 E51.55363
G1 X201.671 Y167.117 E51.66486
G1 X200.787 Y167.963 E51.77609
G1 X199.836 Y168.734 E51.88746
G1 X198.824 Y169.423 E51.99875
G1 X197.760 Y170.026 E52.10996
G1 X196.649 Y170.539 E52.22121
G1 X195.498 Y170.959 E52.33263
G1 X194.319 Y171.282 E52.44379
G1 X193.115 Y171.507 E52.55516
G1 X191.899 Y171.632 E52.66637
G1 X191.000 Y171.662 E52.74813
G1 X148.674 Y171.656 E56.59678
G1 X147.454 Y171.578 E56.70798
G1 X146.242 Y171.400 E56.81936
G1 X145.954 Y171.340 E56.84615
G1 X145.051 Y171.123 E56.93057
G1 X143.885 Y170.748 E57.04193
G1 X142.755 Y170.278 E57.15318
G1 X142.490 Y170.149 E57.18001
G1 X141.668 Y169.717 E57.26445
G1 X140.631 Y169.067 E57.37574
G1 X139.650 Y168.334 E57.48709
G1 X138.734 Y167.523 E57.59834
G1 X137.888 Y166.639 E57.70957
G1 X137.118 Y165.687 E57.82093
G1 X136.429 Y164.676 E57.93220
G1 X135.826 Y163.612 E58.04343
G1 X135.313 Y162.501 E58.15467
G1 X134.892 Y161.350 E58.26609
G1 X134.569 Y160.171 E58.37726
G1 X134.344 Y158.967 E58.48862
G1 X134.220 Y157.750 E58.59985
G1 X134.189 Y156.852 E58.68160
G1 X134.196 Y62.226 E67.28587
G1 X134.273 Y61.006 E67.39707
G1 X134.452 Y59.794 E67.50844
G1 X134.512 Y59.505 E67.53523
G1 X134.729 Y58.603 E67.61965
G1 X135.104 Y57.437 E67.73102
G1 X135.553 Y56.356 E67.83749
G1 X136.135 Y56.582 F7800.000
G1 X136.672 Y55.540 E67.94407 F540.000
G1 X137.293 Y54.546 E68.05065
G1 X137.995 Y53.606 E68.15730
G1 X138.771 Y52.728 E68.26385
G1 X139.616 Y51.917 E68.37038
G1 X140.527 Y51.178 E68.47706
G1 X141.496 Y50.517 E68.58365
G1 X142.514 Y49.939 E68.69016
G1 X143.578 Y49.446 E68.79673
G1 X144.680 Y49.043 E68.90344
G1 X145.809 Y48.733 E69.00991
G1 X146.962 Y48.516 E69.11658
G1 X148.127 Y48.396 E69.22311
G1 X149.000 Y48.366 E69.30252
G1 X191.300 Y48.372 E73.14882
G1 X192.469 Y48.445 E73.25532
G1 X193.630 Y48.615 E73.36201
G1 X193.918 Y48.675 E73.38877
G1 X194.771 Y48.879 E73.46851
G1 X195.888 Y49.238 E73.57519
G1 X196.970 Y49.687 E73.68174
G1 X197.235 Y49.816 E73.70855
G1 X198.012 Y50.224 E73.78832
G1 X199.006 Y50.845 E73.89490
G1 X199.946 Y51.546 E74.00156
G1 X200.824 Y52.322 E74.10812
G1 X201.635 Y53.168 E74.21465
G1 X202.374 Y54.079 E74.32131
G1 X203.035 Y55.047 E74.42790
G1 X203.613 Y56.066 E74.53442
G1 X204.105 Y57.129 E74.64097
G1 X204.509 Y58.232 E74.74769
G1 X204.819 Y59.361 E74.85417
G1 X205.036 Y60.513 E74.96083
G1 X205.156 Y61.679 E75.06737
G1 X205.186 Y62.552 E75.14677
G1 X205.180 Y157.151 E83.74868
G1 X205.106 Y158.321 E83.85520
G1 X204.937 Y159.481 E83.96187
G1 X204.876 Y159.769 E83.98864
G1 X204.672 Y160.622 E84.06839
G1 X204.314 Y161.740 E84.17506
G1 X203.865 Y162.822 E84.28160
G1 X203.328 Y163.864 E84.38819
G1 X202.707 Y164.858 E84.49477
G1 X202.005 Y165.798 E84.60143
G1 X201.229 Y166.676 E84.70797
G1 X200.384 Y167.486 E84.81451
G1 X199.473 Y168.226 E84.92117
G1 X198.504 Y168.886 E85.02776
G1 X197.486 Y169.465 E85.13428
G1 X196.422 Y169.957 E85.24084
G1 X195.320 Y170.360 E85.34756
G1 X194.191 Y170.671 E85.45403
G1 X193.038 Y170.887 E85.56070
G1 X191.873 Y171.008 E85.66722
G1 X191.000 Y171.037 E85.74663
G1 X148.700 Y171.031 E89.59293
G1 X147.531 Y170.958 E89.69944
G1 X146.370 Y170.789 E89.80612
G1 X146.082 Y170.728 E89.83290
G1 X145.229 Y170.524 E89.91263
G1 X144.112 Y170.166 E90.01930
G1 X143.030 Y169.717 E90.12586
G1 X142.765 Y169.587 E90.15268
G1 X141.988 Y169.180 E90.23244
G1 X140.994 Y168.559 E90.33903
G1 X140.054 Y167.857 E90.44567
G1 X139.176 Y167.081 E90.55223
G1 X138.365 Y166.235 E90.65877
G1 X137.626 Y165.324 E90.76543
G1 X136.965 Y164.356 E90.87201
G1 X136.387 Y163.337 E90.97854
G1 X135.895 Y162.274 E91.08510
G1 X135.491 Y161.172 E91.19181
G1 X135.181 Y160.043 E91.29829
G1 X134.964 Y158.890 E91.40494
G1 X134.844 Y157.724 E91.51149
G1 X134.814 Y156.852 E91.59089
G1 X134.820 Y62.252 E100.19281
G1 X134.894 Y61.083 E100.29932
G1 X135.063 Y59.922 E100.40598
G1 X135.124 Y59.634 E100.43277
G1 X135.328 Y58.781 E100.51251
G1 X135.686 Y57.664 E100.61917
G1 X136.115 Y56.630 E100.72095
G1 X136.696 Y56.856 F7800.000
G1 X137.209 Y55.860 E100.82284 F540.000
G1 X137.802 Y54.909 E100.92473
G1 X138.471 Y54.010 E101.02667
G1 X139.213 Y53.170 E101.12853
G1 X140.020 Y52.394 E101.23037
G1 X140.890 Y51.686 E101.33234
G1 X141.815 Y51.054 E101.43424
G1 X142.789 Y50.500 E101.53607
G1 X143.805 Y50.028 E101.63794
G1 X144.858 Y49.642 E101.73994
G1 X145.937 Y49.344 E101.84173
G1 X147.039 Y49.136 E101.94370
G1 X148.153 Y49.020 E102.04554
G1 X149.000 Y48.991 E102.12259
G1 X191.274 Y48.996 E105.96654
G1 X192.392 Y49.065 E106.06836
G1 X193.502 Y49.226 E106.17035
G1 X193.790 Y49.287 E106.19710
G1 X194.592 Y49.478 E106.27216
G1 X195.661 Y49.820 E106.37413
G1 X196.696 Y50.248 E106.47599
G1 X196.961 Y50.378 E106.50279
G1 X197.692 Y50.760 E106.57788
G1 X198.643 Y51.353 E106.67976
G1 X199.542 Y52.023 E106.78172
G1 X200.382 Y52.764 E106.88358
G1 X201.158 Y53.572 E106.98543
G1 X201.865 Y54.442 E107.08738
G1 X202.498 Y55.367 E107.18928
G1 X203.052 Y56.341 E107.29111
G1 X203.523 Y57.357 E107.39297
G1 X203.910 Y58.410 E107.49498
G1 X204.208 Y59.489 E107.59678
G1 X204.415 Y60.591 E107.69873
G1 X204.532 Y61.705 E107.80058
G1 X204.561 Y62.552 E107.87763
G1 X204.555 Y157.126 E116.47719
G1 X204.486 Y158.243 E116.57902
G1 X204.325 Y159.353 E116.68100
G1 X204.265 Y159.641 E116.70775
G1 X204.073 Y160.444 E116.78282
G1 X203.732 Y161.512 E116.88479
G1 X203.304 Y162.547 E116.98664
G1 X202.791 Y163.544 E117.08853
G1 X202.198 Y164.495 E117.19041
G1 X201.529 Y165.394 E117.29237
G1 X200.788 Y166.234 E117.39422
G1 X199.980 Y167.010 E117.49607
G1 X199.110 Y167.717 E117.59804
G1 X198.185 Y168.350 E117.69993
G1 X197.211 Y168.903 E117.80176
G1 X196.195 Y169.375 E117.90363
G1 X195.142 Y169.762 E118.00564
G1 X194.063 Y170.059 E118.10742
G1 X192.961 Y170.267 E118.20939
G1 X191.847 Y170.383 E118.31122
G1 X191.000 Y170.413 E118.38828
G1 X148.726 Y170.407 E122.23223
G1 X147.608 Y170.338 E122.33406
G1 X146.499 Y170.177 E122.43603
G1 X146.210 Y170.117 E122.46280
G1 X145.408 Y169.925 E122.53786
G1 X144.340 Y169.584 E122.63982
G1 X143.304 Y169.155 E122.74168
G1 X143.039 Y169.026 E122.76849
G1 X142.308 Y168.643 E122.84357
G1 X141.357 Y168.050 E122.94547
G1 X140.458 Y167.380 E123.04741
G1 X139.618 Y166.639 E123.14927
G1 X138.842 Y165.831 E123.25112
G1 X138.135 Y164.961 E123.35308
G1 X137.502 Y164.036 E123.45496
G1 X136.948 Y163.063 E123.55681
G1 X136.477 Y162.047 E123.65867
G1 X136.090 Y160.994 E123.76068
G1 X135.792 Y159.914 E123.86247
G1 X135.585 Y158.813 E123.96442
G1 X135.468 Y157.699 E124.06628
G1 X135.439 Y156.852 E124.14333
G1 X135.445 Y62.278 E132.74289
G1 X135.514 Y61.160 E132.84472
G1 X135.675 Y60.050 E132.94668
G1 X135.735 Y59.762 E132.97346
G1 X135.927 Y58.959 E133.04852
G1 X136.268 Y57.891 E133.15048
G1 X136.676 Y56.905 E133.24757
G1 F1800.000 E132.24757
G92 E0
G1 X160.519 Y99.852 F7800.000
G1 E1.00000 F1800.000
G1 X163.808 Y99.858 E1.29906 F540.000
G1 X164.209 Y99.839 E1.33549
G1 X164.374 Y99.808 E1.35081
G1 X165.144 Y99.777 E1.42090
G1 X166.350 Y100.004 E1.53242
G1 X167.028 Y100.425 E1.60502
G1 X167.786 Y100.029 E1.68277
G1 X168.786 Y99.803 E1.77600
G1 X169.671 Y99.784 E1.85648
G1 X170.675 Y99.969 E1.94929
G1 X171.613 Y100.407 E2.04347
G1 X172.131 Y100.844 E2.10507
G1 X172.132 Y99.736 E2.20590
G1 X179.322 Y99.756 E2.85972
G1 X179.365 Y106.721 E3.49310
G1 X179.430 Y106.966 E3.51613
G1 X179.353 Y108.299 E3.63755
G1 X178.632 Y109.534 E3.76757
G1 X177.334 Y110.196 E3.90004
G1 X175.973 Y110.142 E4.02386
G1 X175.531 Y109.898 E4.06982
G1 X174.616 Y109.980 E4.15337
G1 X173.558 Y109.964 E4.24957
G1 X172.462 Y109.915 E4.34934
G1 X171.135 Y109.483 E4.47622
G1 X170.120 Y108.641 E4.59618
G1 X169.935 Y108.333 E4.62884
G1 X169.352 Y108.408 E4.68231
G1 X168.170 Y108.291 E4.79029
G1 X167.184 Y107.930 E4.88573
G1 X166.965 Y107.766 E4.91065
G1 X166.449 Y108.086 E4.96586
G1 X165.826 Y108.257 E5.02457
G1 X165.823 Y110.199 E5.20113
G1 X160.544 Y110.254 E5.68121
G1 X160.520 Y99.905 E6.62230
G1 X161.146 Y100.478 F7800.000
G1 X163.836 Y100.483 E6.86694 F540.000
G1 X164.079 Y100.460 E6.88906
G1 X164.258 Y100.466 E6.90535
G1 X164.445 Y100.430 E6.92271
G1 X165.098 Y100.404 E6.98216
G1 X166.119 Y100.596 E7.07661
G1 X166.797 Y101.017 E7.14914
G1 X166.971 Y101.159 E7.16958
G1 X168.003 Y100.621 E7.27544
G1 X168.863 Y100.426 E7.35556
G1 X169.621 Y100.410 E7.42450
G1 X170.483 Y100.569 E7.50421
G1 X171.273 Y100.938 E7.58356
G1 X171.945 Y101.505 E7.66346
G1 X172.408 Y102.148 E7.73556
G1 X172.755 Y102.037 E7.76864
G1 X172.756 Y100.364 E7.92074
G1 X178.701 Y100.381 E8.46131
G1 X178.740 Y106.805 E9.04546
G1 X178.800 Y107.030 E9.06665
G1 X178.738 Y108.113 E9.16532
G1 X178.184 Y109.060 E9.26505
G1 X177.195 Y109.565 E9.36602
G1 X176.146 Y109.524 E9.46153
G1 X175.666 Y109.258 E9.51140
G1 X174.592 Y109.354 E9.60940
G1 X173.576 Y109.339 E9.70180
G1 X172.574 Y109.295 E9.79300
G1 X171.442 Y108.926 E9.90129
G1 X170.601 Y108.228 E10.00070
G1 X170.260 Y107.661 E10.06082
G1 X169.342 Y107.779 E10.14498
G1 X168.310 Y107.677 E10.23930
G1 X167.485 Y107.375 E10.31917
G1 X166.998 Y107.010 E10.37454
G1 X166.196 Y107.507 E10.46035
G1 X165.457 Y107.710 E10.53008
G1 X165.202 Y107.713 E10.55322
G1 X165.199 Y109.580 E10.72305
G1 X161.167 Y109.623 E11.08969
G1 X161.146 Y100.531 E11.91644
G1 X161.772 Y101.104 F7800.000
G1 X163.864 Y101.108 E12.10669 F378.000
G1 X164.097 Y101.086 E12.12797
G1 X164.307 Y101.093 E12.14700
G1 X164.516 Y101.053 E12.16640
G1 X165.053 Y101.031 E12.21521
G1 X165.889 Y101.189 E12.29260
G1 X166.433 Y101.526 E12.35080
G1 X167.045 Y102.027 E12.42270
G1 X167.509 Y101.583 E12.48108
G1 X168.220 Y101.212 E12.55403
G1 X168.939 Y101.050 E12.62104
G1 X169.570 Y101.036 E12.67844
G1 X170.291 Y101.169 E12.74504
G1 X170.933 Y101.469 E12.80957
G1 X171.483 Y101.933 E12.87494
G1 X171.891 Y102.499 E12.93842
G1 X172.149 Y103.126 E13.00005
G1 X172.224 Y103.590 E13.04279
G1 X173.055 Y103.355 E13.12136
G1 X173.378 Y103.343 E13.15076
G1 X173.380 Y100.993 E13.36452
G1 X178.080 Y101.006 E13.79185
G1 X178.105 Y106.848 E14.32307
G1 X178.171 Y107.094 E14.34623
G1 X178.123 Y107.928 E14.42218
G1 X177.737 Y108.587 E14.49160
G1 X177.057 Y108.934 E14.56108
G1 X176.318 Y108.905 E14.62827
G1 X175.801 Y108.619 E14.68205
G1 X174.569 Y108.729 E14.79450
G1 X173.595 Y108.715 E14.88311
G1 X172.687 Y108.674 E14.96573
G1 X171.749 Y108.369 E15.05542
G1 X171.082 Y107.815 E15.13428
G1 X170.677 Y107.140 E15.20580
G1 X170.630 Y106.844 E15.23307
G1 X170.025 Y107.061 E15.29149
G1 X169.333 Y107.150 E15.35494
G1 X168.450 Y107.063 E15.43560
G1 X167.786 Y106.820 E15.49990
G1 X167.200 Y106.380 E15.56655
G1 X166.965 Y106.075 E15.60152
G1 X166.517 Y106.573 E15.66244
G1 X165.944 Y106.929 E15.72379
G1 X165.370 Y107.086 E15.77790
G1 X164.578 Y107.079 E15.84987
G1 X164.575 Y108.962 E16.02113
G1 X161.791 Y108.991 E16.27435
G1 X161.772 Y101.157 E16.98676
G1 X161.772 Y100.754 F7800.000
G1 F1800.000 E15.98676
G92 E0
G1 X166.252 Y111.098 F7800.000
G1 E1.00000 F1800.000
G1 X167.435 Y110.997 E1.10800 F540.000
G1 X168.586 Y111.189 E1.21408
G1 X169.148 Y111.518 E1.27334
G1 X169.345 Y111.581 E1.29207
G1 X169.619 Y111.591 E1.31701
G1 X169.921 Y111.524 E1.34511
G1 X170.470 Y111.276 E1.39995
G1 X171.343 Y111.020 E1.48267
G1 X172.620 Y110.954 E1.59889
G1 X173.839 Y111.464 E1.71907
G1 X174.646 Y112.162 E1.81610
G1 X175.380 Y113.014 E1.91835
G1 X176.050 Y113.904 E2.01964
G1 X176.665 Y115.226 E2.15218
G1 X177.016 Y116.110 E2.23870
G1 X177.346 Y117.166 E2.33933
G1 X177.538 Y118.425 E2.45510
G1 X177.586 Y119.448 E2.54820
G1 X177.474 Y120.402 E2.63552
G1 X177.203 Y121.671 E2.75354
G1 X176.765 Y122.536 E2.84173
