; generated by Slic3r 1.0.0RC2 on 2014-01-28 at 16:02:50

; layer_height = 0.25
; perimeters = 1
; top_solid_layers = 1
; bottom_solid_layers = 1
; fill_density = 0.12
; perimeter_speed = 30
; infill_speed = 60
; travel_speed = 130
; nozzle_diameter = 0.35
; filament_diameter = 1.75
; extrusion_multiplier = 1
; perimeters extrusion width = 0.35mm
; infill extrusion width = 0.39mm
; solid infill extrusion width = 0.39mm
; top infill extrusion width = 0.39mm
; first layer extrusion width = 0.70mm

G21 ; set units to millimeters
M107
M104 S220 ; set temperature
G28 ; home all axes
G1 Z5 F5000 ; lift nozzle

M109 S220 ; wait for temperature to be reached
G90 ; use absolute coordinates
G92 E0
M82 ; use absolute distances for extrusion
G1 F1800.000 E-1.00000
G92 E0
G1 Z0.350 F7800.000
G1 X85.010 Y78.250 F7800.000
G1 E1.00000 F1800.000
G1 X85.150 Y78.110 E1.01800 F540.000
G1 X86.120 Y77.290 E1.13350
G1 X87.280 Y76.600 E1.25623
G1 X88.240 Y76.190 E1.35115
G1 X89.260 Y75.920 E1.44709
G1 X90.220 Y75.760 E1.53559
G1 X91.000 Y75.730 E1.60656
G1 X105.800 Y75.730 E2.95232
G1 X106.620 Y75.770 E3.02697
G1 X107.420 Y75.890 E3.10053
G1 X108.580 Y76.200 E3.20971
G1 X109.590 Y76.640 E3.30988
G1 X110.670 Y77.290 E3.42450
G1 X111.640 Y78.110 E3.54000
G1 X112.300 Y78.830 E3.62881
G1 X112.760 Y79.450 E3.69901
G1 X115.960 Y84.250 E4.22357
G1 X116.490 Y85.180 E4.32090
G1 X116.840 Y85.970 E4.39947
G1 X117.090 Y86.790 E4.47742
G1 X117.320 Y87.940 E4.58406
G1 X117.370 Y88.900 E4.67147
G1 X117.370 Y115.890 E7.12566
G1 X117.340 Y116.670 E7.19664
G1 X117.220 Y117.430 E7.26660
G1 X117.040 Y118.200 E7.33851
G1 X116.820 Y118.840 E7.40004
G1 X116.750 Y119.020 E7.41761
G1 X116.000 Y120.470 E7.56605
G1 X114.980 Y121.740 E7.71416
G1 X114.840 Y121.880 E7.73216
G1 X113.570 Y122.900 E7.88028
G1 X112.120 Y123.650 E8.02872
G1 X111.940 Y123.720 E8.04628
G1 X111.300 Y123.940 E8.10782
G1 X110.530 Y124.120 E8.17972
G1 X109.770 Y124.240 E8.24969
G1 X108.990 Y124.270 E8.32066
G1 X94.190 Y124.270 E9.66642
G1 X93.330 Y124.230 E9.74470
G1 X92.390 Y124.070 E9.83141
G1 X91.070 Y123.650 E9.95736
G1 X89.620 Y122.900 E10.10580
G1 X88.350 Y121.880 E10.25392
G1 X87.690 Y121.160 E10.34273
G1 X87.230 Y120.540 E10.41293
G1 X84.030 Y115.740 E10.93749
G1 X83.590 Y115.000 E11.01578
G1 X83.170 Y114.040 E11.11106
G1 X82.850 Y113.030 E11.20740
G1 X82.660 Y111.870 E11.31428
G1 X82.630 Y111.090 E11.38526
G1 X82.630 Y84.100 E13.83945
G1 X82.660 Y83.320 E13.91043
G1 X82.780 Y82.560 E13.98039
G1 X83.090 Y81.340 E14.09485
G1 X83.540 Y80.300 E14.19789
G1 X84.190 Y79.220 E14.31251
G1 X84.949 Y78.322 E14.41948
G1 X85.450 Y78.690 F7800.000
G1 X85.590 Y78.550 E14.43748 F540.000
G1 X86.480 Y77.800 E14.54331
G1 X87.560 Y77.160 E14.65746
G1 X88.450 Y76.780 E14.74546
G1 X89.380 Y76.530 E14.83302
G1 X90.290 Y76.390 E14.91674
G1 X91.000 Y76.350 E14.98141
G1 X105.800 Y76.350 E16.32716
G1 X106.550 Y76.390 E16.39546
G1 X107.290 Y76.510 E16.46362
G1 X108.380 Y76.790 E16.56596
G1 X109.310 Y77.200 E16.65837
G1 X110.310 Y77.800 E16.76441
G1 X111.200 Y78.550 E16.87025
G1 X111.820 Y79.220 E16.95325
G1 X112.240 Y79.800 E17.01837
G1 X115.440 Y84.600 E17.54293
G1 X115.890 Y85.380 E17.62481
G1 X116.250 Y86.180 E17.70458
G1 X116.530 Y87.140 E17.79551
G1 X116.700 Y88.010 E17.87611
G1 X116.750 Y88.900 E17.95717
G1 X116.750 Y115.890 E20.41136
G1 X116.710 Y116.600 E20.47602
G1 X116.590 Y117.410 E20.55048
G1 X116.440 Y118.020 E20.60760
G1 X116.240 Y118.620 E20.66511
G1 X116.170 Y118.800 E20.68267
G1 X115.480 Y120.130 E20.81891
G1 X114.540 Y121.300 E20.95538
G1 X114.400 Y121.440 E20.97338
G1 X113.230 Y122.380 E21.10985
G1 X111.900 Y123.070 E21.24610
G1 X111.120 Y123.340 E21.32115
G1 X110.410 Y123.510 E21.38753
G1 X109.700 Y123.610 E21.45273
G1 X108.990 Y123.650 E21.51739
G1 X94.190 Y123.650 E22.86315
G1 X93.400 Y123.610 E22.93508
G1 X92.530 Y123.460 E23.01535
G1 X91.470 Y123.140 E23.11604
G1 X91.290 Y123.070 E23.13360
G1 X89.960 Y122.380 E23.26984
G1 X88.790 Y121.440 E23.40631
G1 X88.650 Y121.300 E23.42431
G1 X88.170 Y120.770 E23.48933
G1 X87.750 Y120.190 E23.55445
G1 X84.550 Y115.390 E24.07901
G1 X84.150 Y114.710 E24.15075
G1 X83.820 Y114.000 E24.22194
G1 X83.460 Y112.880 E24.32891
G1 X83.300 Y111.910 E24.41831
G1 X83.250 Y111.090 E24.49301
G1 X83.250 Y84.100 E26.94720
G1 X83.290 Y83.390 E27.01186
G1 X83.390 Y82.680 E27.07705
G1 X83.680 Y81.550 E27.18314
G1 X84.100 Y80.580 E27.27925
G1 X84.700 Y79.580 E27.38529
G1 X85.390 Y78.762 E27.48260
G1 X85.900 Y79.140 F7800.000
G1 X86.040 Y79.000 E27.50060 F540.000
G1 X86.850 Y78.310 E27.59736
G1 X87.840 Y77.710 E27.70262
G1 X88.650 Y77.370 E27.78250
G1 X89.500 Y77.140 E27.86257
G1 X90.350 Y77.010 E27.94075
G1 X91.000 Y76.980 E27.99992
G1 X105.800 Y76.980 E29.34568
G1 X106.490 Y77.010 E29.40848
G1 X107.160 Y77.120 E29.47022
G1 X108.170 Y77.380 E29.56505
G1 X109.030 Y77.750 E29.65018
G1 X109.940 Y78.310 E29.74734
G1 X110.750 Y79.000 E29.84409
G1 X110.890 Y79.140 E29.86210
G1 X111.330 Y79.620 E29.92131
G1 X111.720 Y80.150 E29.98114
G1 X114.920 Y84.950 E30.50570
G1 X115.380 Y85.740 E30.58883
G1 X115.660 Y86.400 E30.65402
G1 X115.880 Y87.090 E30.71987
G1 X116.080 Y88.090 E30.81260
G1 X116.120 Y88.900 E30.88634
G1 X116.120 Y115.890 E33.34053
G1 X116.090 Y116.540 E33.39970
G1 X116.000 Y117.190 E33.45937
G1 X115.840 Y117.850 E33.52112
G1 X115.580 Y118.570 E33.59073
G1 X114.960 Y119.790 E33.71516
G1 X114.090 Y120.850 E33.83986
G1 X113.950 Y120.990 E33.85786
G1 X112.890 Y121.860 E33.98255
G1 X111.670 Y122.480 E34.10699
G1 X110.950 Y122.740 E34.17660
G1 X110.290 Y122.900 E34.23835
G1 X109.640 Y122.990 E34.29802
G1 X108.990 Y123.020 E34.35719
G1 X94.190 Y123.020 E35.70294
G1 X93.470 Y122.990 E35.76847
G1 X92.660 Y122.850 E35.84321
G1 X91.520 Y122.480 E35.95220
G1 X90.300 Y121.860 E36.07663
G1 X89.240 Y120.990 E36.20133
G1 X89.100 Y120.850 E36.21933
G1 X88.660 Y120.370 E36.27854
G1 X88.270 Y119.840 E36.33837
G1 X85.070 Y115.040 E36.86294
G1 X84.700 Y114.430 E36.92781
G1 X84.410 Y113.770 E36.99336
G1 X84.070 Y112.730 E37.09285
G1 X83.920 Y111.850 E37.17402
G1 X83.880 Y111.090 E37.24323
G1 X83.880 Y84.100 E39.69742
G1 X83.910 Y83.450 E39.75658
G1 X84.000 Y82.800 E39.81625
G1 X84.270 Y81.750 E39.91483
G1 X84.650 Y80.860 E40.00283
G1 X85.210 Y79.950 E40.09999
G1 X85.839 Y79.211 E40.18822
G1 F1800.000 E39.18822
G92 E0
G1 X107.675 Y108.375 F7800.000
G1 E1.00000 F1800.000
G1 X108.525 Y108.375 E1.07731 F540.000
G1 X108.525 Y115.425 E1.71838
G1 X107.675 Y115.425 E1.79569
G1 X107.675 Y108.469 E2.42824
G1 X107.050 Y107.750 F7800.000
G1 X109.150 Y107.750 E2.61920 F540.000
G1 X109.150 Y116.050 E3.37391
G1 X107.050 Y116.050 E3.56486
G1 X107.050 Y107.844 E4.31106
G1 F1800.000 E3.31106
G92 E0
G1 X105.325 Y110.625 F7800.000
G1 E1.00000 F1800.000
G1 X104.475 Y110.625 E1.07731 F540.000
G1 X104.475 Y103.575 E1.71838
G1 X105.325 Y103.575 E1.79569
G1 X105.325 Y110.531 E2.42824
G1 X105.950 Y111.250 F7800.000
G1 X103.850 Y111.250 E2.61920 F540.000
G1 X103.850 Y102.950 E3.37391
G1 X105.950 Y102.950 E3.56486
G1 X105.950 Y111.156 E4.31106
G1 F1800.000 E3.31106
G92 E0
G1 X107.675 Y105.925 F7800.000
G1 E1.00000 F1800.000
G1 X107.675 Y98.875 E1.64107 F540.000
G1 X108.525 Y98.875 E1.71838
G1 X108.525 Y105.925 E2.35946
G1 X107.769 Y105.925 E2.42824
G1 X107.050 Y106.550 F7800.000
G1 X107.050 Y98.250 E3.18296 F540.000
G1 X109.150 Y98.250 E3.37391
G1 X109.150 Y106.550 E4.12863
G1 X107.144 Y106.550 E4.31106
G1 F1800.000 E3.31106
G92 E0
G1 X105.325 Y101.125 F7800.000
G1 E1.00000 F1800.000
G1 X104.475 Y101.125 E1.07731 F540.000
G1 X104.475 Y94.075 E1.71838
G1 X105.325 Y94.075 E1.79569
G1 X105.325 Y101.031 E2.42824
G1 X105.950 Y101.750 F7800.000
G1 X103.850 Y101.750 E2.61920 F540.000
G1 X103.850 Y93.450 E3.37391
G1 X105.950 Y93.450 E3.56486
G1 X105.950 Y101.656 E4.31106
G1 F1800.000 E3.31106
G92 E0
G1 X107.675 Y96.425 F7800.000
G1 E1.00000 F1800.000
G1 X107.675 Y89.375 E1.64107 F540.000
G1 X108.525 Y89.375 E1.71838
G1 X108.525 Y96.425 E2.35946
G1 X107.769 Y96.425 E2.42824
G1 X107.050 Y97.050 F7800.000
G1 X107.050 Y88.750 E3.18296 F540.000
G1 X109.150 Y88.750 E3.37391
G1 X109.150 Y97.050 E4.12863
G1 X107.144 Y97.050 E4.31106
G1 F1800.000 E3.31106
G92 E0
G1 X105.325 Y91.625 F7800.000
G1 E1.00000 F1800.000
G1 X104.475 Y91.625 E1.07731 F540.000
G1 X104.475 Y84.575 E1.71838
G1 X105.325 Y84.575 E1.79569
G1 X105.325 Y91.531 E2.42824
G1 X105.950 Y92.250 F7800.000
G1 X103.850 Y92.250 E2.61920 F540.000
G1 X103.850 Y83.950 E3.37391
G1 X105.950 Y83.950 E3.56486
G1 X105.950 Y92.156 E4.31106
G1 F1800.000 E3.31106
G92 E0
G1 X102.025 Y89.375 F7800.000
G1 E1.00000 F1800.000
G1 X102.025 Y96.425 E1.64107 F540.000
G1 X101.175 Y96.425 E1.71838
G1 X101.175 Y89.375 E2.35946
G1 X101.931 Y89.375 E2.42824
G1 X102.650 Y88.750 F7800.000
G1 X102.650 Y97.050 E3.18296 F540.000
G1 X100.550 Y97.050 E3.37391
G1 X100.550 Y88.750 E4.12863
G1 X102.556 Y88.750 E4.31106
G1 F1800.000 E3.31106
G92 E0
G1 X98.825 Y94.075 F7800.000
G1 E1.00000 F1800.000
G1 X98.825 Y101.125 E1.64107 F540.000
G1 X97.975 Y101.125 E1.71838
G1 X97.975 Y94.075 E2.35946
G1 X98.731 Y94.075 E2.42824
G1 X99.450 Y93.450 F7800.000
G1 X99.450 Y101.750 E3.18296 F540.000
G1 X97.350 Y101.750 E3.37391
G1 X97.350 Y93.450 E4.12863
G1 X99.356 Y93.450 E4.31106
G1 F1800.000 E3.31106
G92 E0
G1 X95.525 Y96.425 F7800.000
G1 E1.00000 F1800.000
G1 X94.675 Y96.425 E1.07731 F540.000
G1 X94.675 Y89.375 E1.71838
G1 X95.525 Y89.375 E1.79569
G1 X95.525 Y96.331 E2.42824
G1 X96.150 Y97.050 F7800.000
G1 X94.050 Y97.050 E2.61920 F540.000
G1 X94.050 Y88.750 E3.37391
G1 X96.150 Y88.750 E3.56486
G1 X96.150 Y96.956 E4.31106
G1 F1800.000 E3.31106
G92 E0
G1 X92.325 Y94.075 F7800.000
G1 E1.00000 F1800.000
G1 X92.325 Y101.125 E1.64107 F540.000
G1 X91.475 Y101.125 E1.71838
G1 X91.475 Y94.075 E2.35946
G1 X92.231 Y94.075 E2.42824
G1 X92.950 Y93.450 F7800.000
G1 X92.950 Y101.750 E3.18296 F540.000
G1 X90.850 Y101.750 E3.37391
G1 X90.850 Y93.450 E4.12863
G1 X92.856 Y93.450 E4.31106
G1 F1800.000 E3.31106
G92 E0
G1 X94.675 Y98.875 F7800.000
G1 E1.00000 F1800.000
G1 X95.525 Y98.875 E1.07731 F540.000
G1 X95.525 Y105.925 E1.71838
G1 X94.675 Y105.925 E1.79569
G1 X94.675 Y98.969 E2.42824
G1 X94.050 Y98.250 F7800.000
G1 X96.150 Y98.250 E2.61920 F540.000
G1 X96.150 Y106.550 E3.37391
G1 X94.050 Y106.550 E3.56486
G1 X94.050 Y98.344 E4.31106
G1 F1800.000 E3.31106
G92 E0
G1 X92.325 Y103.575 F7800.000
G1 E1.00000 F1800.000
G1 X92.325 Y110.625 E1.64107 F540.000
G1 X91.475 Y110.625 E1.71838
G1 X91.475 Y103.575 E2.35946
G1 X92.231 Y103.575 E2.42824
G1 X92.950 Y102.950 F7800.000
G1 X92.950 Y111.250 E3.18296 F540.000
G1 X90.850 Y111.250 E3.37391
G1 X90.850 Y102.950 E4.12863
G1 X92.856 Y102.950 E4.31106
G1 F1800.000 E3.31106
G92 E0
G1 X94.675 Y108.375 F7800.000
G1 E1.00000 F1800.000
G1 X95.525 Y108.375 E1.07731 F540.000
G1 X95.525 Y115.425 E1.71838
G1 X94.675 Y115.425 E1.79569
G1 X94.675 Y108.469 E2.42824
G1 X94.050 Y107.750 F7800.000
G1 X96.150 Y107.750 E2.61920 F540.000
G1 X96.150 Y116.050 E3.37391
G1 X94.050 Y116.050 E3.56486
G1 X94.050 Y107.844 E4.31106
G1 F1800.000 E3.31106
G92 E0
G1 X97.975 Y110.625 F7800.000
G1 E1.00000 F1800.000
G1 X97.975 Y103.575 E1.64107 F540.000
G1 X98.825 Y103.575 E1.71838
G1 X98.825 Y110.625 E2.35946
G1 X98.069 Y110.625 E2.42824
G1 X97.350 Y111.250 F7800.000
G1 X97.350 Y102.950 E3.18296 F540.000
G1 X99.450 Y102.950 E3.37391
G1 X99.450 Y111.250 E4.12863
G1 X97.444 Y111.250 E4.31106
G1 F1800.000 E3.31106
G92 E0
G1 X101.175 Y105.925 F7800.000
G1 E1.00000 F1800.000
G1 X101.175 Y98.875 E1.64107 F540.000
G1 X102.025 Y98.875 E1.71838
G1 X102.025 Y105.925 E2.35946
G1 X101.269 Y105.925 E2.42824
G1 X100.550 Y106.550 F7800.000
G1 X100.550 Y98.250 E3.18296 F540.000
G1 X102.650 Y98.250 E3.37391
G1 X102.650 Y106.550 E4.12863
G1 X100.644 Y106.550 E4.31106
G1 X101.175 Y108.375 F7800.000
G1 X102.025 Y108.375 E4.38837 F540.000
G1 X102.025 Y115.425 E5.02944
G1 X101.175 Y115.425 E5.10675
G1 X101.175 Y108.469 E5.73930
G1 X100.550 Y107.750 F7800.000
G1 X102.650 Y107.750 E5.93025 F540.000
G1 X102.650 Y116.050 E6.68497
G1 X100.550 Y116.050 E6.87592
G1 X100.550 Y107.844 E7.62211
G1 F1800.000 E6.62211
G92 E0
G1 X98.825 Y91.625 F7800.000
G1 E1.00000 F1800.000
G1 X97.975 Y91.625 E1.07731 F540.000
G1 X97.975 Y84.575 E1.71838
G1 X98.825 Y84.575 E1.79569
G1 X98.825 Y91.531 E2.42824
G1 X99.450 Y92.250 F7800.000
G1 X97.350 Y92.250 E2.61920 F540.000
G1 X97.350 Y83.950 E3.37391
G1 X99.450 Y83.950 E3.56486
G1 X99.450 Y92.156 E4.31106
G1 F1800.000 E3.31106
G92 E0
G1 X92.325 Y91.625 F7800.000
G1 E1.00000 F1800.000
G1 X91.475 Y91.625 E1.07731 F540.000
G1 X91.475 Y84.575 E1.71838
G1 X92.325 Y84.575 E1.79569
G1 X92.325 Y91.531 E2.42824
G1 X92.950 Y92.250 F7800.000
G1 X90.850 Y92.250 E2.61920 F540.000
G1 X90.850 Y83.950 E3.37391
G1 X92.950 Y83.950 E3.56486
G1 X92.950 Y92.156 E4.31106
M106 S232
M104 S220 ; set temperature
G1 F1800.000 E3.31106
G92 E0
G1 Z0.600 F7800.000
G1 X107.242 Y107.925 F7800.000
G1 E1.00000 F1800.000
G1 X108.989 Y107.925 E1.06357 F1800
G1 X108.989 Y115.875 E1.35277
G1 X107.242 Y115.875 E1.41634
G1 X107.242 Y107.977 E1.70364
G1 X106.892 Y107.914 F7800.000
G1 X106.910 Y107.800 E1.70782 F1800
G1 X106.980 Y107.686 E1.71271
G1 X107.117 Y107.593 E1.71872
G1 X107.231 Y107.575 E1.72291
G1 X109.000 Y107.575 E1.78728
G1 X109.114 Y107.593 E1.79146
G1 X109.204 Y107.639 E1.79514
G1 X109.275 Y107.710 E1.79881
G1 X109.321 Y107.800 E1.80249
G1 X109.339 Y107.914 E1.80669
G1 X109.345 Y108.788 E1.83846
G1 X109.339 Y115.885 E2.09666
G1 X109.321 Y116.000 E2.10087
G1 X109.275 Y116.090 E2.10455
G1 X109.204 Y116.161 E2.10822
G1 X109.114 Y116.207 E2.11190
G1 X109.000 Y116.225 E2.11608
G1 X107.231 Y116.225 E2.18045
G1 X107.117 Y116.207 E2.18463
G1 X107.027 Y116.161 E2.18831
G1 X106.956 Y116.090 E2.19198
G1 X106.910 Y116.000 E2.19566
G1 X106.892 Y115.886 E2.19984
G1 X106.892 Y107.966 E2.48795
G1 F1800.000 E1.48795
G92 E0
G1 X105.758 Y111.075 F7800.000
G1 E1.00000 F1800.000
G1 X104.011 Y111.075 E1.06357 F1800
G1 X104.011 Y103.125 E1.35277
G1 X105.758 Y103.125 E1.41634
G1 X105.758 Y111.022 E1.70364
G1 X106.108 Y111.086 F7800.000
G1 X106.090 Y111.200 E1.70782 F1800
G1 X106.044 Y111.290 E1.71150
G1 X105.973 Y111.361 E1.71517
G1 X105.883 Y111.407 E1.71884
G1 X105.769 Y111.425 E1.72302
G1 X104.000 Y111.425 E1.78740
G1 X103.886 Y111.407 E1.79158
G1 X103.796 Y111.361 E1.79526
G1 X103.725 Y111.290 E1.79893
G1 X103.679 Y111.200 E1.80260
G1 X103.661 Y111.085 E1.80681
G1 X103.654 Y110.282 E1.83603
G1 X103.661 Y103.114 E2.09679
G1 X103.679 Y103.000 E2.10099
G1 X103.725 Y102.910 E2.10467
G1 X103.796 Y102.839 E2.10834
G1 X103.886 Y102.793 E2.11202
G1 X104.000 Y102.775 E2.11620
G1 X105.769 Y102.775 E2.18057
G1 X105.883 Y102.793 E2.18475
G1 X105.973 Y102.839 E2.18843
G1 X106.044 Y102.910 E2.19210
G1 X106.090 Y103.000 E2.19578
G1 X106.108 Y103.114 E2.19996
G1 X106.108 Y111.034 E2.48807
G1 F1800.000 E1.48807
G92 E0
G1 X107.242 Y106.375 F7800.000
G1 E1.00000 F1800.000
G1 X107.242 Y98.425 E1.28921 F1800
G1 X108.989 Y98.425 E1.35277
G1 X108.989 Y106.375 E1.64198
G1 X107.294 Y106.375 E1.70364
G1 X107.231 Y106.725 F7800.000
G1 X107.117 Y106.707 E1.70782 F1800
G1 X107.027 Y106.661 E1.71149
G1 X106.956 Y106.590 E1.71517
G1 X106.910 Y106.500 E1.71884
G1 X106.892 Y106.386 E1.72302
G1 X106.892 Y98.414 E2.01305
G1 X106.910 Y98.300 E2.01722
G1 X106.956 Y98.210 E2.02090
G1 X107.027 Y98.139 E2.02457
G1 X107.117 Y98.093 E2.02825
G1 X107.231 Y98.075 E2.03243
G1 X109.000 Y98.075 E2.09681
G1 X109.114 Y98.093 E2.10099
G1 X109.204 Y98.139 E2.10466
G1 X109.275 Y98.210 E2.10834
G1 X109.321 Y98.300 E2.11201
G1 X109.339 Y98.414 E2.11621
G1 X109.346 Y105.582 E2.37698
G1 X109.339 Y106.385 E2.40619
G1 X109.321 Y106.500 E2.41040
G1 X109.275 Y106.590 E2.41408
G1 X109.204 Y106.661 E2.41775
G1 X109.114 Y106.707 E2.42142
G1 X109.000 Y106.725 E2.42560
G1 X107.283 Y106.725 E2.48807
G1 F1800.000 E1.48807
G92 E0
G1 X105.758 Y101.575 F7800.000
G1 E1.00000 F1800.000
G1 X104.011 Y101.575 E1.06357 F1800
G1 X104.011 Y93.625 E1.35277
G1 X105.758 Y93.625 E1.41634
G1 X105.758 Y101.522 E1.70364
G1 X106.108 Y101.586 F7800.000
G1 X106.090 Y101.700 E1.70782 F1800
G1 X106.044 Y101.790 E1.71150
