; generated by Slic3r 1.1.1 on 2014-05-13 at 19:56:35

; perimeters extrusion width = 0.35mm
; infill extrusion width = 0.39mm
; solid infill extrusion width = 0.39mm
; top infill extrusion width = 0.39mm

G21 ; set units to millimeters
M107
M104 S220 ; set temperature
G28 ; home all axes
G1 Z5 F5000 ; lift nozzle

M109 S220 ; wait for temperature to be reached
G90 ; use absolute coordinates
G92 E0
M82 ; use absolute distances for extrusion
G1 F1800.000 E-1.00000
G92 E0
G1 Z0.350 F7800.000
G1 X130.898 Y31.931 F7800.000
G1 E1.00000 F1800.000
G1 X132.054 Y29.602 E1.23641 F540.000
G1 X133.860 Y27.731 E1.47282
G1 X136.146 Y26.494 E1.70923
G1 X139.000 Y26.000 E1.97258
G1 X181.000 Y26.000 E5.79162
G1 X183.569 Y26.398 E6.02803
G1 X185.898 Y27.554 E6.26444
G1 X187.769 Y29.360 E6.50085
G1 X189.006 Y31.646 E6.73726
G1 X189.500 Y34.500 E7.00061
G1 X189.500 Y85.500 E11.63802
G1 X189.102 Y88.069 E11.87443
G1 X187.946 Y90.398 E12.11084
G1 X186.140 Y92.269 E12.34725
G1 X183.854 Y93.506 E12.58366
G1 X181.000 Y94.000 E12.84701
G1 X139.000 Y94.000 E16.66605
G1 X136.431 Y93.602 E16.90246
G1 X134.102 Y92.446 E17.13887
G1 X132.231 Y90.640 E17.37529
G1 X130.994 Y88.354 E17.61170
G1 X130.500 Y85.500 E17.87504
G1 X130.500 Y34.500 E22.51245
G1 X130.890 Y31.983 E22.74409
G1 X131.523 Y32.030 F7800.000
G1 X132.675 Y29.809 E22.97159 F540.000
G1 X134.466 Y28.062 E23.19909
G1 X136.714 Y26.964 E23.42659
G1 X139.000 Y26.625 E23.63671
G1 X181.000 Y26.625 E27.45575
G1 X183.470 Y27.023 E27.68325
G1 X185.691 Y28.175 E27.91075
G1 X187.438 Y29.966 E28.13825
G1 X188.536 Y32.214 E28.36575
G1 X188.875 Y34.500 E28.57587
G1 X188.875 Y85.500 E33.21328
G1 X188.477 Y87.970 E33.44078
G1 X187.325 Y90.191 E33.66828
G1 X185.534 Y91.938 E33.89578
G1 X183.286 Y93.036 E34.12328
G1 X181.000 Y93.375 E34.33340
G1 X139.000 Y93.375 E38.15244
G1 X136.530 Y92.977 E38.37994
G1 X134.309 Y91.825 E38.60744
G1 X132.562 Y90.034 E38.83495
G1 X131.464 Y87.786 E39.06245
G1 X131.125 Y85.500 E39.27256
G1 X131.125 Y34.500 E43.90997
G1 X131.514 Y32.082 E44.13270
G1 X132.147 Y32.133 F7800.000
G1 X133.296 Y30.026 E44.35093 F540.000
G1 X135.069 Y28.409 E44.56915
G1 X137.273 Y27.459 E44.78738
G1 X139.000 Y27.250 E44.94555
G1 X181.000 Y27.250 E48.76460
G1 X183.367 Y27.647 E48.98282
G1 X185.474 Y28.796 E49.20105
G1 X187.091 Y30.569 E49.41928
G1 X188.041 Y32.773 E49.63751
G1 X188.250 Y34.500 E49.79568
G1 X188.250 Y85.500 E54.43309
G1 X187.853 Y87.867 E54.65131
G1 X186.704 Y89.974 E54.86954
G1 X184.931 Y91.591 E55.08777
G1 X182.727 Y92.541 E55.30600
G1 X181.000 Y92.750 E55.46417
G1 X139.000 Y92.750 E59.28321
G1 X136.633 Y92.353 E59.50144
G1 X134.526 Y91.204 E59.71966
G1 X132.909 Y89.431 E59.93789
G1 X131.959 Y87.227 E60.15612
G1 X131.750 Y85.500 E60.31429
G1 X131.750 Y34.500 E64.95170
G1 X132.139 Y32.185 E65.16515
G1 X132.772 Y32.241 F7800.000
G1 X133.915 Y30.253 E65.37370 F540.000
G1 X135.668 Y28.774 E65.58224
G1 X137.820 Y27.981 E65.79078
G1 X139.000 Y27.875 E65.89849
G1 X181.000 Y27.875 E69.71753
G1 X183.259 Y28.272 E69.92607
G1 X185.247 Y29.415 E70.13462
G1 X186.726 Y31.168 E70.34316
G1 X187.519 Y33.320 E70.55170
G1 X187.625 Y34.500 E70.65941
G1 X187.625 Y85.500 E75.29682
G1 X187.228 Y87.759 E75.50536
G1 X186.085 Y89.747 E75.71390
G1 X184.332 Y91.226 E75.92245
G1 X182.180 Y92.019 E76.13099
G1 X181.000 Y92.125 E76.23870
G1 X139.000 Y92.125 E80.05774
G1 X136.741 Y91.728 E80.26628
G1 X134.753 Y90.585 E80.47482
G1 X133.274 Y88.832 E80.68337
G1 X132.481 Y86.680 E80.89191
G1 X132.375 Y85.500 E80.99962
G1 X132.375 Y34.500 E85.63703
G1 X132.763 Y32.293 E85.84080
G1 F1800.000 E84.84080
G92 E0
G1 X169.098 Y77.362 F7800.000
G1 E1.00000 F1800.000
G1 X171.660 Y75.319 E1.29792 F540.000
G1 X174.854 Y76.048 E1.59584
G1 X176.276 Y79.000 E1.89376
G1 X174.854 Y81.952 E2.19168
G1 X171.660 Y82.681 E2.48960
G1 X169.098 Y80.638 E2.78752
G1 X169.098 Y77.414 E3.08067
G1 X169.723 Y77.663 F7800.000
G1 X171.814 Y75.995 E3.32386 F540.000
G1 X174.422 Y76.590 E3.56705
G1 X175.582 Y79.000 E3.81024
G1 X174.422 Y81.410 E4.05344
G1 X171.814 Y82.005 E4.29663
G1 X169.723 Y80.337 E4.53982
G1 X169.723 Y77.715 E4.77824
G1 X170.348 Y77.964 F7800.000
G1 X171.969 Y76.671 E4.96671 F540.000
G1 X173.989 Y77.133 E5.15517
G1 X174.888 Y79.000 E5.34364
G1 X173.989 Y80.867 E5.53210
G1 X171.969 Y81.329 E5.72057
G1 X170.348 Y80.036 E5.90903
G1 X170.348 Y78.016 E6.09273
G1 X170.196 Y77.648 F7800.000
G1 X165.600 Y72.458 F7800.000
G1 X179.400 Y72.458 E7.34760 F540.000
G1 X179.400 Y83.900 E8.38799
G1 X165.600 Y83.900 E9.64286
G1 X165.600 Y72.511 E10.67848
G1 X164.975 Y71.834 F7800.000
G1 X180.025 Y71.834 E12.04699 F540.000
G1 X180.025 Y84.525 E13.20102
G1 X164.975 Y84.525 E14.56954
G1 X164.975 Y71.886 E15.71880
G1 X164.350 Y71.209 F7800.000
G1 X180.650 Y71.209 E17.20095 F378.000
G1 X180.650 Y85.150 E18.46863
G1 X164.350 Y85.150 E19.95078
G1 X164.350 Y71.261 E21.21368
G1 X164.653 Y71.384 F7800.000
G1 X168.665 Y80.653 F7800.000
G1 X166.033 Y78.020 E21.55220 F1080.000
G1 X166.033 Y77.119 E21.63414
G1 X168.665 Y79.752 E21.97266
G1 X168.665 Y78.850 E22.05460
G1 X166.033 Y76.218 E22.39312
G1 X166.033 Y75.317 E22.47506
G1 X168.665 Y77.949 E22.81358
G1 X168.724 Y77.107 E22.89039
G1 X166.033 Y74.416 E23.23643
G1 X166.033 Y73.514 E23.31837
G1 X169.225 Y76.707 E23.72888
G1 X169.726 Y76.307 E23.78719
G1 X166.311 Y72.891 E24.22640
G1 X167.212 Y72.891 E24.30834
G1 X170.228 Y75.907 E24.69614
G1 X170.729 Y75.507 E24.75445
G1 X168.113 Y72.891 E25.09083
G1 X169.014 Y72.891 E25.17277
G1 X171.231 Y75.108 E25.45774
G1 X171.970 Y74.946 E25.52655
G1 X169.916 Y72.891 E25.79069
G1 X170.817 Y72.891 E25.87263
G1 X173.137 Y75.212 E26.17104
G1 X174.305 Y75.479 E26.27995
G1 X171.718 Y72.891 E26.61263
G1 X172.619 Y72.891 E26.69457
G1 X178.967 Y79.240 E27.51090
G1 X178.967 Y78.338 E27.59284
G1 X173.520 Y72.891 E28.29329
G1 X174.421 Y72.891 E28.37523
G1 X178.967 Y77.437 E28.95979
G1 X178.967 Y76.536 E29.04173
G1 X175.323 Y72.891 E29.51041
G1 X176.224 Y72.891 E29.59235
G1 X178.967 Y75.635 E29.94514
G1 X178.967 Y74.734 E30.02709
G1 X177.125 Y72.891 E30.26400
G1 X178.026 Y72.891 E30.34594
G1 X178.967 Y73.833 E30.46697
G1 X178.967 Y72.931 E30.54891
G1 X178.927 Y72.891 E30.55405
G1 X175.762 Y76.936 F7800.000
G1 X178.967 Y80.141 E30.96620 F1080.000
G1 X178.967 Y81.042 E31.04815
G1 X176.599 Y78.674 E31.35265
G1 X176.518 Y79.494 E31.42760
G1 X178.967 Y81.943 E31.74252
G1 X178.967 Y82.844 E31.82446
G1 X176.225 Y80.102 E32.17704
G1 X175.932 Y80.711 E32.23843
G1 X178.689 Y83.467 E32.59290
G1 X177.788 Y83.467 E32.67485
G1 X175.640 Y81.319 E32.95111
G1 X175.347 Y81.927 E33.01249
G1 X176.887 Y83.467 E33.21054
G1 X175.986 Y83.467 E33.29248
G1 X174.903 Y82.385 E33.43166
G1 X174.170 Y82.552 E33.50009
G1 X175.084 Y83.467 E33.61773
G1 X174.183 Y83.467 E33.69967
G1 X173.436 Y82.720 E33.79579
G1 X173.282 Y83.467 E33.86517
G1 X172.702 Y82.887 E33.93974
G1 X172.381 Y83.467 E34.00003
G1 X171.968 Y83.055 E34.05307
G1 X171.480 Y83.467 E34.11122
G1 X169.623 Y81.611 E34.34994
G1 X170.579 Y83.467 F7800.000
G1 X166.033 Y78.921 E34.93450 F1080.000
G1 X166.033 Y79.823 E35.01644
G1 X169.677 Y83.467 E35.48512
G1 X168.776 Y83.467 E35.56706
G1 X166.033 Y80.724 E35.91985
G1 X166.033 Y81.625 E36.00179
G1 X167.875 Y83.467 E36.23870
G1 X166.974 Y83.467 E36.32064
G1 X166.033 Y82.526 E36.44167
G1 X166.033 Y83.427 E36.52361
G1 X166.073 Y83.467 E36.52876
G1 F1800.000 E35.52876
G92 E0
G1 X149.854 Y43.952 F7800.000
G1 E1.00000 F1800.000
G1 X146.660 Y44.681 E1.29792 F540.000
G1 X144.098 Y42.638 E1.59584
G1 X144.098 Y39.362 E1.89376
G1 X146.660 Y37.319 E2.19168
G1 X149.854 Y38.048 E2.48959
G1 X151.276 Y41.000 E2.78751
G1 X149.877 Y43.905 E3.08066
G1 X149.422 Y43.410 F7800.000
G1 X146.814 Y44.005 E3.32385 F540.000
G1 X144.723 Y42.337 E3.56704
G1 X144.723 Y39.663 E3.81023
G1 X146.814 Y37.995 E4.05342
G1 X149.422 Y38.590 E4.29662
G1 X150.582 Y41.000 E4.53981
G1 X149.444 Y43.362 E4.77823
G1 X148.989 Y42.867 F7800.000
G1 X146.969 Y43.329 E4.96669 F540.000
G1 X145.348 Y42.036 E5.15515
G1 X145.348 Y39.964 E5.34362
G1 X146.969 Y38.671 E5.53208
G1 X148.989 Y39.133 E5.72055
G1 X149.888 Y41.000 E5.90901
G1 X149.012 Y42.820 E6.09271
G1 X148.989 Y43.217 F7800.000
G1 X146.660 Y75.319 F7800.000
G1 X149.854 Y76.048 E6.39062 F540.000
G1 X151.276 Y79.000 E6.68854
G1 X149.854 Y81.952 E6.98646
G1 X146.660 Y82.681 E7.28438
G1 X144.098 Y80.638 E7.58230
G1 X144.098 Y77.362 E7.88022
G1 X146.619 Y75.352 E8.17336
G1 X146.814 Y75.995 F7800.000
G1 X149.422 Y76.590 E8.41655 F540.000
G1 X150.582 Y79.000 E8.65975
G1 X149.422 Y81.410 E8.90294
G1 X146.814 Y82.005 E9.14613
G1 X144.723 Y80.337 E9.38932
G1 X144.723 Y77.663 E9.63252
G1 X146.773 Y76.028 E9.87093
G1 X146.969 Y76.671 F7800.000
G1 X148.989 Y77.133 E10.05940 F540.000
G1 X149.888 Y79.000 E10.24786
G1 X148.989 Y80.867 E10.43633
G1 X146.969 Y81.329 E10.62479
G1 X145.348 Y80.036 E10.81326
G1 X145.348 Y77.964 E11.00172
G1 X146.928 Y76.704 E11.18541
G1 X147.120 Y76.356 F7800.000
G1 X140.600 Y83.900 F7800.000
G1 X140.600 Y36.100 E15.53189 F540.000
G1 X154.400 Y36.100 E16.78676
G1 X154.400 Y83.900 E21.13323
G1 X140.652 Y83.900 E22.38333
G1 X139.975 Y84.525 F7800.000
G1 X139.975 Y35.475 E26.84344 F540.000
G1 X155.025 Y35.475 E28.21195
G1 X155.025 Y84.525 E32.67207
G1 X140.027 Y84.525 E34.03581
G1 X139.350 Y85.150 F7800.000
G1 X139.350 Y34.850 E38.60956 F378.000
G1 X155.650 Y34.850 E40.09172
G1 X155.650 Y85.150 E44.66547
G1 X139.403 Y85.150 E46.14285
G1 X139.525 Y84.847 F7800.000
G1 X141.033 Y83.427 F7800.000
G1 X141.073 Y83.467 E46.14800 F1080.000
G1 X141.965 Y83.467 E46.22914
G1 X141.033 Y82.535 E46.34904
G1 X141.033 Y81.642 E46.43018
G1 X142.858 Y83.467 E46.66483
G1 X143.750 Y83.467 E46.74597
G1 X141.033 Y80.750 E47.09537
G1 X141.033 Y79.858 E47.17652
G1 X144.642 Y83.467 E47.64067
G1 X145.535 Y83.467 E47.72182
G1 X141.033 Y78.965 E48.30073
G1 X141.033 Y78.073 E48.38187
G1 X146.427 Y83.467 E49.07553
G1 X146.918 Y83.066 E49.13320
G1 X147.319 Y83.467 E49.18477
G1 X147.645 Y82.900 E49.24421
G1 X148.212 Y83.467 E49.31711
G1 X149.104 Y83.467 E49.39825
G1 X148.371 Y82.735 E49.49247
G1 X149.098 Y82.569 E49.56023
G1 X149.997 Y83.467 E49.67578
G1 X150.889 Y83.467 E49.75692
G1 X149.825 Y82.403 E49.89379
G1 X150.312 Y81.998 E49.95141
G1 X151.781 Y83.467 E50.14030
G1 X152.674 Y83.467 E50.22145
G1 X150.602 Y81.396 E50.48779
G1 X150.892 Y80.794 E50.54858
G1 X153.566 Y83.467 E50.89237
G1 X153.967 Y82.976 E50.95004
G1 X151.183 Y80.191 E51.30813
G1 X151.473 Y79.589 E51.36892
G1 X153.967 Y82.084 E51.68972
G1 X153.967 Y81.191 E51.77086
G1 X151.738 Y78.962 E52.05753
G1 X150.909 Y77.241 F7800.000
G1 X153.967 Y80.299 E52.45078 F1080.000
G1 X153.967 Y79.407 E52.53192
G1 X141.033 Y66.472 E54.19521
G1 X141.033 Y65.580 E54.27635
G1 X153.967 Y78.514 E55.93963
G1 X153.967 Y77.622 E56.02078
G1 X141.033 Y64.687 E57.68406
G1 X141.033 Y63.795 E57.76520
G1 X153.967 Y76.729 E59.42848
G1 X153.967 Y75.837 E59.50963
G1 X141.033 Y62.903 E61.17291
G1 X141.033 Y62.010 E61.25405
G1 X153.967 Y74.945 E62.91734
G1 X153.967 Y74.052 E62.99848
G1 X141.033 Y61.118 E64.66176
G1 X141.033 Y60.226 E64.74291
G1 X153.967 Y73.160 E66.40619
G1 X153.967 Y72.268 E66.48733
G1 X141.033 Y59.333 E68.15062
G1 X141.033 Y58.441 E68.23176
G1 X153.967 Y71.375 E69.89504
G1 X153.967 Y70.483 E69.97618
G1 X141.033 Y57.548 E71.63947
G1 X141.033 Y56.656 E71.72061
G1 X153.967 Y69.590 E73.38389
G1 X153.967 Y68.698 E73.46504
G1 X141.033 Y55.764 E75.12832
G1 X141.033 Y54.871 E75.20946
G1 X153.967 Y67.806 E76.87275
G1 X153.967 Y66.913 E76.95389
G1 X141.033 Y53.979 E78.61717
G1 X141.033 Y53.087 E78.69831
G1 X153.967 Y66.021 E80.36160
G1 X153.967 Y65.129 E80.44274
G1 X141.033 Y52.194 E82.10602
G1 X141.033 Y51.302 E82.18717
G1 X153.967 Y64.236 E83.85045
G1 X153.967 Y63.344 E83.93159
G1 X141.033 Y50.410 E85.59488
G1 X141.033 Y49.517 E85.67602
G1 X153.967 Y62.452 E87.33930
G1 X153.967 Y61.559 E87.42045
G1 X141.033 Y48.625 E89.08373
G1 X141.033 Y47.732 E89.16487
G1 X153.967 Y60.667 E90.82815
G1 X153.967 Y59.774 E90.90930
G1 X141.033 Y46.840 E92.57258
G1 X141.033 Y45.948 E92.65372
G1 X153.967 Y58.882 E94.31701
G1 X153.967 Y57.990 E94.39815
G1 X141.033 Y45.055 E96.06143
G1 X141.033 Y44.163 E96.14258
G1 X153.967 Y57.097 E97.80586
G1 X153.967 Y56.205 E97.88700
G1 X141.033 Y43.271 E99.55029
G1 X141.033 Y42.378 E99.63143
G1 X153.967 Y55.313 E101.29471
G1 X153.967 Y54.420 E101.37585
G1 X141.033 Y41.486 E103.03914
G1 F1800.000 E102.03914
G92 E0
G1 X150.564 Y38.523 F7800.000
G1 E1.00000 F1800.000
G1 X153.967 Y41.927 E1.43768 F1080.000
G1 X153.967 Y42.819 E1.51882
G1 X151.393 Y40.245 E1.84991
G1 X151.593 Y41.338 E1.95099
G1 X153.967 Y43.712 E2.25624
G1 X153.967 Y44.604 E2.33738
G1 X151.303 Y41.940 E2.67993
G1 X151.013 Y42.543 E2.74072
G1 X153.967 Y45.497 E3.12056
G1 X153.967 Y46.389 E3.20171
G1 X150.723 Y43.145 E3.61885
G1 X150.433 Y43.747 E3.67964
G1 X153.967 Y47.281 E4.13408
G1 X153.967 Y48.174 E4.21523
G1 X150.127 Y44.334 E4.70901
G1 X149.401 Y44.500 E4.77678
G1 X153.967 Y49.066 E5.36399
G1 X153.967 Y49.958 E5.44513
G1 X148.674 Y44.665 E6.12578
G1 X147.948 Y44.831 E6.19354
G1 X153.967 Y50.851 E6.96761
G1 X153.967 Y51.743 E7.04875
G1 X147.221 Y44.997 E7.91625
G1 X146.199 Y44.868 E8.00991
G1 X153.967 Y52.635 E9.00882
G1 X153.967 Y53.528 E9.08996
G1 X141.033 Y40.593 E10.75324
G1 X141.033 Y39.701 E10.83439
G1 X143.665 Y42.334 E11.17291
G1 X143.665 Y41.441 E11.25405
G1 X141.033 Y38.809 E11.59258
G1 X141.033 Y37.916 E11.67372
G1 X143.665 Y40.549 E12.01224
G1 X143.665 Y39.656 E12.09339
G1 X141.033 Y37.024 E12.43191
G1 X141.434 Y36.533 E12.48958
G1 X143.882 Y38.981 E12.80435
G1 X144.378 Y38.585 E12.86209
G1 X142.326 Y36.533 E13.12595
G1 X143.219 Y36.533 E13.20709
G1 X144.875 Y38.189 E13.42004
G1 X145.371 Y37.793 E13.47778
G1 X144.111 Y36.533 E13.63982
G1 X145.003 Y36.533 E13.72096
G1 X145.868 Y37.397 E13.83208
G1 X145.896 Y36.533 E13.91070
G1 X146.364 Y37.001 E13.97091
G1 X146.788 Y36.533 E14.02835
G1 X147.269 Y37.014 E14.09023
G1 X147.681 Y36.533 E14.14778
G1 X148.426 Y37.278 E14.24359
G1 X149.582 Y37.542 E14.35144
G1 X148.573 Y36.533 E14.48119
G1 X149.465 Y36.533 E14.56233
G1 X153.967 Y41.035 E15.14124
G1 X153.967 Y40.142 E15.22239
G1 X150.358 Y36.533 E15.68654
G1 X151.250 Y36.533 E15.76769
G1 X153.967 Y39.250 E16.11709
G1 X153.967 Y38.358 E16.19823
G1 X152.142 Y36.533 E16.43288
G1 X153.035 Y36.533 E16.51403
G1 X153.967 Y37.465 E16.63392
G1 X153.967 Y36.573 E16.71507
G1 X153.927 Y36.533 E16.72021
G1 X149.100 Y75.432 F7800.000
G1 X141.033 Y67.365 E17.75761 F1080.000
G1 X141.033 Y68.257 E17.83875
G1 X147.944 Y75.168 E18.72746
G1 X146.787 Y74.904 E18.83531
G1 X141.033 Y69.149 E19.57533
G1 X141.033 Y70.042 E19.65647
G1 X146.157 Y75.166 E20.31543
G1 X145.661 Y75.562 E20.37317
G1 X141.033 Y70.934 E20.96829
G1 X141.033 Y71.826 E21.04944
G1 X145.164 Y75.958 E21.58072
G1 X144.668 Y76.354 E21.63846
G1 X141.033 Y72.719 E22.10590
G1 X141.033 Y73.611 E22.18704
G1 X144.171 Y76.750 E22.59064
G1 X143.675 Y77.146 E22.64838
G1 X141.033 Y74.504 E22.98814
G1 X141.033 Y75.396 E23.06928
G1 X143.665 Y78.028 E23.40781
G1 X143.665 Y78.921 E23.48895
G1 X141.033 Y76.288 E23.82747
G1 X141.033 Y77.181 E23.90862
G1 X143.665 Y79.813 E24.24714
G1 F1800.000 E23.24714
G92 E0
G1 X171.660 Y44.681 F7800.000
G1 E1.00000 F1800.000
G1 X169.098 Y42.638 E1.29792 F540.000
G1 X169.098 Y39.362 E1.59584
G1 X171.660 Y37.319 E1.89376
G1 X174.854 Y38.048 E2.19168
G1 X176.276 Y41.000 E2.48960
G1 X174.854 Y43.952 E2.78752
G1 X171.711 Y44.669 E3.08066
G1 X171.814 Y44.005 F7800.000
G1 X169.723 Y42.337 E3.32386 F540.000
G1 X169.723 Y39.663 E3.56705
G1 X171.814 Y37.995 E3.81024
G1 X174.422 Y38.590 E4.05343
G1 X175.582 Y41.000 E4.29663
G1 X174.422 Y43.410 E4.53982
G1 X171.865 Y43.993 E4.77824
G1 X171.969 Y43.329 F7800.000
G1 X170.348 Y42.036 E4.96670 F540.000
G1 X170.348 Y39.964 E5.15517
G1 X171.969 Y38.671 E5.34364
G1 X173.989 Y39.133 E5.53210
G1 X174.888 Y41.000 E5.72057
G1 X173.989 Y42.867 E5.90903
G1 X172.020 Y43.317 E6.09272
G1 X171.695 Y43.547 F7800.000
G1 X165.600 Y47.542 F7800.000
G1 X165.600 Y36.100 E7.13312 F540.000
G1 X179.400 Y36.100 E8.38799
G1 X179.400 Y47.542 E9.42838
G1 X165.652 Y47.542 E10.67847
