; generated by Slic3r 1.1.3 on 2014-06-03 at 19:27:57

; perimeters extrusion width = 0.35mm
; infill extrusion width = 0.39mm
; solid infill extrusion width = 0.39mm
; top infill extrusion width = 0.39mm

G21 ; set units to millimeters
M107
M104 S200 ; set temperature
G28 ; home all axes
G1 Z5 F5000 ; lift nozzle

M109 S200 ; wait for temperature to be reached
G90 ; use absolute coordinates
G92 E0
M82 ; use absolute distances for extrusion
G1 F1800.000 E-1.00000
G92 E0
G1 Z0.350 F7800.000
G1 X50.561 Y78.384 F7800.000
G1 E1.00000 F1800.000
G1 X53.934 Y77.625 E1.31440 F1080.000
G1 X147.934 Y77.625 E9.86178
G1 X150.404 Y78.023 E10.08929
G1 X152.625 Y79.175 E10.31679
G1 X154.372 Y80.966 E10.54429
G1 X155.228 Y82.531 E10.70644
G1 X161.334 Y97.531 E12.17909
G1 X161.916 Y100.486 E12.45296
G1 X161.941 Y114.486 E13.72598
G1 X161.547 Y116.957 E13.95348
G1 X160.399 Y119.180 E14.18098
G1 X158.612 Y120.930 E14.40848
G1 X156.365 Y122.032 E14.63598
G1 X154.066 Y122.375 E14.84736
G1 X45.934 Y122.375 E24.67973
G1 X43.464 Y121.977 E24.90723
G1 X41.243 Y120.825 E25.13473
G1 X39.496 Y119.034 E25.36223
G1 X38.398 Y116.786 E25.58973
G1 X38.059 Y114.500 E25.79985
G1 X38.059 Y100.500 E27.07287
G1 X38.457 Y98.030 E27.30037
G1 X38.986 Y96.794 E27.42258
G1 X46.986 Y81.794 E28.96838
G1 X48.499 Y79.802 E29.19588
G1 X50.518 Y78.414 E29.41861
G1 X51.006 Y78.868 F7800.000
G1 X53.934 Y78.250 E29.69068 F1080.000
G1 X147.934 Y78.250 E38.23806
G1 X150.301 Y78.647 E38.45628
G1 X152.408 Y79.796 E38.67451
G1 X154.026 Y81.569 E38.89274
G1 X154.649 Y82.766 E39.01548
G1 X160.756 Y97.766 E40.48812
G1 X161.291 Y100.487 E40.74026
G1 X161.316 Y114.487 E42.01328
G1 X160.923 Y116.855 E42.23150
G1 X159.778 Y118.964 E42.44973
G1 X158.008 Y120.584 E42.66796
G1 X155.805 Y121.538 E42.88619
G1 X154.066 Y121.750 E43.04552
G1 X45.934 Y121.750 E52.87790
G1 X43.567 Y121.353 E53.09612
G1 X41.460 Y120.204 E53.31435
G1 X39.843 Y118.431 E53.53258
G1 X38.893 Y116.227 E53.75081
G1 X38.684 Y114.500 E53.90898
G1 X38.684 Y100.500 E55.18199
G1 X39.537 Y97.088 E55.50176
G1 X47.537 Y82.088 E57.04756
G1 X49.002 Y80.187 E57.26579
G1 X50.963 Y78.897 E57.47925
G1 X51.446 Y79.360 F7800.000
G1 X53.934 Y78.875 E57.70972 F1080.000
G1 X147.934 Y78.875 E66.25710
G1 X150.193 Y79.272 E66.46564
G1 X152.181 Y80.415 E66.67418
G1 X154.070 Y83.002 E66.96541
G1 X160.177 Y98.002 E68.43806
G1 X160.666 Y100.488 E68.66846
G1 X160.691 Y114.488 E69.94148
G1 X160.298 Y116.748 E70.15002
G1 X159.158 Y118.738 E70.35856
G1 X157.408 Y120.220 E70.56711
G1 X155.257 Y121.017 E70.77565
G1 X154.066 Y121.125 E70.88442
G1 X45.934 Y121.125 E80.71680
G1 X43.675 Y120.728 E80.92534
G1 X41.687 Y119.585 E81.13388
G1 X40.208 Y117.832 E81.34243
G1 X39.415 Y115.680 E81.55097
G1 X39.309 Y114.500 E81.65868
G1 X39.309 Y100.500 E82.93169
G1 X40.089 Y97.382 E83.22390
G1 X48.089 Y82.382 E84.76970
G1 X49.502 Y80.576 E84.97824
G1 X51.402 Y79.388 E85.18201
G1 F1800.000 E84.18201
G92 E0
G1 X148.436 Y102.100 F7800.000
G1 E1.00000 F1800.000
G1 X152.444 Y102.100 E1.36441 F540.000
G1 X152.463 Y112.900 E2.34649
G1 X47.534 Y112.900 E11.88767
G1 X47.534 Y102.100 E12.86975
G1 X51.534 Y102.100 E13.23346
G1 X51.534 Y97.100 E13.68811
G1 X55.534 Y97.100 E14.05183
G1 X55.534 Y87.100 E14.96113
G1 X56.334 Y87.100 E15.03391
G1 X56.334 Y97.100 E15.94320
G1 X61.534 Y97.100 E16.41600
G1 X61.534 Y87.100 E17.32529
G1 X62.334 Y87.100 E17.39808
G1 X62.334 Y97.100 E18.30737
G1 X67.534 Y97.100 E18.78017
G1 X67.534 Y87.100 E19.68946
G1 X68.334 Y87.100 E19.76225
G1 X68.334 Y97.100 E20.67154
G1 X73.534 Y97.100 E21.14433
G1 X73.534 Y87.100 E22.05363
G1 X74.334 Y87.100 E22.12641
G1 X74.334 Y97.100 E23.03571
G1 X79.534 Y97.100 E23.50850
G1 X79.534 Y87.100 E24.41780
G1 X80.334 Y87.100 E24.49058
G1 X80.334 Y97.100 E25.39988
G1 X85.534 Y97.100 E25.87267
G1 X85.534 Y87.100 E26.78197
G1 X86.334 Y87.100 E26.85475
G1 X86.334 Y97.100 E27.76405
G1 X91.534 Y97.100 E28.23684
G1 X91.534 Y87.100 E29.14613
G1 X92.334 Y87.100 E29.21892
G1 X92.334 Y97.100 E30.12821
G1 X97.534 Y97.100 E30.60101
G1 X97.534 Y87.100 E31.51030
G1 X98.334 Y87.100 E31.58309
G1 X98.334 Y97.100 E32.49238
G1 X103.534 Y97.100 E32.96518
G1 X103.534 Y87.100 E33.87447
G1 X104.334 Y87.100 E33.94725
G1 X104.334 Y97.100 E34.85655
G1 X109.534 Y97.100 E35.32934
G1 X109.534 Y87.100 E36.23864
G1 X110.334 Y87.100 E36.31142
G1 X110.334 Y97.100 E37.22072
G1 X115.534 Y97.100 E37.69351
G1 X115.534 Y87.100 E38.60281
G1 X116.334 Y87.100 E38.67559
G1 X116.334 Y97.100 E39.58489
G1 X121.534 Y97.100 E40.05768
G1 X121.534 Y87.100 E40.96697
G1 X122.334 Y87.100 E41.03976
G1 X122.334 Y97.100 E41.94905
G1 X127.534 Y97.100 E42.42185
G1 X127.534 Y87.100 E43.33114
G1 X128.334 Y87.100 E43.40393
G1 X128.334 Y97.100 E44.31322
G1 X133.534 Y97.100 E44.78602
G1 X133.534 Y87.100 E45.69531
G1 X134.334 Y87.100 E45.76810
G1 X134.334 Y97.100 E46.67739
G1 X139.534 Y97.100 E47.15018
G1 X139.534 Y87.100 E48.05948
G1 X140.334 Y87.100 E48.13226
G1 X140.334 Y97.100 E49.04156
G1 X145.534 Y97.100 E49.51435
G1 X145.534 Y87.100 E50.42365
G1 X146.334 Y87.100 E50.49643
G1 X146.334 Y97.100 E51.40575
G1 X148.430 Y97.099 E51.59626
G1 X148.436 Y102.047 E52.04620
G1 X149.060 Y101.475 F7800.000
G1 X153.068 Y101.475 E52.41058 F540.000
G1 X153.089 Y113.525 E53.50631
G1 X46.909 Y113.525 E63.16123
G1 X46.909 Y101.475 E64.25695
G1 X50.909 Y101.475 E64.62067
G1 X50.909 Y96.475 E65.07532
G1 X54.909 Y96.475 E65.43903
G1 X54.909 Y86.475 E66.34833
G1 X56.959 Y86.475 E66.53476
G1 X56.959 Y96.475 E67.44405
G1 X60.909 Y96.475 E67.80320
G1 X60.909 Y86.475 E68.71250
G1 X62.959 Y86.475 E68.89892
G1 X62.959 Y96.475 E69.80822
G1 X66.909 Y96.475 E70.16737
G1 X66.909 Y86.475 E71.07667
G1 X68.959 Y86.475 E71.26309
G1 X68.959 Y96.475 E72.17239
G1 X72.909 Y96.475 E72.53154
G1 X72.909 Y86.475 E73.44083
G1 X74.959 Y86.475 E73.62726
G1 X74.959 Y96.475 E74.53655
G1 X78.909 Y96.475 E74.89571
G1 X78.909 Y86.475 E75.80500
G1 X80.959 Y86.475 E75.99143
G1 X80.959 Y96.475 E76.90072
G1 X84.909 Y96.475 E77.25987
G1 X84.909 Y86.475 E78.16917
G1 X86.959 Y86.475 E78.35560
G1 X86.959 Y96.475 E79.26489
G1 X90.909 Y96.475 E79.62404
G1 X90.909 Y86.475 E80.53334
G1 X92.959 Y86.475 E80.71976
G1 X92.959 Y96.475 E81.62906
G1 X96.909 Y96.475 E81.98821
G1 X96.909 Y86.475 E82.89751
G1 X98.959 Y86.475 E83.08393
G1 X98.959 Y96.475 E83.99323
G1 X102.909 Y96.475 E84.35238
G1 X102.909 Y86.475 E85.26167
G1 X104.959 Y86.475 E85.44810
G1 X104.959 Y96.475 E86.35740
G1 X108.909 Y96.475 E86.71655
G1 X108.909 Y86.475 E87.62584
G1 X110.959 Y86.475 E87.81227
G1 X110.959 Y96.475 E88.72156
G1 X114.909 Y96.475 E89.08072
G1 X114.909 Y86.475 E89.99001
G1 X116.959 Y86.475 E90.17644
G1 X116.959 Y96.475 E91.08573
G1 X120.909 Y96.475 E91.44488
G1 X120.909 Y86.475 E92.35418
G1 X122.959 Y86.475 E92.54060
G1 X122.959 Y96.475 E93.44990
G1 X126.909 Y96.475 E93.80905
G1 X126.909 Y86.475 E94.71835
G1 X128.959 Y86.475 E94.90477
G1 X128.959 Y96.475 E95.81407
G1 X132.909 Y96.475 E96.17322
G1 X132.909 Y86.475 E97.08252
G1 X134.959 Y86.475 E97.26894
G1 X134.959 Y96.475 E98.17824
G1 X138.909 Y96.475 E98.53739
G1 X138.909 Y86.475 E99.44668
G1 X140.959 Y86.475 E99.63311
G1 X140.959 Y96.475 E100.54240
G1 X144.909 Y96.475 E100.90156
G1 X144.909 Y86.475 E101.81085
G1 X146.959 Y86.475 E101.99728
G1 X146.959 Y96.475 E102.90657
G1 X149.054 Y96.474 E103.09701
G1 X149.060 Y101.422 E103.54697
G1 X149.684 Y100.850 F7800.000
G1 X153.692 Y100.850 E103.91133 F378.000
G1 X153.715 Y114.150 E105.12069
G1 X46.284 Y114.150 E114.88936
G1 X46.284 Y100.850 E116.09872
G1 X50.284 Y100.850 E116.46244
G1 X50.284 Y95.850 E116.91709
G1 X54.284 Y95.850 E117.28081
G1 X54.284 Y85.850 E118.19010
G1 X57.584 Y85.850 E118.49017
G1 X57.584 Y95.850 E119.39946
G1 X60.284 Y95.850 E119.64497
G1 X60.284 Y85.850 E120.55427
G1 X63.584 Y85.850 E120.85434
G1 X63.584 Y95.850 E121.76363
G1 X66.284 Y95.850 E122.00914
G1 X66.284 Y85.850 E122.91844
G1 X69.584 Y85.850 E123.21851
G1 X69.584 Y95.850 E124.12780
G1 X72.284 Y95.850 E124.37331
G1 X72.284 Y85.850 E125.28261
G1 X75.584 Y85.850 E125.58267
G1 X75.584 Y95.850 E126.49197
G1 X78.284 Y95.850 E126.73748
G1 X78.284 Y85.850 E127.64677
G1 X81.584 Y85.850 E127.94684
G1 X81.584 Y95.850 E128.85614
G1 X84.284 Y95.850 E129.10165
G1 X84.284 Y85.850 E130.01094
G1 X87.584 Y85.850 E130.31101
G1 X87.584 Y95.850 E131.22031
G1 X90.284 Y95.850 E131.46582
G1 X90.284 Y85.850 E132.37511
G1 X93.584 Y85.850 E132.67518
G1 X93.584 Y95.850 E133.58447
G1 X96.284 Y95.850 E133.82998
G1 X96.284 Y85.850 E134.73928
G1 X99.584 Y85.850 E135.03935
G1 X99.584 Y95.850 E135.94864
G1 X102.284 Y95.850 E136.19415
G1 X102.284 Y85.850 E137.10345
G1 X105.584 Y85.850 E137.40351
G1 X105.584 Y95.850 E138.31281
G1 X108.284 Y95.850 E138.55832
G1 X108.284 Y85.850 E139.46761
G1 X111.584 Y85.850 E139.76768
G1 X111.584 Y95.850 E140.67698
G1 X114.284 Y95.850 E140.92249
G1 X114.284 Y85.850 E141.83178
G1 X117.584 Y85.850 E142.13185
G1 X117.584 Y95.850 E143.04115
G1 X120.284 Y95.850 E143.28666
G1 X120.284 Y85.850 E144.19595
G1 X123.584 Y85.850 E144.49602
G1 X123.584 Y95.850 E145.40531
G1 X126.284 Y95.850 E145.65082
G1 X126.284 Y85.850 E146.56012
G1 X129.584 Y85.850 E146.86019
G1 X129.584 Y95.850 E147.76948
G1 X132.284 Y95.850 E148.01499
G1 X132.284 Y85.850 E148.92429
G1 X135.584 Y85.850 E149.22435
G1 X135.584 Y95.850 E150.13365
G1 X138.284 Y95.850 E150.37916
G1 X138.284 Y85.850 E151.28846
G1 X141.584 Y85.850 E151.58852
G1 X141.584 Y95.850 E152.49782
G1 X144.284 Y95.850 E152.74333
G1 X144.284 Y85.850 E153.65262
G1 X147.584 Y85.850 E153.95269
G1 X147.584 Y95.850 E154.86196
G1 X149.678 Y95.849 E155.05232
G1 X149.684 Y100.797 E155.50230
G1 X149.685 Y101.200 F7800.000
G1 X152.013 Y103.356 F7800.000
G1 X151.190 Y102.533 E155.60815 F1080.000
G1 X150.306 Y102.533 E155.68850
G1 X152.015 Y104.241 E155.90820
G1 X152.016 Y105.127 E155.98870
G1 X149.423 Y102.533 E156.32223
G1 X148.539 Y102.533 E156.40259
G1 X152.018 Y106.012 E156.84997
G1 X152.020 Y106.897 E156.93047
G1 X142.655 Y97.533 E158.13467
G1 X143.539 Y97.533 E158.21502
G1 X148.003 Y101.997 E158.78911
G1 X148.002 Y101.112 E158.86958
G1 X144.423 Y97.533 E159.32987
G1 X145.306 Y97.533 E159.41023
G1 X148.001 Y100.227 E159.75671
G1 X148.000 Y99.342 E159.83718
G1 X146.190 Y97.533 E160.06983
G1 X147.074 Y97.533 E160.15015
G1 X147.998 Y98.457 E160.26905
G1 X147.997 Y97.572 E160.34951
G1 X147.957 Y97.532 E160.35466
G1 X152.021 Y107.782 F7800.000
G1 X141.771 Y97.533 E161.67270 F1080.000
G1 X140.888 Y97.533 E161.75306
G1 X152.023 Y108.668 E163.18494
G1 X152.024 Y109.553 E163.26544
G1 X140.004 Y97.533 E164.81117
G1 X139.120 Y97.533 E164.89153
G1 X152.026 Y110.438 E166.55111
G1 X152.027 Y111.324 E166.63161
G1 X138.237 Y97.533 E168.40503
G1 X137.353 Y97.533 E168.48539
G1 X152.029 Y112.209 E170.37265
G1 X151.403 Y112.467 E170.43419
G1 X136.469 Y97.533 E172.35466
G1 X135.585 Y97.533 E172.43501
G1 X150.520 Y112.467 E174.35548
G1 X149.636 Y112.467 E174.43584
G1 X134.702 Y97.533 E176.35631
G1 X133.818 Y97.533 E176.43667
G1 X148.752 Y112.467 E178.35714
G1 X147.869 Y112.467 E178.43750
G1 X132.934 Y97.533 E180.35797
G1 X132.050 Y97.533 E180.43832
G1 X146.985 Y112.467 E182.35879
G1 X146.101 Y112.467 E182.43915
G1 X131.167 Y97.533 E184.35962
G1 X130.283 Y97.533 E184.43998
G1 X145.217 Y112.467 E186.36045
G1 X144.334 Y112.467 E186.44081
G1 X129.399 Y97.533 E188.36128
G1 X128.515 Y97.533 E188.44163
G1 X143.450 Y112.467 E190.36211
G1 X142.566 Y112.467 E190.44246
G1 X127.632 Y97.533 E192.36293
G1 X126.748 Y97.533 E192.44329
G1 X141.682 Y112.467 E194.36376
G1 X140.799 Y112.467 E194.44412
G1 X125.864 Y97.533 E196.36459
G1 X124.981 Y97.533 E196.44495
G1 X139.915 Y112.467 E198.36542
G1 X139.031 Y112.467 E198.44577
G1 X124.097 Y97.533 E200.36624
G1 X123.213 Y97.533 E200.44660
G1 X138.147 Y112.467 E202.36707
G1 X137.264 Y112.467 E202.44743
G1 X122.329 Y97.533 E204.36790
G1 X121.446 Y97.533 E204.44826
G1 X136.380 Y112.467 E206.36873
G1 X135.496 Y112.467 E206.44908
G1 X120.562 Y97.533 E208.36956
G1 X119.678 Y97.533 E208.44991
G1 X134.613 Y112.467 E210.37038
G1 X133.729 Y112.467 E210.45074
G1 X118.794 Y97.533 E212.37121
G1 X117.911 Y97.533 E212.45157
G1 X132.845 Y112.467 E214.37204
G1 X131.961 Y112.467 E214.45240
G1 X117.027 Y97.533 E216.37287
G1 X116.143 Y97.533 E216.45322
G1 X131.078 Y112.467 E218.37369
G1 X130.194 Y112.467 E218.45405
G1 X115.260 Y97.533 E220.37452
G1 X114.376 Y97.533 E220.45488
G1 X129.310 Y112.467 E222.37535
G1 X128.426 Y112.467 E222.45571
G1 X113.492 Y97.533 E224.37618
G1 X112.608 Y97.533 E224.45653
G1 X127.543 Y112.467 E226.37700
G1 X126.659 Y112.467 E226.45736
G1 X111.725 Y97.533 E228.37783
G1 X110.841 Y97.533 E228.45819
G1 X125.775 Y112.467 E230.37866
G1 X124.892 Y112.467 E230.45902
G1 X109.957 Y97.533 E232.37949
G1 X109.073 Y97.533 E232.45985
G1 X124.008 Y112.467 E234.38032
G1 X123.124 Y112.467 E234.46067
G1 X108.190 Y97.533 E236.38114
G1 X107.306 Y97.533 E236.46150
G1 X122.240 Y112.467 E238.38197
G1 X121.357 Y112.467 E238.46233
G1 X106.422 Y97.533 E240.38280
G1 X105.538 Y97.533 E240.46316
G1 X120.473 Y112.467 E242.38363
G1 X119.589 Y112.467 E242.46398
G1 X104.655 Y97.533 E244.38445
G1 X103.771 Y97.533 E244.46481
G1 X118.705 Y112.467 E246.38528
G1 X117.822 Y112.467 E246.46564
G1 X102.887 Y97.533 E248.38611
G1 X102.004 Y97.533 E248.46647
G1 X116.938 Y112.467 E250.38694
G1 X116.054 Y112.467 E250.46729
G1 X101.120 Y97.533 E252.38777
G1 X100.236 Y97.533 E252.46812
G1 X115.170 Y112.467 E254.38859
G1 X114.287 Y112.467 E254.46895
G1 X99.352 Y97.533 E256.38942
G1 X98.469 Y97.533 E256.46978
G1 X113.403 Y112.467 E258.39025
G1 X112.519 Y112.467 E258.47061
G1 X97.585 Y97.533 E260.39108
G1 X96.701 Y97.533 E260.47143
G1 X111.636 Y112.467 E262.39190
G1 X110.752 Y112.467 E262.47226
G1 X95.817 Y97.533 E264.39273
G1 X94.934 Y97.533 E264.47309
G1 X109.868 Y112.467 E266.39356
G1 X108.984 Y112.467 E266.47392
G1 X94.050 Y97.533 E268.39439
G1 X93.166 Y97.533 E268.47474
G1 X108.101 Y112.467 E270.39521
G1 X107.217 Y112.467 E270.47557
G1 X92.283 Y97.533 E272.39604
G1 X91.399 Y97.533 E272.47640
G1 X106.333 Y112.467 E274.39687
G1 X105.449 Y112.467 E274.47723
G1 X90.515 Y97.533 E276.39770
G1 X89.631 Y97.533 E276.47805
G1 X104.566 Y112.467 E278.39852
G1 X103.682 Y112.467 E278.47888
G1 X88.748 Y97.533 E280.39935
G1 X87.864 Y97.533 E280.47971
G1 X102.798 Y112.467 E282.40018
G1 X101.915 Y112.467 E282.48054
G1 X86.980 Y97.533 E284.40101
G1 X86.096 Y97.533 E284.48136
G1 X101.031 Y112.467 E286.40184
G1 X100.147 Y112.467 E286.48219
G1 X85.213 Y97.533 E288.40266
G1 X84.329 Y97.533 E288.48302
G1 X99.263 Y112.467 E290.40349
G1 X98.380 Y112.467 E290.48385
G1 X83.445 Y97.533 E292.40432
G1 X82.561 Y97.533 E292.48468
G1 X97.496 Y112.467 E294.40515
G1 X96.612 Y112.467 E294.48550
G1 X81.678 Y97.533 E296.40597
G1 X80.794 Y97.533 E296.48633
G1 X95.728 Y112.467 E298.40680
G1 X94.845 Y112.467 E298.48716
G1 X79.910 Y97.533 E300.40763
G1 X79.027 Y97.533 E300.48799
G1 X93.961 Y112.467 E302.40846
G1 X93.077 Y112.467 E302.48881
G1 X78.143 Y97.533 E304.40928
G1 X77.259 Y97.533 E304.48964
G1 X92.193 Y112.467 E306.41011
G1 X91.310 Y112.467 E306.49047
G1 X76.375 Y97.533 E308.41094
G1 X75.492 Y97.533 E308.49130
G1 X90.426 Y112.467 E310.41177
G1 X89.542 Y112.467 E310.49212
G1 X74.608 Y97.533 E312.41259
G1 X73.724 Y97.533 E312.49295
G1 X88.659 Y112.467 E314.41342
G1 X87.775 Y112.467 E314.49378
G1 X72.840 Y97.533 E316.41425
G1 X71.957 Y97.533 E316.49461
G1 X86.891 Y112.467 E318.41508
G1 X86.007 Y112.467 E318.49543
G1 X71.073 Y97.533 E320.41591
G1 X70.189 Y97.533 E320.49626
G1 X85.124 Y112.467 E322.41673
G1 X84.240 Y112.467 E322.49709
G1 X69.306 Y97.533 E324.41756
G1 X68.422 Y97.533 E324.49792
G1 X83.356 Y112.467 E326.41839
G1 X82.472 Y112.467 E326.49875
G1 X67.538 Y97.533 E328.41922
G1 X66.654 Y97.533 E328.49957
G1 X81.589 Y112.467 E330.42004
G1 X80.705 Y112.467 E330.50040
G1 X65.771 Y97.533 E332.42087
G1 X64.887 Y97.533 E332.50123
G1 X79.821 Y112.467 E334.42170
G1 X78.938 Y112.467 E334.50206
G1 X64.003 Y97.533 E336.42253
G1 X63.119 Y97.533 E336.50288
G1 X78.054 Y112.467 E338.42335
G1 X77.170 Y112.467 E338.50371
G1 X62.236 Y97.533 E340.42418
G1 X61.352 Y97.533 E340.50454
G1 X76.286 Y112.467 E342.42501
