; generated by Slic3r 1.1.0 on 2014-04-08 at 20:29:24

; perimeters extrusion width = 0.35mm
; infill extrusion width = 0.39mm
; solid infill extrusion width = 0.39mm
; top infill extrusion width = 0.39mm

G21 ; set units to millimeters
M107
M104 S220 ; set temperature
G28 ; home all axes
G1 Z5 F5000 ; lift nozzle

M109 S220 ; wait for temperature to be reached
G90 ; use absolute coordinates
G92 E0
M82 ; use absolute distances for extrusion
G1 F1800.000 E-1.00000
G92 E0
G1 Z0.350 F7800.000
G1 X90.607 Y61.189 F7800.000
G1 E1.00000 F1800.000
G1 X93.207 Y58.589 E1.33434 F540
G1 X95.305 Y57.053 E1.57075
G1 X97.769 Y56.224 E1.80717
G1 X99.217 Y56.099 E1.93932
G1 X133.067 Y56.099 E5.01732
G1 X135.636 Y56.497 E5.25373
G1 X137.965 Y57.653 E5.49014
G1 X139.077 Y58.589 E5.62230
G1 X141.677 Y61.189 E5.95665
G1 X143.213 Y63.287 E6.19306
G1 X144.042 Y65.751 E6.42947
G1 X144.167 Y67.199 E6.56162
G1 X144.167 Y132.801 E12.52681
G1 X143.769 Y135.370 E12.76322
G1 X142.613 Y137.699 E12.99963
G1 X141.677 Y138.811 E13.13179
G1 X139.077 Y141.411 E13.46613
G1 X136.979 Y142.947 E13.70254
G1 X134.515 Y143.776 E13.93895
G1 X133.067 Y143.901 E14.07111
G1 X99.217 Y143.901 E17.14911
G1 X95.796 Y143.182 E17.46697
G1 X60.762 Y127.778 E20.94690
G1 X58.570 Y126.380 E21.18331
G1 X56.903 Y124.385 E21.41972
G1 X55.917 Y121.979 E21.65613
G1 X55.683 Y119.998 E21.83755
G1 X55.683 Y100.689 E23.59325
G1 X56.081 Y98.120 E23.82966
G1 X57.237 Y95.791 E24.06608
G1 X58.077 Y94.776 E24.18589
G1 X90.570 Y61.227 E28.43276
G1 X91.049 Y61.631 F7800.000
G1 X93.649 Y59.031 E28.76711 F540
G1 X95.676 Y57.565 E28.99461
G1 X99.217 Y56.724 E29.32550
G1 X133.067 Y56.724 E32.40350
G1 X135.537 Y57.122 E32.63100
G1 X138.635 Y59.031 E32.96189
G1 X141.235 Y61.631 E33.29623
G1 X142.701 Y63.658 E33.52373
G1 X143.542 Y67.199 E33.85462
G1 X143.542 Y132.801 E39.81981
G1 X143.144 Y135.271 E40.04731
G1 X141.235 Y138.369 E40.37820
G1 X138.635 Y140.969 E40.71254
G1 X136.608 Y142.435 E40.94004
G1 X133.067 Y143.276 E41.27093
G1 X99.217 Y143.276 E44.34893
G1 X96.047 Y142.610 E44.64342
G1 X61.013 Y127.206 E48.12336
G1 X58.912 Y125.848 E48.35086
G1 X57.343 Y123.900 E48.57836
G1 X56.464 Y121.557 E48.80586
G1 X56.308 Y119.998 E48.94836
G1 X56.308 Y100.689 E50.70407
G1 X56.706 Y98.219 E50.93157
G1 X58.526 Y95.211 E51.25128
G1 X91.012 Y61.668 E55.49725
G1 X91.490 Y62.073 F7800.000
G1 X94.090 Y59.473 E55.83159 F540
G1 X96.045 Y58.080 E56.04982
G1 X99.217 Y57.349 E56.34579
G1 X133.067 Y57.349 E59.42379
G1 X135.434 Y57.746 E59.64201
G1 X138.193 Y59.473 E59.93798
G1 X140.793 Y62.073 E60.27233
G1 X142.186 Y64.027 E60.49055
G1 X142.917 Y67.199 E60.78652
G1 X142.917 Y132.801 E66.75170
G1 X142.520 Y135.168 E66.96993
G1 X140.793 Y137.927 E67.26590
G1 X138.193 Y140.527 E67.60025
G1 X136.239 Y141.920 E67.81847
G1 X133.067 Y142.651 E68.11444
G1 X99.217 Y142.651 E71.19244
G1 X96.299 Y142.038 E71.46356
G1 X61.265 Y126.634 E74.94350
G1 X59.258 Y125.318 E75.16172
G1 X57.791 Y123.419 E75.37995
G1 X56.933 Y119.998 E75.70066
G1 X56.933 Y100.689 E77.45636
G1 X57.330 Y98.322 E77.67459
G1 X58.975 Y95.646 E77.96026
G1 X91.454 Y62.110 E82.20531
G1 X91.932 Y62.514 F7800.000
G1 X94.532 Y59.914 E82.53965 F540
G1 X96.410 Y58.598 E82.74819
G1 X99.217 Y57.974 E83.00962
G1 X133.067 Y57.974 E86.08762
G1 X135.326 Y58.371 E86.29616
G1 X137.752 Y59.914 E86.55759
G1 X140.352 Y62.514 E86.89194
G1 X141.668 Y64.392 E87.10048
G1 X142.292 Y67.199 E87.36191
G1 X142.292 Y132.801 E93.32709
G1 X141.895 Y135.060 E93.53563
G1 X140.352 Y137.486 E93.79706
G1 X137.752 Y140.086 E94.13140
G1 X135.874 Y141.402 E94.33994
G1 X133.067 Y142.026 E94.60137
G1 X99.217 Y142.026 E97.67937
G1 X96.550 Y141.466 E97.92713
G1 X61.516 Y126.062 E101.40706
G1 X59.608 Y124.790 E101.61560
G1 X58.249 Y122.943 E101.82414
G1 X57.558 Y119.998 E102.09921
G1 X57.558 Y100.689 E103.85491
G1 X57.955 Y98.430 E104.06346
G1 X59.424 Y96.080 E104.31545
G1 X91.896 Y62.552 E108.55960
G1 F1800.000 E107.55960
G92 E0
G1 X98.217 Y67.862 F7800.000
G1 E1.00000 F1800.000
G1 X99.879 Y66.199 E1.21383 F540
G1 X132.404 Y66.199 E4.17133
G1 X134.067 Y67.862 E4.38516
G1 X134.067 Y132.138 E10.22983
G1 X132.404 Y133.801 E10.44367
G1 X99.879 Y133.801 E13.40116
G1 X98.217 Y132.138 E13.61499
G1 X98.217 Y67.914 E19.45489
G1 X97.592 Y67.603 F7800.000
G1 X99.621 Y65.574 E19.71580 F540
G1 X132.663 Y65.574 E22.72036
G1 X134.692 Y67.603 E22.98127
G1 X134.692 Y132.397 E28.87301
G1 X132.663 Y134.426 E29.13392
G1 X99.621 Y134.426 E32.13848
G1 X97.592 Y132.397 E32.39939
G1 X97.592 Y67.655 E38.28636
G1 X96.967 Y67.344 F7800.000
G1 X99.362 Y64.949 E38.59434 F378
G1 X132.922 Y64.949 E41.64597
G1 X135.317 Y67.344 E41.95395
G1 X135.317 Y132.656 E47.89277
G1 X132.922 Y135.051 E48.20075
G1 X99.362 Y135.051 E51.25238
G1 X96.967 Y132.656 E51.56036
G1 X96.967 Y67.396 E57.49440
G1 X97.317 Y67.344 F7800.000
G1 F1800.000 E56.49440
G92 E0
G1 X91.296 Y104.582 F7800.000
G1 E1.00000 F1800.000
G1 X91.671 Y104.674 E1.03514 F540
G1 X92.021 Y104.838 E1.07029
G1 X92.332 Y105.067 E1.10543
G1 X92.593 Y105.352 E1.14057
G1 X92.793 Y105.683 E1.17572
G1 X92.925 Y106.046 E1.21086
G1 X92.984 Y106.428 E1.24601
G1 X92.966 Y106.814 E1.28115
G1 X92.874 Y107.189 E1.31628
G1 X92.710 Y107.539 E1.35143
G1 X92.481 Y107.851 E1.38657
G1 X92.196 Y108.112 E1.42172
G1 X91.866 Y108.312 E1.45686
G1 X91.502 Y108.444 E1.49201
G1 X91.120 Y108.502 E1.52715
G1 X90.734 Y108.485 E1.56229
G1 X90.359 Y108.392 E1.59743
G1 X90.009 Y108.229 E1.63257
G1 X89.697 Y108.000 E1.66772
G1 X89.436 Y107.715 E1.70286
G1 X89.236 Y107.384 E1.73800
G1 X89.105 Y107.021 E1.77315
G1 X89.046 Y106.638 E1.80829
G1 X89.063 Y106.252 E1.84343
G1 X89.156 Y105.877 E1.87858
G1 X89.319 Y105.527 E1.91372
G1 X89.548 Y105.216 E1.94887
G1 X89.834 Y104.955 E1.98401
G1 X90.164 Y104.755 E2.01915
G1 X90.528 Y104.623 E2.05429
G1 X90.910 Y104.564 E2.08943
G1 X91.244 Y104.576 E2.11982
G1 X91.258 Y103.948 F7800.000
G1 X91.758 Y104.045 E2.16610 F540
G1 X91.998 Y104.130 E2.18927
G1 X92.229 Y104.238 E2.21244
G1 X92.448 Y104.368 E2.23561
G1 X92.653 Y104.519 E2.25878
G1 X92.843 Y104.689 E2.28195
G1 X93.015 Y104.877 E2.30512
G1 X93.300 Y105.299 E2.35141
G1 X93.456 Y105.648 E2.38615
G1 X93.531 Y105.891 E2.40932
G1 X93.582 Y106.141 E2.43249
G1 X93.608 Y106.395 E2.45566
G1 X93.609 Y106.649 E2.47883
G1 X93.585 Y106.903 E2.50200
G1 X93.536 Y107.153 E2.52517
G1 X93.463 Y107.397 E2.54834
G1 X93.367 Y107.633 E2.57151
G1 X93.248 Y107.858 E2.59468
G1 X93.107 Y108.071 E2.61785
G1 X92.946 Y108.269 E2.64102
G1 X92.767 Y108.450 E2.66419
G1 X92.571 Y108.612 E2.68737
G1 X92.359 Y108.755 E2.71053
G1 X92.135 Y108.876 E2.73371
G1 X91.900 Y108.974 E2.75687
G1 X91.657 Y109.049 E2.78005
G1 X91.407 Y109.100 E2.80321
G1 X91.154 Y109.126 E2.82639
G1 X90.899 Y109.127 E2.84956
G1 X90.645 Y109.103 E2.87273
G1 X90.395 Y109.055 E2.89590
G1 X90.151 Y108.982 E2.91907
G1 X89.915 Y108.885 E2.94224
G1 X89.690 Y108.766 E2.96541
G1 X89.477 Y108.626 E2.98858
G1 X89.279 Y108.465 E3.01175
G1 X89.098 Y108.285 E3.03492
G1 X88.936 Y108.089 E3.05809
G1 X88.793 Y107.878 E3.08127
G1 X88.574 Y107.419 E3.12755
G1 X88.499 Y107.175 E3.15072
G1 X88.448 Y106.925 E3.17389
G1 X88.422 Y106.672 E3.19707
G1 X88.421 Y106.417 E3.22023
G1 X88.445 Y106.163 E3.24340
G1 X88.493 Y105.913 E3.26657
G1 X88.566 Y105.669 E3.28974
G1 X88.663 Y105.433 E3.31291
G1 X88.782 Y105.208 E3.33608
G1 X88.923 Y104.995 E3.35926
G1 X89.083 Y104.798 E3.38243
G1 X89.263 Y104.617 E3.40560
G1 X89.459 Y104.454 E3.42877
G1 X89.670 Y104.312 E3.45194
G1 X89.894 Y104.191 E3.47511
G1 X90.129 Y104.092 E3.49828
G1 X90.373 Y104.017 E3.52145
G1 X90.623 Y103.966 E3.54462
G1 X90.876 Y103.940 E3.56779
G1 X91.206 Y103.944 E3.59776
G1 X91.317 Y103.326 F7800.000
G1 X91.630 Y103.371 E3.62651 F540
G1 X91.937 Y103.446 E3.65526
G1 X92.235 Y103.551 E3.68401
G1 X92.521 Y103.685 E3.71276
G1 X92.923 Y103.937 E3.75586
G1 X93.168 Y104.137 E3.78460
G1 X93.393 Y104.359 E3.81335
G1 X93.594 Y104.603 E3.84210
G1 X93.771 Y104.865 E3.87085
G1 X93.921 Y105.143 E3.89960
G1 X94.043 Y105.435 E3.92835
G1 X94.137 Y105.737 E3.95709
G1 X94.200 Y106.047 E3.98584
G1 X94.232 Y106.361 E4.01459
G1 X94.233 Y106.677 E4.04334
G1 X94.204 Y106.992 E4.07209
G1 X94.143 Y107.302 E4.10084
G1 X94.053 Y107.605 E4.12958
G1 X93.933 Y107.898 E4.15833
G1 X93.785 Y108.177 E4.18708
G1 X93.611 Y108.441 E4.21583
G1 X93.411 Y108.686 E4.24458
G1 X93.189 Y108.911 E4.27333
G1 X92.945 Y109.113 E4.30207
G1 X92.683 Y109.289 E4.33082
G1 X92.405 Y109.440 E4.35957
G1 X92.113 Y109.562 E4.38832
G1 X91.811 Y109.655 E4.41707
G1 X91.501 Y109.718 E4.44581
G1 X91.187 Y109.750 E4.47456
G1 X90.871 Y109.752 E4.50331
G1 X90.556 Y109.722 E4.53206
G1 X90.246 Y109.662 E4.56081
G1 X89.943 Y109.571 E4.58956
G1 X89.650 Y109.452 E4.61830
G1 X89.371 Y109.304 E4.64705
G1 X89.107 Y109.129 E4.67580
G1 X88.862 Y108.930 E4.70455
G1 X88.637 Y108.707 E4.73330
G1 X88.436 Y108.464 E4.76205
G1 X88.259 Y108.201 E4.79080
G1 X88.109 Y107.923 E4.81954
G1 X87.986 Y107.632 E4.84829
G1 X87.893 Y107.330 E4.87704
G1 X87.830 Y107.020 E4.90579
G1 X87.798 Y106.705 E4.93454
G1 X87.796 Y106.389 E4.96329
G1 X87.826 Y106.074 E4.99204
G1 X87.886 Y105.764 E5.02078
G1 X87.977 Y105.461 E5.04953
G1 X88.097 Y105.168 E5.07828
G1 X88.244 Y104.889 E5.10703
G1 X88.419 Y104.625 E5.13578
G1 X88.618 Y104.380 E5.16453
G1 X88.841 Y104.155 E5.19328
G1 X89.084 Y103.954 E5.22202
G1 X89.347 Y103.777 E5.25077
G1 X89.625 Y103.627 E5.27952
G1 X89.916 Y103.505 E5.30827
G1 X90.218 Y103.412 E5.33702
G1 X90.528 Y103.348 E5.36576
G1 X90.843 Y103.316 E5.39451
G1 X91.264 Y103.322 E5.43285
G1 X91.446 Y103.614 F7800.000
G1 F1800.000 E4.43285
G92 E0
G1 X90.385 Y119.066 F7800.000
G1 E1.00000 F1800.000
G1 X90.704 Y119.119 E1.02940 F540
G1 X91.010 Y119.224 E1.05879
G1 X91.294 Y119.378 E1.08819
G1 X91.549 Y119.576 E1.11758
G1 X91.768 Y119.814 E1.14698
G1 X91.945 Y120.085 E1.17637
G1 X92.075 Y120.381 E1.20577
G1 X92.154 Y120.694 E1.23516
G1 X92.181 Y121.017 E1.26456
G1 X92.154 Y121.339 E1.29395
G1 X92.075 Y121.652 E1.32335
G1 X91.945 Y121.948 E1.35274
G1 X91.768 Y122.219 E1.38214
G1 X91.549 Y122.457 E1.41153
G1 X91.294 Y122.655 E1.44094
G1 X91.010 Y122.809 E1.47032
G1 X90.704 Y122.914 E1.49971
G1 X90.385 Y122.967 E1.52912
G1 X90.062 Y122.967 E1.55851
G1 X89.743 Y122.914 E1.58791
G1 X89.438 Y122.809 E1.61730
G1 X89.153 Y122.655 E1.64671
G1 X88.898 Y122.457 E1.67608
G1 X88.679 Y122.219 E1.70546
G1 X88.502 Y121.948 E1.73489
G1 X88.372 Y121.652 E1.76428
G1 X88.293 Y121.339 E1.79367
G1 X88.266 Y121.017 E1.82307
G1 X88.293 Y120.694 E1.85246
G1 X88.372 Y120.381 E1.88186
G1 X88.502 Y120.085 E1.91125
G1 X88.679 Y119.814 E1.94065
G1 X88.898 Y119.576 E1.97005
G1 X89.153 Y119.378 E1.99944
G1 X89.438 Y119.224 E2.02884
G1 X89.743 Y119.119 E2.05823
G1 X90.062 Y119.066 E2.08763
G1 X90.333 Y119.066 E2.11225
G1 X90.437 Y118.441 F7800.000
G1 X90.858 Y118.511 E2.15106 F540
G1 X91.262 Y118.650 E2.18987
G1 X91.637 Y118.853 E2.22868
G1 X91.974 Y119.115 E2.26750
G1 X92.263 Y119.429 E2.30631
G1 X92.497 Y119.787 E2.34512
G1 X92.668 Y120.177 E2.38393
G1 X92.773 Y120.591 E2.42274
G1 X92.808 Y121.017 E2.46156
G1 X92.773 Y121.442 E2.50037
G1 X92.668 Y121.856 E2.53918
G1 X92.497 Y122.247 E2.57799
G1 X92.263 Y122.604 E2.61680
G1 X91.974 Y122.918 E2.65561
G1 X91.637 Y123.180 E2.69443
G1 X91.262 Y123.383 E2.73323
G1 X90.858 Y123.522 E2.77204
G1 X90.437 Y123.592 E2.81087
G1 X90.010 Y123.592 E2.84968
G1 X89.589 Y123.522 E2.88849
G1 X89.186 Y123.383 E2.92730
G1 X88.810 Y123.180 E2.96611
G1 X88.473 Y122.918 E3.00491
G1 X88.184 Y122.604 E3.04372
G1 X87.951 Y122.247 E3.08255
G1 X87.779 Y121.856 E3.12136
G1 X87.675 Y121.442 E3.16017
G1 X87.639 Y121.017 E3.19898
G1 X87.675 Y120.591 E3.23779
G1 X87.779 Y120.177 E3.27661
G1 X87.951 Y119.787 E3.31542
G1 X88.184 Y119.429 E3.35423
G1 X88.473 Y119.115 E3.39304
G1 X88.810 Y118.853 E3.43185
G1 X89.186 Y118.650 E3.47067
G1 X89.589 Y118.511 E3.50948
G1 X90.010 Y118.441 E3.54829
G1 X90.385 Y118.441 E3.58233
G1 X90.489 Y117.816 F7800.000
G1 X91.012 Y117.903 E3.63056 F540
G1 X91.514 Y118.076 E3.67878
G1 X91.980 Y118.328 E3.72701
G1 X92.399 Y118.654 E3.77524
G1 X92.758 Y119.044 E3.82347
G1 X93.048 Y119.488 E3.87170
G1 X93.261 Y119.974 E3.91993
G1 X93.391 Y120.488 E3.96816
G1 X93.435 Y121.017 E4.01638
G1 X93.391 Y121.545 E4.06461
G1 X93.261 Y122.059 E4.11284
G1 X93.048 Y122.545 E4.16107
G1 X92.758 Y122.989 E4.20930
G1 X92.399 Y123.379 E4.25753
G1 X91.980 Y123.705 E4.30575
G1 X91.514 Y123.958 E4.35397
G1 X91.012 Y124.130 E4.40221
G1 X90.489 Y124.217 E4.45044
G1 X89.959 Y124.217 E4.49867
G1 X89.435 Y124.130 E4.54690
G1 X88.934 Y123.957 E4.59513
G1 X88.467 Y123.705 E4.64335
G1 X88.049 Y123.380 E4.69156
G1 X87.690 Y122.989 E4.73981
G1 X87.399 Y122.545 E4.78804
G1 X87.186 Y122.059 E4.83627
G1 X87.056 Y121.545 E4.88450
G1 X87.012 Y121.017 E4.93273
G1 X87.056 Y120.488 E4.98096
G1 X87.186 Y119.974 E5.02918
G1 X87.399 Y119.488 E5.07741
G1 X87.690 Y119.044 E5.12564
G1 X88.049 Y118.654 E5.17387
G1 X88.467 Y118.328 E5.22210
G1 X88.934 Y118.076 E5.27033
G1 X89.435 Y117.903 E5.31856
G1 X89.959 Y117.816 E5.36678
G1 X90.436 Y117.816 E5.41024
G1 X90.630 Y118.137 F7800.000
G1 F1800.000 E4.41024
G92 E0
G1 X82.468 Y119.023 F7800.000
G1 E1.00000 F1800.000
G1 X81.416 Y119.023 E1.09563 F540
G1 X81.416 Y101.664 E2.67404
G1 X82.468 Y101.664 E2.76967
G1 X82.468 Y118.970 E4.34331
G1 X83.092 Y119.648 F7800.000
G1 X80.791 Y119.648 E4.55258 F378
G1 X80.791 Y101.039 E6.24463
G1 X83.092 Y101.039 E6.45390
G1 X83.092 Y119.595 E8.14118
G1 X82.789 Y119.473 F7800.000
G1 F1800.000 E7.14118
G92 E0
G1 X66.209 Y119.023 F7800.000
G1 E1.00000 F1800.000
G1 X65.158 Y119.023 E1.09563 F540
G1 X65.158 Y101.664 E2.67404
G1 X66.209 Y101.664 E2.76967
G1 X66.209 Y118.970 E4.34331
G1 X66.834 Y119.648 F7800.000
G1 X64.533 Y119.648 E4.55257 F378
G1 X64.533 Y101.039 E6.24463
G1 X66.834 Y101.039 E6.45390
G1 X66.834 Y119.595 E8.14118
G1 X66.531 Y119.473 F7800.000
G1 F1800.000 E7.14118
G92 E0
G1 X100.087 Y133.368 F7800.000
G1 E1.00000 F1800.000
G1 X98.650 Y131.931 E1.11866 F1080
G1 X98.650 Y131.040 E1.17063
G1 X100.978 Y133.368 E1.36280
G1 X101.868 Y133.368 E1.41477
G1 X98.650 Y130.150 E1.68044
G1 X98.650 Y129.259 E1.73242
G1 X102.759 Y133.368 E2.07159
G1 X103.649 Y133.368 E2.12357
G1 X98.650 Y128.369 E2.53625
G1 X98.650 Y127.478 E2.58823
G1 X104.540 Y133.368 E3.07442
G1 X105.430 Y133.368 E3.12639
G1 X98.650 Y126.588 E3.68609
G1 X98.650 Y125.697 E3.73806
G1 X106.321 Y133.368 E4.37126
G1 X107.211 Y133.368 E4.42324
G1 X98.650 Y124.807 E5.12995
G1 X98.650 Y123.916 E5.18192
G1 X108.102 Y133.368 E5.96214
G1 X108.992 Y133.368 E6.01411
G1 X98.650 Y123.026 E6.86783
G1 X98.650 Y122.135 E6.91981
G1 X109.883 Y133.368 E7.84703
G1 X110.773 Y133.368 E7.89901
G1 X98.650 Y121.245 E8.89974
G1 X98.650 Y120.354 E8.95172
G1 X111.664 Y133.368 E10.02596
G1 X112.554 Y133.368 E10.07793
G1 X98.650 Y119.464 E11.22568
G1 X98.650 Y118.573 E11.27765
G1 X113.445 Y133.368 E12.49890
G1 X114.335 Y133.368 E12.55088
G1 X98.650 Y117.683 E13.84564
G1 X98.650 Y116.792 E13.89761
G1 X115.226 Y133.368 E15.26588
G1 X116.116 Y133.368 E15.31785
G1 X98.650 Y115.902 E16.75962
G1 X98.650 Y115.011 E16.81160
G1 X117.007 Y133.368 E18.32688
G1 X117.897 Y133.368 E18.37885
G1 X98.650 Y114.121 E19.96763
G1 X98.650 Y113.230 E20.01961
G1 X118.788 Y133.368 E21.68190
G1 X119.678 Y133.368 E21.73387
G1 X98.650 Y112.340 E23.46967
G1 X98.650 Y111.449 E23.52165
G1 X120.569 Y133.368 E25.33095
G1 X121.459 Y133.368 E25.38292
G1 X98.650 Y110.559 E27.26573
G1 X98.650 Y109.668 E27.31771
G1 X122.350 Y133.368 E29.27402
G1 X123.240 Y133.368 E29.32599
G1 X98.650 Y108.778 E31.35581
G1 X98.650 Y107.887 E31.40779
G1 X124.131 Y133.368 E33.51112
G1 X125.021 Y133.368 E33.56309
G1 X98.650 Y106.997 E35.73992
G1 X98.650 Y106.106 E35.79190
G1 X125.912 Y133.368 E38.04224
G1 X126.802 Y133.368 E38.09422
G1 X98.650 Y105.216 E40.41806
G1 X98.650 Y104.325 E40.47004
G1 X127.693 Y133.368 E42.86739
G1 X128.583 Y133.368 E42.91936
G1 X98.650 Y103.435 E45.39022
G1 X98.650 Y102.544 E45.44220
G1 X129.474 Y133.368 E47.98656
G1 X130.364 Y133.368 E48.03854
G1 X98.650 Y101.654 E50.65640
G1 X98.650 Y100.763 E50.70838
G1 X131.255 Y133.368 E53.39976
G1 X132.145 Y133.368 E53.45173
