; generated by Slic3r 1.1.0 on 2014-04-08 at 20:31:57

; perimeters extrusion width = 0.35mm
; infill extrusion width = 0.39mm
; solid infill extrusion width = 0.39mm
; top infill extrusion width = 0.39mm

G21 ; set units to millimeters
M107
M104 S220 ; set temperature
G28 ; home all axes
G1 Z5 F5000 ; lift nozzle

M109 S220 ; wait for temperature to be reached
G90 ; use absolute coordinates
G92 E0
M82 ; use absolute distances for extrusion
G1 F1800.000 E-1.00000
G92 E0
G1 Z0.350 F7800.000
G1 X116.081 Y58.120 F7800.000
G1 E1.00000 F1800.000
G1 X117.237 Y55.791 E1.23641 F540
G1 X118.077 Y54.776 E1.35623
G1 X150.607 Y21.189 E5.60787
G1 X153.207 Y18.589 E5.94222
G1 X155.305 Y17.053 E6.17863
G1 X157.769 Y16.224 E6.41504
G1 X159.217 Y16.099 E6.54720
G1 X193.067 Y16.099 E9.62519
G1 X195.636 Y16.497 E9.86161
G1 X197.965 Y17.653 E10.09802
G1 X199.077 Y18.589 E10.23017
G1 X201.677 Y21.189 E10.56452
G1 X203.213 Y23.287 E10.80093
G1 X204.042 Y25.751 E11.03734
G1 X204.167 Y27.199 E11.16950
G1 X204.167 Y92.801 E17.13468
G1 X203.769 Y95.370 E17.37109
G1 X202.613 Y97.699 E17.60750
G1 X201.677 Y98.811 E17.73966
G1 X199.077 Y101.411 E18.07400
G1 X196.979 Y102.947 E18.31041
G1 X194.515 Y103.776 E18.54682
G1 X193.067 Y103.901 E18.67898
G1 X159.217 Y103.901 E21.75698
G1 X155.796 Y103.182 E22.07484
G1 X120.762 Y87.778 E25.55477
G1 X118.570 Y86.380 E25.79118
G1 X116.903 Y84.385 E26.02759
G1 X115.917 Y81.979 E26.26401
G1 X115.683 Y79.998 E26.44542
G1 X115.683 Y60.689 E28.20113
G1 X116.073 Y58.172 E28.43276
G1 X116.706 Y58.219 F7800.000
G1 X118.526 Y55.211 E28.75248 F540
G1 X151.049 Y21.631 E33.00322
G1 X153.649 Y19.031 E33.33756
G1 X155.676 Y17.565 E33.56506
G1 X159.217 Y16.724 E33.89595
G1 X193.067 Y16.724 E36.97395
G1 X195.537 Y17.122 E37.20145
G1 X198.635 Y19.031 E37.53234
G1 X201.235 Y21.631 E37.86669
G1 X202.701 Y23.658 E38.09419
G1 X203.542 Y27.199 E38.42508
G1 X203.542 Y92.801 E44.39026
G1 X203.144 Y95.271 E44.61776
G1 X201.235 Y98.369 E44.94865
G1 X198.635 Y100.969 E45.28299
G1 X196.608 Y102.435 E45.51049
G1 X193.067 Y103.276 E45.84139
G1 X159.217 Y103.276 E48.91938
G1 X156.047 Y102.610 E49.21388
G1 X121.013 Y87.206 E52.69381
G1 X118.912 Y85.848 E52.92131
G1 X117.343 Y83.900 E53.14881
G1 X116.464 Y81.557 E53.37631
G1 X116.308 Y79.998 E53.51881
G1 X116.308 Y60.689 E55.27452
G1 X116.697 Y58.271 E55.49725
G1 X117.330 Y58.322 F7800.000
G1 X118.975 Y55.646 E55.78291 F540
G1 X151.490 Y22.073 E60.03274
G1 X154.090 Y19.473 E60.36708
G1 X156.045 Y18.080 E60.58531
G1 X159.217 Y17.349 E60.88128
G1 X193.067 Y17.349 E63.95928
G1 X195.434 Y17.746 E64.17751
G1 X198.193 Y19.473 E64.47347
G1 X200.793 Y22.073 E64.80782
G1 X202.186 Y24.027 E65.02605
G1 X202.917 Y27.199 E65.32201
G1 X202.917 Y92.801 E71.28720
G1 X202.520 Y95.168 E71.50542
G1 X200.793 Y97.927 E71.80139
G1 X198.193 Y100.527 E72.13574
G1 X196.239 Y101.920 E72.35396
G1 X193.067 Y102.651 E72.64993
G1 X159.217 Y102.651 E75.72793
G1 X156.299 Y102.038 E75.99906
G1 X121.265 Y86.634 E79.47899
G1 X119.258 Y85.318 E79.69722
G1 X117.791 Y83.419 E79.91544
G1 X116.933 Y79.998 E80.23615
G1 X116.933 Y60.689 E81.99185
G1 X117.322 Y58.374 E82.20531
G1 X117.955 Y58.430 F7800.000
G1 X119.424 Y56.080 E82.45730 F540
G1 X151.932 Y22.514 E86.70622
G1 X154.532 Y19.914 E87.04056
G1 X156.410 Y18.598 E87.24911
G1 X159.217 Y17.974 E87.51053
G1 X193.067 Y17.974 E90.58853
G1 X195.326 Y18.371 E90.79708
G1 X197.752 Y19.914 E91.05850
G1 X200.352 Y22.514 E91.39285
G1 X201.668 Y24.392 E91.60139
G1 X202.292 Y27.199 E91.86282
G1 X202.292 Y92.801 E97.82800
G1 X201.895 Y95.060 E98.03654
G1 X200.352 Y97.486 E98.29797
G1 X197.752 Y100.086 E98.63231
G1 X195.874 Y101.402 E98.84086
G1 X193.067 Y102.026 E99.10228
G1 X159.217 Y102.026 E102.18028
G1 X156.550 Y101.466 E102.42804
G1 X121.516 Y86.062 E105.90797
G1 X119.608 Y84.790 E106.11651
G1 X118.249 Y82.943 E106.32505
G1 X117.558 Y79.998 E106.60012
G1 X117.558 Y60.689 E108.35583
G1 X117.946 Y58.482 E108.55960
G1 F1800.000 E107.55960
G92 E0
G1 X158.217 Y27.862 F7800.000
G1 E1.00000 F1800.000
G1 X159.879 Y26.199 E1.21383 F540
G1 X192.404 Y26.199 E4.17133
G1 X194.067 Y27.862 E4.38516
G1 X194.067 Y92.138 E10.22983
G1 X192.404 Y93.801 E10.44367
G1 X159.879 Y93.801 E13.40116
G1 X158.217 Y92.138 E13.61499
G1 X158.217 Y27.914 E19.45489
G1 X157.592 Y27.603 F7800.000
G1 X159.621 Y25.574 E19.71580 F540
G1 X192.663 Y25.574 E22.72036
G1 X194.692 Y27.603 E22.98127
G1 X194.692 Y92.397 E28.87301
G1 X192.663 Y94.426 E29.13392
G1 X159.621 Y94.426 E32.13848
G1 X157.592 Y92.397 E32.39939
G1 X157.592 Y27.655 E38.28636
G1 X156.967 Y27.344 F7800.000
G1 X159.362 Y24.949 E38.59434 F378
G1 X192.922 Y24.949 E41.64597
G1 X195.317 Y27.344 E41.95395
G1 X195.317 Y92.656 E47.89277
G1 X192.922 Y95.051 E48.20075
G1 X159.362 Y95.051 E51.25238
G1 X156.967 Y92.656 E51.56036
G1 X156.967 Y27.396 E57.49440
G1 X157.317 Y27.344 F7800.000
G1 F1800.000 E56.49440
G92 E0
G1 X151.296 Y64.582 F7800.000
G1 E1.00000 F1800.000
G1 X151.671 Y64.674 E1.03514 F540
G1 X152.021 Y64.838 E1.07029
G1 X152.332 Y65.067 E1.10543
G1 X152.593 Y65.352 E1.14057
G1 X152.793 Y65.683 E1.17572
G1 X152.925 Y66.046 E1.21086
G1 X152.984 Y66.428 E1.24601
G1 X152.966 Y66.814 E1.28115
G1 X152.874 Y67.189 E1.31628
G1 X152.710 Y67.539 E1.35143
G1 X152.481 Y67.851 E1.38657
G1 X152.196 Y68.112 E1.42172
G1 X151.866 Y68.312 E1.45686
G1 X151.502 Y68.444 E1.49201
G1 X151.120 Y68.502 E1.52715
G1 X150.734 Y68.485 E1.56229
G1 X150.359 Y68.392 E1.59743
G1 X150.009 Y68.229 E1.63257
G1 X149.697 Y68.000 E1.66772
G1 X149.436 Y67.715 E1.70286
G1 X149.236 Y67.384 E1.73800
G1 X149.105 Y67.021 E1.77315
G1 X149.046 Y66.638 E1.80829
G1 X149.063 Y66.252 E1.84343
G1 X149.156 Y65.877 E1.87858
G1 X149.319 Y65.527 E1.91372
G1 X149.548 Y65.216 E1.94887
G1 X149.834 Y64.955 E1.98401
G1 X150.164 Y64.755 E2.01915
G1 X150.528 Y64.623 E2.05429
G1 X150.910 Y64.564 E2.08943
G1 X151.244 Y64.576 E2.11982
G1 X151.258 Y63.948 F7800.000
G1 X151.758 Y64.045 E2.16610 F540
G1 X151.998 Y64.130 E2.18927
G1 X152.229 Y64.238 E2.21244
G1 X152.448 Y64.368 E2.23561
G1 X152.653 Y64.519 E2.25878
G1 X152.843 Y64.689 E2.28195
G1 X153.015 Y64.877 E2.30512
G1 X153.300 Y65.299 E2.35141
G1 X153.456 Y65.648 E2.38615
G1 X153.531 Y65.891 E2.40932
G1 X153.582 Y66.141 E2.43249
G1 X153.608 Y66.395 E2.45566
G1 X153.609 Y66.649 E2.47883
G1 X153.585 Y66.903 E2.50200
G1 X153.536 Y67.153 E2.52517
G1 X153.463 Y67.397 E2.54834
G1 X153.367 Y67.633 E2.57151
G1 X153.248 Y67.858 E2.59468
G1 X153.107 Y68.071 E2.61785
G1 X152.946 Y68.269 E2.64102
G1 X152.767 Y68.450 E2.66419
G1 X152.571 Y68.612 E2.68737
G1 X152.359 Y68.755 E2.71053
G1 X152.135 Y68.876 E2.73371
G1 X151.900 Y68.974 E2.75687
G1 X151.657 Y69.049 E2.78005
G1 X151.407 Y69.100 E2.80321
G1 X151.154 Y69.126 E2.82639
G1 X150.899 Y69.127 E2.84956
G1 X150.645 Y69.103 E2.87273
G1 X150.395 Y69.055 E2.89590
G1 X150.151 Y68.982 E2.91907
G1 X149.915 Y68.885 E2.94224
G1 X149.690 Y68.766 E2.96541
G1 X149.477 Y68.626 E2.98858
G1 X149.279 Y68.465 E3.01175
G1 X149.098 Y68.285 E3.03492
G1 X148.936 Y68.089 E3.05809
G1 X148.793 Y67.878 E3.08127
G1 X148.574 Y67.419 E3.12755
G1 X148.499 Y67.175 E3.15072
G1 X148.448 Y66.925 E3.17389
G1 X148.422 Y66.672 E3.19707
G1 X148.421 Y66.417 E3.22023
G1 X148.445 Y66.163 E3.24340
G1 X148.493 Y65.913 E3.26657
G1 X148.566 Y65.669 E3.28974
G1 X148.663 Y65.433 E3.31291
G1 X148.782 Y65.208 E3.33608
G1 X148.923 Y64.995 E3.35926
G1 X149.083 Y64.798 E3.38243
G1 X149.263 Y64.617 E3.40560
G1 X149.459 Y64.454 E3.42877
G1 X149.670 Y64.312 E3.45194
G1 X149.894 Y64.191 E3.47511
G1 X150.129 Y64.092 E3.49828
G1 X150.373 Y64.017 E3.52145
G1 X150.623 Y63.966 E3.54462
G1 X150.876 Y63.940 E3.56779
G1 X151.206 Y63.944 E3.59776
G1 X151.317 Y63.326 F7800.000
G1 X151.630 Y63.371 E3.62651 F540
G1 X151.937 Y63.446 E3.65526
G1 X152.235 Y63.551 E3.68401
G1 X152.521 Y63.685 E3.71276
G1 X152.923 Y63.937 E3.75586
G1 X153.168 Y64.137 E3.78460
G1 X153.393 Y64.359 E3.81335
G1 X153.594 Y64.603 E3.84210
G1 X153.771 Y64.865 E3.87085
G1 X153.921 Y65.143 E3.89960
G1 X154.043 Y65.435 E3.92835
G1 X154.137 Y65.737 E3.95709
G1 X154.200 Y66.047 E3.98584
G1 X154.232 Y66.361 E4.01459
G1 X154.233 Y66.677 E4.04334
G1 X154.204 Y66.992 E4.07209
G1 X154.143 Y67.302 E4.10084
G1 X154.053 Y67.605 E4.12958
G1 X153.933 Y67.898 E4.15833
G1 X153.785 Y68.177 E4.18708
G1 X153.611 Y68.441 E4.21583
G1 X153.411 Y68.686 E4.24458
G1 X153.189 Y68.911 E4.27333
G1 X152.945 Y69.113 E4.30207
G1 X152.683 Y69.289 E4.33082
G1 X152.405 Y69.440 E4.35957
G1 X152.113 Y69.562 E4.38832
G1 X151.811 Y69.655 E4.41707
G1 X151.501 Y69.718 E4.44581
G1 X151.187 Y69.750 E4.47456
G1 X150.871 Y69.752 E4.50331
G1 X150.556 Y69.722 E4.53206
G1 X150.246 Y69.662 E4.56081
G1 X149.943 Y69.571 E4.58956
G1 X149.650 Y69.452 E4.61830
G1 X149.371 Y69.304 E4.64705
G1 X149.107 Y69.129 E4.67580
G1 X148.862 Y68.930 E4.70455
G1 X148.637 Y68.707 E4.73330
G1 X148.436 Y68.464 E4.76205
G1 X148.259 Y68.201 E4.79080
G1 X148.109 Y67.923 E4.81954
G1 X147.986 Y67.632 E4.84829
G1 X147.893 Y67.330 E4.87704
G1 X147.830 Y67.020 E4.90579
G1 X147.798 Y66.705 E4.93454
G1 X147.796 Y66.389 E4.96329
G1 X147.826 Y66.074 E4.99204
G1 X147.886 Y65.764 E5.02078
G1 X147.977 Y65.461 E5.04953
G1 X148.097 Y65.168 E5.07828
G1 X148.244 Y64.889 E5.10703
G1 X148.419 Y64.625 E5.13578
G1 X148.618 Y64.380 E5.16453
G1 X148.841 Y64.155 E5.19328
G1 X149.084 Y63.954 E5.22202
G1 X149.347 Y63.777 E5.25077
G1 X149.625 Y63.627 E5.27952
G1 X149.916 Y63.505 E5.30827
G1 X150.218 Y63.412 E5.33702
G1 X150.528 Y63.348 E5.36576
G1 X150.843 Y63.316 E5.39451
G1 X151.264 Y63.322 E5.43285
G1 X151.446 Y63.614 F7800.000
G1 F1800.000 E4.43285
G92 E0
G1 X150.385 Y79.066 F7800.000
G1 E1.00000 F1800.000
G1 X150.704 Y79.119 E1.02940 F540
G1 X151.010 Y79.224 E1.05879
G1 X151.294 Y79.378 E1.08819
G1 X151.549 Y79.576 E1.11758
G1 X151.768 Y79.814 E1.14698
G1 X151.945 Y80.085 E1.17637
G1 X152.075 Y80.381 E1.20577
G1 X152.154 Y80.694 E1.23516
G1 X152.181 Y81.017 E1.26456
G1 X152.154 Y81.339 E1.29395
G1 X152.075 Y81.652 E1.32335
G1 X151.945 Y81.948 E1.35274
G1 X151.768 Y82.219 E1.38214
G1 X151.549 Y82.457 E1.41153
G1 X151.294 Y82.655 E1.44094
G1 X151.010 Y82.809 E1.47032
G1 X150.704 Y82.914 E1.49971
G1 X150.385 Y82.967 E1.52912
G1 X150.062 Y82.967 E1.55851
G1 X149.743 Y82.914 E1.58791
G1 X149.438 Y82.809 E1.61730
G1 X149.153 Y82.655 E1.64671
G1 X148.898 Y82.457 E1.67608
G1 X148.679 Y82.219 E1.70546
G1 X148.502 Y81.948 E1.73489
G1 X148.372 Y81.652 E1.76428
G1 X148.293 Y81.339 E1.79367
G1 X148.266 Y81.017 E1.82307
G1 X148.293 Y80.694 E1.85246
G1 X148.372 Y80.381 E1.88186
G1 X148.502 Y80.085 E1.91125
G1 X148.679 Y79.814 E1.94065
G1 X148.898 Y79.576 E1.97005
G1 X149.153 Y79.378 E1.99944
G1 X149.438 Y79.224 E2.02884
G1 X149.743 Y79.119 E2.05823
G1 X150.062 Y79.066 E2.08763
G1 X150.333 Y79.066 E2.11225
G1 X150.437 Y78.441 F7800.000
G1 X150.858 Y78.511 E2.15106 F540
G1 X151.262 Y78.650 E2.18987
G1 X151.637 Y78.853 E2.22868
G1 X151.974 Y79.115 E2.26750
G1 X152.263 Y79.429 E2.30631
G1 X152.497 Y79.787 E2.34512
G1 X152.668 Y80.177 E2.38393
G1 X152.773 Y80.591 E2.42274
G1 X152.808 Y81.017 E2.46156
G1 X152.773 Y81.442 E2.50037
G1 X152.668 Y81.856 E2.53918
G1 X152.497 Y82.247 E2.57799
G1 X152.263 Y82.604 E2.61680
G1 X151.974 Y82.918 E2.65561
G1 X151.637 Y83.180 E2.69443
G1 X151.262 Y83.383 E2.73323
G1 X150.858 Y83.522 E2.77204
G1 X150.437 Y83.592 E2.81087
G1 X150.010 Y83.592 E2.84968
G1 X149.589 Y83.522 E2.88849
G1 X149.186 Y83.383 E2.92730
G1 X148.810 Y83.180 E2.96611
G1 X148.473 Y82.918 E3.00491
G1 X148.184 Y82.604 E3.04372
G1 X147.951 Y82.247 E3.08255
G1 X147.779 Y81.856 E3.12136
G1 X147.675 Y81.442 E3.16017
G1 X147.639 Y81.017 E3.19898
G1 X147.675 Y80.591 E3.23779
G1 X147.779 Y80.177 E3.27661
G1 X147.951 Y79.787 E3.31542
G1 X148.184 Y79.429 E3.35423
G1 X148.473 Y79.115 E3.39304
G1 X148.810 Y78.853 E3.43185
G1 X149.186 Y78.650 E3.47067
G1 X149.589 Y78.511 E3.50948
G1 X150.010 Y78.441 E3.54829
G1 X150.385 Y78.441 E3.58233
G1 X150.489 Y77.816 F7800.000
G1 X151.012 Y77.903 E3.63056 F540
G1 X151.514 Y78.076 E3.67878
G1 X151.980 Y78.328 E3.72701
G1 X152.399 Y78.654 E3.77524
G1 X152.758 Y79.044 E3.82347
G1 X153.048 Y79.488 E3.87170
G1 X153.261 Y79.974 E3.91993
G1 X153.391 Y80.488 E3.96816
G1 X153.435 Y81.017 E4.01638
G1 X153.391 Y81.545 E4.06461
G1 X153.261 Y82.059 E4.11284
G1 X153.048 Y82.545 E4.16107
G1 X152.758 Y82.989 E4.20930
G1 X152.399 Y83.379 E4.25753
G1 X151.980 Y83.705 E4.30575
G1 X151.514 Y83.958 E4.35397
G1 X151.012 Y84.130 E4.40221
G1 X150.489 Y84.217 E4.45044
G1 X149.959 Y84.217 E4.49867
G1 X149.435 Y84.130 E4.54690
G1 X148.934 Y83.957 E4.59513
G1 X148.467 Y83.705 E4.64335
G1 X148.049 Y83.380 E4.69156
G1 X147.690 Y82.989 E4.73981
G1 X147.399 Y82.545 E4.78804
G1 X147.186 Y82.059 E4.83627
G1 X147.056 Y81.545 E4.88450
G1 X147.012 Y81.017 E4.93273
G1 X147.056 Y80.488 E4.98096
G1 X147.186 Y79.974 E5.02918
G1 X147.399 Y79.488 E5.07741
G1 X147.690 Y79.044 E5.12564
G1 X148.049 Y78.654 E5.17387
G1 X148.467 Y78.328 E5.22210
G1 X148.934 Y78.076 E5.27033
G1 X149.435 Y77.903 E5.31856
G1 X149.959 Y77.816 E5.36678
G1 X150.436 Y77.816 E5.41024
G1 X150.630 Y78.137 F7800.000
G1 F1800.000 E4.41024
G92 E0
G1 X142.468 Y79.023 F7800.000
G1 E1.00000 F1800.000
G1 X141.416 Y79.023 E1.09563 F540
G1 X141.416 Y61.664 E2.67404
G1 X142.468 Y61.664 E2.76967
G1 X142.468 Y78.970 E4.34331
G1 X143.092 Y79.648 F7800.000
G1 X140.791 Y79.648 E4.55258 F378
G1 X140.791 Y61.039 E6.24463
G1 X143.092 Y61.039 E6.45390
G1 X143.092 Y79.595 E8.14118
G1 X142.789 Y79.473 F7800.000
G1 F1800.000 E7.14118
G92 E0
G1 X126.209 Y79.023 F7800.000
G1 E1.00000 F1800.000
G1 X125.158 Y79.023 E1.09563 F540
G1 X125.158 Y61.664 E2.67404
G1 X126.209 Y61.664 E2.76967
G1 X126.209 Y78.970 E4.34331
G1 X126.834 Y79.648 F7800.000
G1 X124.533 Y79.648 E4.55257 F378
G1 X124.533 Y61.039 E6.24463
G1 X126.834 Y61.039 E6.45390
G1 X126.834 Y79.595 E8.14118
G1 X126.531 Y79.473 F7800.000
G1 F1800.000 E7.14118
G92 E0
G1 X160.087 Y93.368 F7800.000
G1 E1.00000 F1800.000
G1 X158.650 Y91.931 E1.11866 F1080
G1 X158.650 Y91.040 E1.17063
G1 X160.978 Y93.368 E1.36280
G1 X161.868 Y93.368 E1.41477
G1 X158.650 Y90.150 E1.68044
G1 X158.650 Y89.259 E1.73242
G1 X162.759 Y93.368 E2.07159
G1 X163.649 Y93.368 E2.12357
G1 X158.650 Y88.369 E2.53625
G1 X158.650 Y87.478 E2.58823
G1 X164.540 Y93.368 E3.07442
G1 X165.430 Y93.368 E3.12639
G1 X158.650 Y86.588 E3.68609
G1 X158.650 Y85.697 E3.73806
G1 X166.321 Y93.368 E4.37126
G1 X167.211 Y93.368 E4.42324
G1 X158.650 Y84.807 E5.12995
G1 X158.650 Y83.916 E5.18192
G1 X168.102 Y93.368 E5.96214
G1 X168.992 Y93.368 E6.01411
G1 X158.650 Y83.026 E6.86783
G1 X158.650 Y82.135 E6.91981
G1 X169.883 Y93.368 E7.84703
G1 X170.773 Y93.368 E7.89901
G1 X158.650 Y81.245 E8.89974
G1 X158.650 Y80.354 E8.95172
G1 X171.664 Y93.368 E10.02596
G1 X172.554 Y93.368 E10.07793
G1 X158.650 Y79.464 E11.22568
G1 X158.650 Y78.573 E11.27765
G1 X173.445 Y93.368 E12.49890
G1 X174.335 Y93.368 E12.55088
G1 X158.650 Y77.683 E13.84564
G1 X158.650 Y76.792 E13.89761
G1 X175.226 Y93.368 E15.26588
G1 X176.116 Y93.368 E15.31785
G1 X158.650 Y75.902 E16.75962
G1 X158.650 Y75.011 E16.81160
G1 X177.007 Y93.368 E18.32688
G1 X177.897 Y93.368 E18.37885
G1 X158.650 Y74.121 E19.96763
G1 X158.650 Y73.230 E20.01961
G1 X178.788 Y93.368 E21.68190
G1 X179.678 Y93.368 E21.73387
G1 X158.650 Y72.340 E23.46967
G1 X158.650 Y71.449 E23.52165
G1 X180.569 Y93.368 E25.33095
G1 X181.459 Y93.368 E25.38292
G1 X158.650 Y70.559 E27.26573
G1 X158.650 Y69.668 E27.31771
G1 X182.350 Y93.368 E29.27402
G1 X183.240 Y93.368 E29.32599
G1 X158.650 Y68.778 E31.35581
G1 X158.650 Y67.887 E31.40779
G1 X184.131 Y93.368 E33.51112
G1 X185.021 Y93.368 E33.56309
G1 X158.650 Y66.997 E35.73992
G1 X158.650 Y66.106 E35.79190
G1 X185.912 Y93.368 E38.04224
G1 X186.802 Y93.368 E38.09422
G1 X158.650 Y65.216 E40.41806
G1 X158.650 Y64.325 E40.47004
G1 X187.693 Y93.368 E42.86739
G1 X188.583 Y93.368 E42.91936
G1 X158.650 Y63.435 E45.39022
G1 X158.650 Y62.544 E45.44220
G1 X189.474 Y93.368 E47.98656
G1 X190.364 Y93.368 E48.03854
G1 X158.650 Y61.654 E50.65640
G1 X158.650 Y60.763 E50.70838
G1 X191.255 Y93.368 E53.39976
G1 X192.145 Y93.368 E53.45173
